; GCode generated by CraftWare

G28 X0 Y0
G28 Z0


M104 S220 ;set head temp (no wait)
M190 S80 ;set bed temp (wait)
M109 S220 ;set head temp (wait)
; ------------------------------------
; Layer #0
; ------------------------------------
M106 S0 ;turn off fan
G21 ; mm
G90 ; abs
G92 E0 ;reset extr
G0 F600 Z0.200
;segType:Skirt
G0 F3000 E-1.0000
G0 X116.281 Y99.477 F5400
G0 F3000 E0.0000
G1 X116.281 Y67.051 E1.0785 F2400
G1 X116.477 Y66.724 E1.0912
G1 X118.831 Y64.370 E1.2019
G1 X119.092 Y64.370 E1.2106
G1 X119.157 Y63.913 E1.2259
G1 X119.157 Y63.129 E1.2520
G1 X121.511 Y60.775 E1.3627
G1 X121.969 Y60.709 E1.3781
G1 X122.753 Y60.709 E1.4042
G1 X122.818 Y60.252 E1.4196
G1 X122.818 Y59.468 E1.4457
G1 X125.172 Y57.114 E1.5564
G1 X125.630 Y57.048 E1.5718
G1 X126.153 Y57.048 E1.5892
G1 X126.348 Y56.983 E1.5960
G1 X126.348 Y55.937 E1.6308
G1 X128.702 Y53.584 E1.7415
G1 X129.160 Y53.518 E1.7569
G1 X129.944 Y53.518 E1.7830
G1 X130.009 Y53.061 E1.7984
G1 X130.009 Y52.276 E1.8245
G1 X130.794 Y51.492 E1.8614
G1 X130.009 Y50.707 E1.8983
G1 X130.009 Y49.138 E1.9504
G1 X130.075 Y48.680 E1.9658
G1 X132.429 Y46.327 E2.0765
G1 X133.998 Y46.327 E2.1287
G1 X134.455 Y46.393 E2.1441
G1 X134.978 Y46.916 E2.1687
G1 X135.239 Y47.046 E2.1784
G1 X135.762 Y46.523 E2.2030
G1 X136.090 Y46.327 E2.2157
G1 X137.920 Y46.327 E2.2766
G1 X140.274 Y48.680 E2.3873
G1 X140.339 Y49.138 E2.4027
G1 X140.339 Y50.707 E2.4548
G1 X139.555 Y51.492 E2.4917
G1 X140.339 Y52.276 E2.5286
G1 X140.339 Y53.322 E2.5634
G1 X140.404 Y53.518 E2.5703
G1 X141.450 Y53.518 E2.6051
G1 X141.777 Y53.715 E2.6178
G1 X144.000 Y55.937 E2.7223
G1 X144.000 Y56.983 E2.7571
G1 X144.458 Y57.048 E2.7725
G1 X144.981 Y57.048 E2.7899
G1 X145.308 Y57.245 E2.8026
G1 X147.530 Y59.468 E2.9071
G1 X147.530 Y60.514 E2.9419
G1 X147.596 Y60.709 E2.9488
G1 X148.642 Y60.709 E2.9836
G1 X148.969 Y60.906 E2.9963
G1 X151.191 Y63.129 E3.1008
G1 X151.191 Y64.175 E3.1356
G1 X151.257 Y64.632 E3.1510
G1 X153.349 Y66.724 E3.2494
G1 X153.453 Y66.898 E3.2561
G0 X116.281 Y99.477 F5400
G0 F3000 E2.2561
G0 X124.584 Y110.394 F5400
G0 F3000 E3.2561
G1 X144.850 Y110.394 E3.9302 F2400
G1 X145.307 Y110.329 E3.9455
G1 X145.307 Y89.671 E4.6326
G1 X144.850 Y89.606 E4.6480
G1 X124.976 Y89.606 E5.3090
G1 X124.518 Y89.671 E5.3244
G1 X124.518 Y110.068 E6.0028
G1 X124.584 Y110.394 E6.0139
G0 X124.584 Y110.394 F5400
G0 F3000 E5.0139
G0 X133.148 Y125.366 F5400
G0 F3000 E6.0139
G1 X132.886 Y125.627 E6.0262 F2400
G1 X132.756 Y126.019 E6.0399
G1 X132.756 Y126.281 E6.0486
G1 X132.625 Y126.412 E6.0548
G1 X132.625 Y127.981 E6.1069
G1 X132.690 Y128.438 E6.1223
G1 X132.952 Y129.222 E6.1498
G1 X133.736 Y129.615 E6.1790
G1 X134.128 Y129.615 E6.1920
G1 X134.259 Y129.745 E6.1982
G1 X135.305 Y129.745 E6.2330
G1 X135.762 Y129.680 E6.2483
G1 X136.155 Y129.550 E6.2621
G1 X136.613 Y129.484 E6.2775
G1 X136.874 Y129.222 E6.2898
G1 X137.070 Y128.896 E6.3024
G1 X137.201 Y127.981 E6.3332
G1 X137.266 Y127.131 E6.3615
G1 X137.201 Y126.412 E6.3856
G1 X137.070 Y126.281 E6.3917
G1 X137.070 Y126.019 E6.4004
G1 X136.939 Y125.889 E6.4066
G1 X136.939 Y125.627 E6.4153
G1 X136.482 Y125.300 E6.4340
G1 X136.220 Y125.300 E6.4427
G1 X136.090 Y125.170 E6.4488
G1 X135.174 Y125.039 E6.4796
G1 X134.390 Y125.039 E6.5056
G1 X134.259 Y125.170 E6.5118
G1 X133.736 Y125.170 E6.5292
G1 X133.605 Y125.300 E6.5353
G1 X133.148 Y125.366 E6.5507
G0 X133.148 Y125.366 F5400
G0 X132.821 Y125.170
G1 X132.429 Y125.823 E6.5761 F2400
G1 X132.363 Y126.281 E6.5914
G1 X132.233 Y126.412 E6.5976
G1 X132.233 Y127.981 E6.6498
G1 X132.298 Y128.438 E6.6651
G1 X132.559 Y129.222 E6.6926
G1 X132.756 Y129.550 E6.7053
G1 X133.082 Y129.745 E6.7180
G1 X133.736 Y130.007 E6.7414
G1 X134.128 Y130.007 E6.7545
G1 X134.259 Y130.138 E6.7606
G1 X135.305 Y130.138 E6.7954
G1 X135.762 Y130.073 E6.8108
G1 X136.155 Y129.942 E6.8245
G1 X136.613 Y129.876 E6.8399
G1 X136.939 Y129.680 E6.8526
G1 X137.201 Y129.419 E6.8649
G1 X137.331 Y129.027 E6.8786
G1 X137.462 Y128.896 E6.8848
G1 X137.593 Y127.981 E6.9155
G1 X137.659 Y127.131 E6.9439
G1 X137.593 Y126.412 E6.9679
G1 X137.462 Y126.281 E6.9740
G1 X137.462 Y126.019 E6.9827
G1 X137.331 Y125.889 E6.9889
G1 X137.331 Y125.627 E6.9976
G1 X137.136 Y125.300 E7.0103
G1 X136.874 Y125.039 E7.0226
G1 X136.613 Y125.039 E7.0312
G1 X136.482 Y124.908 E7.0374
G1 X136.220 Y124.908 E7.0461
G1 X136.090 Y124.777 E7.0522
G1 X135.174 Y124.647 E7.0830
G1 X134.390 Y124.647 E7.1091
G1 X134.259 Y124.777 E7.1152
G1 X133.736 Y124.777 E7.1326
G1 X133.605 Y124.908 E7.1388
G1 X133.148 Y124.973 E7.1542
G1 X132.821 Y125.170 E7.1668
G0 X132.821 Y125.170 F5400
G0 F3000 E6.1668
G0 X116.673 Y99.216 F5400
G0 F3000 E7.1668
G1 X116.673 Y67.313 E8.2279 F2400
G1 X116.739 Y66.855 E8.2433
G1 X118.831 Y64.763 E8.3417
G1 X119.354 Y64.763 E8.3591
G1 X119.549 Y64.698 E8.3660
G1 X119.549 Y63.129 E8.4182
G1 X121.380 Y61.298 E8.5043
G1 X121.707 Y61.102 E8.5170
G1 X122.753 Y61.102 E8.5518
G1 X123.210 Y61.037 E8.5671
G1 X123.210 Y59.468 E8.6193
G1 X125.041 Y57.637 E8.7054
G1 X125.368 Y57.441 E8.7181
G1 X126.676 Y57.441 E8.7616
G1 X126.741 Y56.983 E8.7769
G1 X126.741 Y55.937 E8.8117
G1 X128.571 Y54.107 E8.8978
G1 X128.898 Y53.910 E8.9105
G1 X129.944 Y53.910 E8.9453
G1 X130.402 Y53.845 E8.9607
G1 X130.402 Y52.276 E9.0129
G1 X131.186 Y51.492 E9.0498
G1 X130.402 Y50.707 E9.0867
G1 X130.402 Y49.138 E9.1389
G1 X130.467 Y48.680 E9.1542
G1 X132.429 Y46.719 E9.2465
G1 X133.998 Y46.719 E9.2987
G1 X134.455 Y46.785 E9.3141
G1 X134.978 Y47.308 E9.3387
G1 X135.239 Y47.439 E9.3484
G1 X135.762 Y46.916 E9.3730
G1 X136.090 Y46.719 E9.3857
G1 X137.920 Y46.719 E9.4465
G1 X139.751 Y48.550 E9.5326
G1 X139.947 Y48.877 E9.5453
G1 X139.947 Y50.707 E9.6062
G1 X139.162 Y51.492 E9.6431
G1 X139.947 Y52.276 E9.6800
G1 X139.947 Y53.845 E9.7322
G1 X140.404 Y53.910 E9.7476
G1 X141.450 Y53.910 E9.7824
G1 X141.777 Y54.107 E9.7951
G1 X143.608 Y55.937 E9.8812
G1 X143.608 Y56.983 E9.9159
G1 X143.673 Y57.441 E9.9313
G1 X144.719 Y57.441 E9.9661
G1 X145.177 Y57.506 E9.9815
G1 X147.138 Y59.468 E10.0737
G1 X147.138 Y61.037 E10.1259
G1 X147.596 Y61.102 E10.1413
G1 X148.642 Y61.102 E10.1761
G1 X148.969 Y61.298 E10.1888
G1 X150.799 Y63.129 E10.2749
G1 X150.799 Y64.698 E10.3270
G1 X151.126 Y64.893 E10.3397
G1 X152.956 Y66.724 E10.4258
G1 X153.153 Y67.051 E10.4385
G1 X153.153 Y100.523 E11.5518
G1 X153.153 Y132.949 E12.6303
G1 X152.956 Y133.276 E12.6430
G1 X151.126 Y135.107 E12.7291
G1 X150.799 Y135.303 E12.7417
G1 X150.799 Y136.872 E12.7939
G1 X150.603 Y137.199 E12.8066
G1 X148.772 Y139.029 E12.8927
G1 X147.203 Y139.029 E12.9449
G1 X147.138 Y139.487 E12.9603
G1 X147.138 Y140.533 E12.9951
G1 X146.942 Y140.860 E13.0078
G1 X145.111 Y142.690 E13.0939
G1 X144.065 Y142.690 E13.1286
G1 X143.608 Y142.755 E13.1440
G1 X143.608 Y143.801 E13.1788
G1 X143.542 Y144.259 E13.1942
G1 X141.581 Y146.220 E13.2864
G1 X140.012 Y146.220 E13.3386
G1 X139.947 Y146.678 E13.3540
G1 X139.947 Y147.724 E13.3888
G1 X139.751 Y148.051 E13.4015
G1 X139.228 Y148.574 E13.4261
G1 X139.358 Y148.835 E13.4358
G1 X139.881 Y149.358 E13.4604
G1 X139.947 Y149.816 E13.4758
G1 X139.947 Y151.385 E13.5279
G1 X138.116 Y153.215 E13.6140
G1 X137.789 Y153.412 E13.6267
G1 X135.959 Y153.412 E13.6876
G1 X135.174 Y152.627 E13.7245
G1 X134.390 Y153.412 E13.7614
G1 X132.821 Y153.412 E13.8136
G1 X132.363 Y153.346 E13.8290
G1 X131.448 Y152.431 E13.8720
G1 X130.402 Y151.385 E13.9212
G1 X130.402 Y149.816 E13.9734
G1 X130.467 Y149.358 E13.9888
G1 X130.990 Y148.835 E14.0134
G1 X131.121 Y148.574 E14.0231
G1 X130.598 Y148.051 E14.0477
G1 X130.402 Y147.724 E14.0604
G1 X130.402 Y146.678 E14.0952
G1 X130.337 Y146.220 E14.1106
G1 X128.768 Y146.220 E14.1628
G1 X126.937 Y144.390 E14.2489
G1 X126.741 Y144.063 E14.2615
G1 X126.741 Y142.755 E14.3050
G1 X126.283 Y142.690 E14.3204
G1 X125.237 Y142.690 E14.3552
G1 X123.407 Y140.860 E14.4413
G1 X123.210 Y140.533 E14.4540
G1 X123.210 Y139.487 E14.4888
G1 X123.145 Y139.029 E14.5041
G1 X121.576 Y139.029 E14.5563
G1 X119.746 Y137.199 E14.6424
G1 X119.549 Y136.872 E14.6551
G1 X119.549 Y135.303 E14.7073
G1 X118.831 Y135.237 E14.7313
G1 X116.739 Y133.145 E14.8297
G1 X116.673 Y132.688 E14.8451
G1 X116.673 Y99.216 E15.9584
G0 X116.673 Y99.216 F5400
G0 F3000 E14.9584
G0 X124.191 Y110.787 F5400
G0 F3000 E15.9584
G1 X145.504 Y110.787 E16.6672 F2400
G1 X145.699 Y110.722 E16.6741
G1 X145.699 Y89.279 E17.3873
G1 X145.242 Y89.213 E17.4026
G1 X124.322 Y89.213 E18.0985
G1 X124.126 Y89.279 E18.1053
G1 X124.126 Y110.199 E18.8011
G1 X124.191 Y110.787 E18.8208
G0 X124.191 Y110.787 F5400
G0 X123.799 Y111.179
G1 X145.634 Y111.179 E19.5470 F2400
G1 X146.092 Y111.114 E19.5624
G1 X146.092 Y88.886 E20.3017
G1 X145.634 Y88.821 E20.3171
G1 X124.191 Y88.821 E21.0303
G1 X123.734 Y88.886 E21.0456
G1 X123.734 Y110.852 E21.7762
G1 X123.799 Y111.179 E21.7873
G0 X123.799 Y111.179 F5400
G0 F3000 E20.7873
G0 X132.559 Y129.876 F5400
G0 F3000 E21.7873
G1 X132.886 Y130.073 E21.8000 F2400
G1 X133.736 Y130.399 E21.8303
G1 X134.128 Y130.399 E21.8433
G1 X134.259 Y130.530 E21.8495
G1 X135.305 Y130.530 E21.8842
G1 X135.762 Y130.465 E21.8996
G1 X136.155 Y130.334 E21.9134
G1 X136.613 Y130.268 E21.9287
G1 X137.266 Y129.876 E21.9541
G1 X137.854 Y128.896 E21.9921
G1 X137.985 Y127.981 E22.0229
G1 X138.051 Y127.131 E22.0512
G1 X137.985 Y126.412 E22.0753
G1 X137.854 Y126.281 E22.0814
G1 X137.854 Y126.019 E22.0901
G1 X137.724 Y125.889 E22.0962
G1 X137.724 Y125.627 E22.1049
G1 X137.331 Y124.973 E22.1303
G1 X136.874 Y124.647 E22.1490
G1 X136.613 Y124.647 E22.1577
G1 X136.482 Y124.516 E22.1638
G1 X136.220 Y124.516 E22.1725
G1 X136.090 Y124.385 E22.1787
G1 X135.174 Y124.254 E22.2094
G1 X134.390 Y124.254 E22.2355
G1 X134.259 Y124.385 E22.2417
G1 X133.736 Y124.385 E22.2591
G1 X133.605 Y124.516 E22.2652
G1 X133.148 Y124.581 E22.2806
G1 X132.494 Y124.973 E22.3059
G1 X132.102 Y125.627 E22.3313
G1 X131.971 Y126.019 E22.3451
G1 X131.971 Y126.281 E22.3538
G1 X131.840 Y126.412 E22.3599
G1 X131.840 Y127.981 E22.4121
G1 X131.906 Y128.438 E22.4275
G1 X132.167 Y129.222 E22.4550
G1 X132.559 Y129.876 E22.4803
G0 X132.559 Y129.876 F5400
G0 F3000 E21.4803
G0 X123.603 Y138.702 F5400
G0 F3000 E22.4803
G1 X123.145 Y138.637 E22.4957 F2400
G1 X121.576 Y138.637 E22.5479
G1 X120.007 Y137.068 E22.6217
G1 X119.942 Y136.610 E22.6371
G1 X119.942 Y135.564 E22.6718
G1 X120.007 Y135.106 E22.6872
G1 X120.138 Y134.845 E22.6969
G1 X118.831 Y134.845 E22.7404
G1 X117.262 Y133.276 E22.8142
G1 X117.065 Y132.949 E22.8269
G1 X117.065 Y99.477 E23.9402
G1 X117.065 Y67.051 E25.0187
G1 X117.262 Y66.724 E25.0314
G1 X118.831 Y65.155 E25.1052
G1 X119.877 Y65.155 E25.1400
G1 X120.072 Y65.090 E25.1468
G1 X119.942 Y64.959 E25.1530
G1 X119.942 Y63.129 E25.2139
G1 X121.511 Y61.560 E25.2877
G1 X121.969 Y61.494 E25.3031
G1 X123.538 Y61.494 E25.3552
G1 X123.603 Y61.037 E25.3706
G1 X123.603 Y59.468 E25.4228
G1 X125.172 Y57.899 E25.4966
G1 X125.630 Y57.833 E25.5120
G1 X126.676 Y57.833 E25.5468
G1 X127.133 Y57.768 E25.5621
G1 X127.133 Y55.937 E25.6230
G1 X128.702 Y54.368 E25.6968
G1 X129.160 Y54.303 E25.7122
G1 X130.729 Y54.303 E25.7644
G1 X130.794 Y53.845 E25.7797
G1 X130.794 Y52.276 E25.8319
G1 X131.578 Y51.492 E25.8688
G1 X130.794 Y50.707 E25.9057
G1 X130.794 Y49.138 E25.9579
G1 X130.860 Y48.680 E25.9733
G1 X132.429 Y47.111 E26.0471
G1 X133.998 Y47.111 E26.0993
G1 X134.455 Y47.177 E26.1147
G1 X134.978 Y47.700 E26.1393
G1 X135.239 Y47.831 E26.1490
G1 X135.762 Y47.308 E26.1736
G1 X136.090 Y47.111 E26.1863
G1 X137.920 Y47.111 E26.2472
G1 X139.489 Y48.680 E26.3210
G1 X139.555 Y49.138 E26.3363
G1 X139.555 Y50.707 E26.3885
G1 X138.770 Y51.492 E26.4254
G1 X139.555 Y52.276 E26.4623
G1 X139.555 Y53.845 E26.5145
G1 X139.620 Y54.303 E26.5299
G1 X141.189 Y54.303 E26.5821
G1 X141.647 Y54.368 E26.5974
G1 X143.216 Y55.937 E26.6712
G1 X143.216 Y57.768 E26.7321
G1 X143.673 Y57.833 E26.7475
G1 X144.719 Y57.833 E26.7823
G1 X145.177 Y57.899 E26.7977
G1 X146.746 Y59.468 E26.8715
G1 X146.746 Y61.037 E26.9237
G1 X146.811 Y61.494 E26.9390
G1 X148.380 Y61.494 E26.9912
G1 X148.838 Y61.560 E27.0066
G1 X150.407 Y63.129 E27.0804
G1 X150.407 Y64.959 E27.1413
G1 X150.276 Y65.090 E27.1474
G1 X150.995 Y65.155 E27.1714
G1 X152.564 Y66.724 E27.2452
G1 X152.760 Y67.051 E27.2579
G1 X152.760 Y100.523 E28.3712
G1 X152.760 Y132.949 E29.4497
G1 X152.564 Y133.276 E29.4624
G1 X150.995 Y134.845 E29.5362
G1 X150.211 Y134.845 E29.5623
G1 X150.341 Y135.106 E29.5720
G1 X150.407 Y135.564 E29.5874
G1 X150.407 Y136.610 E29.6222
G1 X150.341 Y137.068 E29.6376
G1 X148.772 Y138.637 E29.7114
G1 X147.203 Y138.637 E29.7635
G1 X146.746 Y138.702 E29.7789
G1 X146.746 Y140.271 E29.8311
G1 X146.680 Y140.729 E29.8465
G1 X145.111 Y142.298 E29.9203
G1 X143.281 Y142.298 E29.9812
G1 X143.216 Y142.755 E29.9965
G1 X143.216 Y143.801 E30.0313
G1 X143.150 Y144.259 E30.0467
G1 X141.581 Y145.828 E30.1205
G1 X140.012 Y145.828 E30.1727
G1 X139.555 Y145.893 E30.1880
G1 X139.555 Y147.462 E30.2402
G1 X139.489 Y147.920 E30.2556
G1 X138.966 Y148.443 E30.2802
G1 X138.835 Y148.704 E30.2899
G1 X139.358 Y149.227 E30.3145
G1 X139.555 Y149.554 E30.3272
G1 X139.555 Y151.385 E30.3881
G1 X137.986 Y152.954 E30.4619
G1 X137.528 Y153.019 E30.4773
G1 X135.959 Y153.019 E30.5295
G1 X135.174 Y152.235 E30.5664
G1 X134.390 Y153.019 E30.6033
G1 X132.429 Y153.019 E30.6685
G1 X132.232 Y152.823 E30.6777
G1 X130.794 Y151.385 E30.7454
G1 X130.794 Y149.816 E30.7976
G1 X130.860 Y149.358 E30.8130
G1 X131.383 Y148.835 E30.8376
G1 X131.513 Y148.574 E30.8473
G1 X130.990 Y148.051 E30.8719
G1 X130.794 Y147.724 E30.8846
G1 X130.794 Y145.893 E30.9454
G1 X130.337 Y145.828 E30.9608
G1 X128.768 Y145.828 E31.0130
G1 X127.199 Y144.259 E31.0868
G1 X127.133 Y143.801 E31.1022
G1 X127.133 Y142.755 E31.1370
G1 X127.068 Y142.298 E31.1523
G1 X125.237 Y142.298 E31.2132
G1 X123.668 Y140.729 E31.2870
G1 X123.603 Y140.271 E31.3024
G1 X123.603 Y138.702 E31.3546
G0 X123.603 Y138.702 F5400
G0 X127.983 Y137.460
G1 X127.722 Y137.722 E31.3669 F2400
G1 X127.656 Y137.918 E31.3738
G1 X127.983 Y138.244 E31.3891
G1 X128.310 Y137.918 E31.4045
G1 X127.983 Y137.460 E31.4232
G0 X127.983 Y137.460 F5400
G0 X128.179 Y134.518
G1 X127.787 Y134.518 E31.4362 F2400
G1 X127.983 Y134.714 E31.4454
G1 X128.179 Y134.518 E31.4546
G0 X128.179 Y134.518 F5400
G0 X142.366 Y134.714
G1 X142.561 Y134.518 E31.4638 F2400
G1 X142.170 Y134.518 E31.4769
G1 X142.366 Y134.714 E31.4861
G0 X142.366 Y134.714 F5400
G0 X142.039 Y137.918
G1 X142.366 Y138.244 E31.5014 F2400
G1 X142.692 Y137.918 E31.5168
G1 X142.366 Y137.460 E31.5355
G1 X142.104 Y137.722 E31.5478
G1 X142.039 Y137.918 E31.5547
G0 X142.039 Y137.918 F5400
G0 X138.705 Y138.244
G1 X138.966 Y138.113 E31.5644 F2400
G1 X139.162 Y137.787 E31.5771
G1 X138.900 Y137.525 E31.5894
G1 X138.705 Y137.460 E31.5962
G1 X138.443 Y137.722 E31.6085
G1 X138.378 Y137.918 E31.6154
G1 X138.705 Y138.244 E31.6308
G0 X138.705 Y138.244 F5400
G0 X138.705 Y141.774
G1 X138.966 Y141.644 E31.6405 F2400
G1 X139.097 Y141.383 E31.6502
G1 X138.835 Y141.121 E31.6625
G1 X138.378 Y141.448 E31.6812
G1 X138.705 Y141.774 E31.6965
G0 X138.705 Y141.774 F5400
G0 X135.174 Y148.312
G1 X134.717 Y148.639 E31.7152 F2400
G1 X135.174 Y149.096 E31.7368
G1 X135.501 Y148.770 E31.7521
G1 X135.174 Y148.312 E31.7708
G0 X135.174 Y148.312 F5400
G0 X135.174 Y144.651
G1 X134.913 Y144.913 E31.7831 F2400
G1 X134.848 Y145.109 E31.7900
G1 X135.174 Y145.435 E31.8053
G1 X135.501 Y145.109 E31.8207
G1 X135.174 Y144.651 E31.8394
G0 X135.174 Y144.651 F5400
G0 X134.717 Y141.448
G1 X135.174 Y141.905 E31.8609 F2400
G1 X135.501 Y141.579 E31.8763
G1 X135.174 Y141.121 E31.8950
G1 X134.717 Y141.448 E31.9137
G0 X134.717 Y141.448 F5400
G0 X131.644 Y141.121
G1 X131.187 Y141.448 E31.9323 F2400
G1 X131.513 Y141.774 E31.9477
G1 X131.775 Y141.644 E31.9574
G1 X131.906 Y141.383 E31.9671
G1 X131.644 Y141.121 E31.9794
G0 X131.644 Y141.121 F5400
G0 X131.971 Y137.787
G1 X131.709 Y137.525 E31.9917 F2400
G1 X131.513 Y137.460 E31.9986
G1 X131.252 Y137.722 E32.0109
G1 X131.187 Y137.918 E32.0178
G1 X131.513 Y138.244 E32.0331
G1 X131.775 Y138.113 E32.0429
G1 X131.971 Y137.787 E32.0555
G0 X131.971 Y137.787 F5400
G0 X135.174 Y137.460
G1 X134.913 Y137.722 E32.0678 F2400
G1 X134.848 Y137.918 E32.0747
G1 X135.174 Y138.244 E32.0901
G1 X135.501 Y137.918 E32.1054
G1 X135.174 Y137.460 E32.1241
G0 X135.174 Y137.460 F5400
G0 X135.370 Y134.518
G1 X134.978 Y134.518 E32.1371 F2400
G1 X135.174 Y134.714 E32.1464
G1 X135.370 Y134.518 E32.1556
G0 X135.370 Y134.518 F5400
G0 F3000 E31.1556
G0 X136.090 Y123.993 F5400
G0 F3000 E32.1556
G1 X135.174 Y123.862 E32.1863 F2400
G1 X134.390 Y123.862 E32.2124
G1 X134.259 Y123.993 E32.2186
G1 X133.736 Y123.993 E32.2360
G1 X133.605 Y124.124 E32.2421
G1 X133.148 Y124.189 E32.2575
G1 X132.494 Y124.581 E32.2828
G1 X132.298 Y124.647 E32.2897
G1 X131.710 Y125.627 E32.3277
G1 X131.579 Y126.019 E32.3415
G1 X131.579 Y126.281 E32.3502
G1 X131.448 Y126.412 E32.3563
G1 X131.448 Y127.981 E32.4085
G1 X131.513 Y128.438 E32.4239
G1 X131.775 Y129.222 E32.4514
G1 X131.971 Y129.550 E32.4641
G1 X132.102 Y129.942 E32.4778
G1 X132.429 Y130.138 E32.4905
G1 X132.690 Y130.399 E32.5028
G1 X133.736 Y130.791 E32.5400
G1 X134.128 Y130.791 E32.5530
G1 X134.259 Y130.922 E32.5591
G1 X135.305 Y130.922 E32.5939
G1 X135.762 Y130.857 E32.6093
G1 X136.155 Y130.726 E32.6231
G1 X136.613 Y130.661 E32.6384
G1 X137.593 Y130.073 E32.6765
G1 X137.985 Y129.419 E32.7018
G1 X138.116 Y129.027 E32.7156
G1 X138.247 Y128.896 E32.7217
G1 X138.377 Y127.981 E32.7525
G1 X138.443 Y127.131 E32.7808
G1 X138.377 Y126.412 E32.8048
G1 X138.247 Y126.281 E32.8110
G1 X138.247 Y126.019 E32.8197
G1 X138.116 Y125.889 E32.8258
G1 X138.116 Y125.627 E32.8345
G1 X137.528 Y124.647 E32.8726
G1 X136.874 Y124.254 E32.8979
G1 X136.613 Y124.254 E32.9066
G1 X136.482 Y124.124 E32.9128
G1 X136.220 Y124.124 E32.9215
G1 X136.090 Y123.993 E32.9276
G0 X136.090 Y123.993 F5400
G0 F3000 E31.9276
G0 X146.027 Y88.429 F5400
G0 F3000 E32.9276
G1 X123.538 Y88.429 E33.6756 F2400
G1 X123.342 Y88.494 E33.6825
G1 X123.342 Y110.983 E34.4304
G1 X123.407 Y111.571 E34.4501
G1 X146.288 Y111.571 E35.2112
G1 X146.484 Y111.506 E35.2180
G1 X146.484 Y88.494 E35.9834
G1 X146.027 Y88.429 E35.9988
G0 X146.027 Y88.429 F5400
G0 X135.044 Y51.818
G1 X135.305 Y51.688 E36.0085 F2400
G1 X135.501 Y51.361 E36.0212
G1 X135.239 Y51.100 E36.0335
G1 X134.978 Y51.230 E36.0432
G1 X134.717 Y51.492 E36.0555
G1 X135.044 Y51.818 E36.0708
G0 X135.044 Y51.818 F5400
G0 X135.174 Y55.479
G1 X135.501 Y55.153 E36.0862 F2400
G1 X135.174 Y54.695 E36.1049
G1 X134.913 Y54.957 E36.1172
G1 X134.848 Y55.153 E36.1241
G1 X135.174 Y55.479 E36.1394
G0 X135.174 Y55.479 F5400
G0 X142.104 Y62.148
G1 X142.039 Y62.344 E36.1463 F2400
G1 X142.300 Y62.606 E36.1586
G1 X142.561 Y62.475 E36.1683
G1 X142.627 Y62.148 E36.1794
G1 X142.366 Y61.887 E36.1917
G1 X142.104 Y62.148 E36.2040
G0 X142.104 Y62.148 F5400
G0 X138.705 Y59.010
G1 X138.966 Y58.879 E36.2137 F2400
G1 X139.097 Y58.618 E36.2234
G1 X138.835 Y58.356 E36.2357
G1 X138.378 Y58.683 E36.2544
G1 X138.705 Y59.010 E36.2698
G0 X138.705 Y59.010 F5400
G0 X138.378 Y62.344
G1 X138.705 Y62.671 E36.2851 F2400
G1 X138.966 Y62.540 E36.2948
G1 X139.162 Y62.213 E36.3075
G1 X138.900 Y61.952 E36.3198
G1 X138.705 Y61.887 E36.3267
G1 X138.443 Y62.148 E36.3390
G1 X138.378 Y62.344 E36.3458
G0 X138.378 Y62.344 F5400
G0 X135.174 Y61.887
G1 X134.913 Y62.148 E36.3581 F2400
G1 X134.913 Y62.409 E36.3668
G1 X135.109 Y62.606 E36.3761
G1 X135.501 Y62.344 E36.3917
G1 X135.174 Y61.887 E36.4104
G0 X135.174 Y61.887 F5400
G0 X134.717 Y58.683
G1 X135.044 Y59.010 E36.4258 F2400
G1 X135.305 Y58.879 E36.4355
G1 X135.501 Y58.552 E36.4482
G1 X135.239 Y58.291 E36.4605
G1 X134.978 Y58.422 E36.4702
G1 X134.717 Y58.683 E36.4825
G0 X134.717 Y58.683 F5400
G0 X131.513 Y59.010
G1 X131.775 Y58.879 E36.4922 F2400
G1 X131.906 Y58.618 E36.5019
G1 X131.644 Y58.356 E36.5142
G1 X131.187 Y58.683 E36.5329
G1 X131.513 Y59.010 E36.5483
G0 X131.513 Y59.010 F5400
G0 X131.252 Y62.409
G1 X131.644 Y62.671 E36.5639 F2400
G1 X131.906 Y62.409 E36.5762
G1 X131.971 Y62.213 E36.5831
G1 X131.709 Y61.952 E36.5954
G1 X131.513 Y61.887 E36.6023
G1 X131.252 Y62.148 E36.6146
G1 X131.252 Y62.409 E36.6232
G0 X131.252 Y62.409 F5400
G0 X127.722 Y62.409
G1 X127.918 Y62.606 E36.6325 F2400
G1 X128.310 Y62.344 E36.6481
G1 X127.983 Y61.887 E36.6668
G1 X127.722 Y62.148 E36.6791
G1 X127.722 Y62.409 E36.6878
G0 X127.722 Y62.409 F5400
G0 F3000 E35.6878
G0 X124.322 Y62.671 F5400
G0 F3000 E36.6878
G1 X124.779 Y62.344 E36.7065 F2400
G1 X124.584 Y62.017 E36.7192
G1 X124.061 Y61.494 E36.7438
G1 X123.995 Y61.037 E36.7592
G1 X123.995 Y59.468 E36.8113
G1 X125.041 Y58.422 E36.8606
G1 X125.368 Y58.225 E36.8732
G1 X126.937 Y58.225 E36.9254
G1 X127.264 Y58.422 E36.9381
G1 X127.787 Y58.945 E36.9627
G1 X127.983 Y59.010 E36.9696
G1 X128.245 Y58.748 E36.9819
G1 X128.310 Y58.552 E36.9888
G1 X127.525 Y57.768 E37.0257
G1 X127.525 Y55.937 E37.0865
G1 X128.571 Y54.891 E37.1357
G1 X128.898 Y54.695 E37.1484
G1 X130.729 Y54.695 E37.2093
G1 X131.513 Y55.479 E37.2462
G1 X131.971 Y55.153 E37.2649
G1 X131.775 Y54.826 E37.2776
G1 X131.252 Y54.303 E37.3022
G1 X131.186 Y53.845 E37.3176
G1 X131.186 Y52.276 E37.3697
G1 X131.971 Y51.492 E37.4066
G1 X131.186 Y50.707 E37.4435
G1 X131.186 Y49.138 E37.4957
G1 X131.252 Y48.680 E37.5111
G1 X132.429 Y47.504 E37.5665
G1 X133.998 Y47.504 E37.6186
G1 X134.455 Y47.569 E37.6340
G1 X134.978 Y48.092 E37.6586
G1 X135.239 Y48.223 E37.6683
G1 X135.762 Y47.700 E37.6929
G1 X136.090 Y47.504 E37.7056
G1 X137.920 Y47.504 E37.7665
G1 X138.966 Y48.550 E37.8157
G1 X139.162 Y48.877 E37.8284
G1 X139.162 Y50.707 E37.8893
G1 X138.378 Y51.492 E37.9262
G1 X139.162 Y52.276 E37.9631
G1 X139.162 Y53.845 E38.0153
G1 X139.097 Y54.303 E38.0307
G1 X138.574 Y54.826 E38.0553
G1 X138.378 Y55.153 E38.0679
G1 X138.639 Y55.414 E38.0802
G1 X138.835 Y55.479 E38.0871
G1 X139.620 Y54.695 E38.1240
G1 X141.189 Y54.695 E38.1762
G1 X141.647 Y54.761 E38.1916
G1 X142.823 Y55.937 E38.2469
G1 X142.823 Y57.768 E38.3078
G1 X142.039 Y58.552 E38.3447
G1 X142.366 Y59.010 E38.3634
G1 X142.692 Y58.814 E38.3761
G1 X143.215 Y58.291 E38.4007
G1 X143.673 Y58.225 E38.4160
G1 X144.719 Y58.225 E38.4508
G1 X145.177 Y58.291 E38.4662
G1 X146.354 Y59.468 E38.5216
G1 X146.354 Y61.037 E38.5738
G1 X146.288 Y61.494 E38.5891
G1 X145.765 Y62.017 E38.6137
G1 X145.569 Y62.344 E38.6264
G1 X145.831 Y62.606 E38.6387
G1 X146.027 Y62.671 E38.6456
G1 X146.811 Y61.886 E38.6825
G1 X148.380 Y61.886 E38.7347
G1 X148.838 Y61.952 E38.7500
G1 X150.015 Y63.129 E38.8054
G1 X150.015 Y64.959 E38.8663
G1 X149.492 Y65.482 E38.8909
G1 X149.949 Y65.547 E38.9062
G1 X150.995 Y65.547 E38.9410
G1 X152.303 Y66.855 E39.0025
G1 X152.368 Y67.313 E39.0179
G1 X152.368 Y84.049 E39.5746
G1 X152.368 Y100.785 E40.1312
G1 X152.368 Y117.521 E40.6878
G1 X152.368 Y132.688 E41.1923
G1 X152.303 Y133.145 E41.2077
G1 X150.995 Y134.453 E41.2692
G1 X149.426 Y134.453 E41.3214
G1 X149.557 Y134.714 E41.3311
G1 X149.818 Y134.975 E41.3434
G1 X150.015 Y135.303 E41.3561
G1 X150.015 Y136.872 E41.4083
G1 X149.818 Y137.199 E41.4209
G1 X148.772 Y138.245 E41.4701
G1 X147.203 Y138.245 E41.5223
G1 X146.745 Y138.179 E41.5377
G1 X146.222 Y137.656 E41.5623
G1 X145.896 Y137.460 E41.5750
G1 X145.634 Y137.722 E41.5873
G1 X145.569 Y137.918 E41.5941
G1 X146.354 Y138.702 E41.6310
G1 X146.354 Y140.271 E41.6832
G1 X146.288 Y140.729 E41.6986
G1 X145.111 Y141.906 E41.7540
G1 X143.281 Y141.906 E41.8149
G1 X142.496 Y141.121 E41.8518
G1 X142.039 Y141.448 E41.8704
G1 X142.235 Y141.774 E41.8831
G1 X142.758 Y142.297 E41.9077
G1 X142.823 Y142.755 E41.9231
G1 X142.823 Y143.801 E41.9579
G1 X142.758 Y144.259 E41.9733
G1 X141.581 Y145.436 E42.0286
G1 X140.012 Y145.436 E42.0808
G1 X139.554 Y145.370 E42.0962
G1 X139.031 Y144.847 E42.1208
G1 X138.705 Y144.651 E42.1335
G1 X138.443 Y144.913 E42.1458
G1 X138.378 Y145.109 E42.1526
G1 X139.162 Y145.893 E42.1895
G1 X139.162 Y147.462 E42.2417
G1 X139.097 Y147.920 E42.2571
G1 X138.574 Y148.443 E42.2817
G1 X138.443 Y148.704 E42.2914
G1 X138.966 Y149.227 E42.3160
G1 X139.162 Y149.554 E42.3287
G1 X139.162 Y151.385 E42.3896
G1 X138.116 Y152.431 E42.4388
G1 X137.789 Y152.627 E42.4515
G1 X135.959 Y152.627 E42.5124
G1 X135.174 Y151.843 E42.5493
G1 X134.390 Y152.627 E42.5862
G1 X132.429 Y152.627 E42.6514
G1 X132.232 Y152.431 E42.6606
G1 X131.186 Y151.385 E42.7098
G1 X131.186 Y149.816 E42.7620
G1 X131.252 Y149.358 E42.7774
G1 X131.775 Y148.835 E42.8020
G1 X131.906 Y148.574 E42.8117
G1 X131.383 Y148.051 E42.8363
G1 X131.186 Y147.724 E42.8490
G1 X131.186 Y145.893 E42.9099
G1 X131.971 Y145.109 E42.9468
G1 X131.644 Y144.651 E42.9655
G1 X131.317 Y144.847 E42.9781
G1 X130.794 Y145.370 E43.0027
G1 X130.337 Y145.436 E43.0181
G1 X128.768 Y145.436 E43.0703
G1 X127.722 Y144.390 E43.1195
G1 X127.525 Y144.063 E43.1322
G1 X127.525 Y142.494 E43.1844
G1 X127.722 Y142.167 E43.1971
G1 X128.245 Y141.644 E43.2217
G1 X128.310 Y141.448 E43.2285
G1 X128.048 Y141.186 E43.2408
G1 X127.852 Y141.121 E43.2477
G1 X127.068 Y141.906 E43.2846
G1 X125.237 Y141.906 E43.3455
G1 X124.191 Y140.860 E43.3947
G1 X123.995 Y140.533 E43.4074
G1 X123.995 Y138.702 E43.4683
G1 X124.779 Y137.918 E43.5052
G1 X124.453 Y137.460 E43.5239
G1 X124.126 Y137.656 E43.5365
G1 X123.603 Y138.179 E43.5611
G1 X123.145 Y138.245 E43.5765
G1 X121.576 Y138.245 E43.6287
G1 X120.530 Y137.199 E43.6779
G1 X120.334 Y136.872 E43.6906
G1 X120.334 Y135.303 E43.7428
G1 X120.530 Y134.975 E43.7555
G1 X120.792 Y134.714 E43.7678
G1 X120.923 Y134.453 E43.7775
G1 X118.831 Y134.453 E43.8471
G1 X117.523 Y133.145 E43.9086
G1 X117.457 Y132.688 E43.9239
G1 X117.457 Y115.952 E44.4806
G1 X117.457 Y99.216 E45.0372
G1 X117.457 Y82.480 E45.5939
G1 X117.457 Y67.313 E46.0983
G1 X117.523 Y66.855 E46.1137
G1 X118.831 Y65.547 E46.1752
G1 X120.400 Y65.547 E46.2274
G1 X120.857 Y65.482 E46.2428
G1 X120.334 Y64.959 E46.2674
G1 X120.334 Y63.129 E46.3282
G1 X121.380 Y62.083 E46.3774
G1 X121.707 Y61.886 E46.3901
G1 X123.538 Y61.886 E46.4510
G1 X124.322 Y62.671 E46.4879
G0 X124.322 Y62.671 F5400
G0 F3000 E45.4879
G0 X125.107 Y65.939 F5400
G0 F3000 E46.4879
G1 X124.976 Y65.678 E46.4976 F2400
G1 X124.453 Y65.155 E46.5222
G1 X124.126 Y65.351 E46.5349
G1 X123.865 Y65.613 E46.5472
G1 X123.668 Y65.939 E46.5599
G1 X125.107 Y65.939 E46.6077
G0 X125.107 Y65.939 F5400
G0 F3000 E45.6077
G0 X138.247 Y65.613 F5400
G0 F3000 E46.6077
G1 X138.051 Y65.939 E46.6204 F2400
G1 X139.489 Y65.939 E46.6682
G1 X139.358 Y65.678 E46.6779
G1 X138.835 Y65.155 E46.7025
G1 X138.509 Y65.351 E46.7152
G1 X138.247 Y65.613 E46.7275
G0 X138.247 Y65.613 F5400
G0 F3000 E45.7275
G0 X135.239 Y62.998 F5400
G0 F3000 E46.7275
G1 X135.893 Y62.344 E46.7582 F2400
G1 X135.697 Y62.017 E46.7709
G1 X135.174 Y61.494 E46.7955
G1 X134.521 Y62.148 E46.8263
G1 X134.521 Y62.409 E46.8349
G1 X134.978 Y62.867 E46.8565
G1 X135.239 Y62.998 E46.8662
G0 X135.239 Y62.998 F5400
G0 F3000 E45.8662
G0 X134.390 Y65.939 F5400
G0 F3000 E46.8662
G1 X135.828 Y65.939 E46.9140 F2400
G1 X136.024 Y65.874 E46.9209
G1 X135.239 Y65.090 E46.9578
G1 X134.978 Y65.221 E46.9675
G1 X134.455 Y65.744 E46.9921
G1 X134.390 Y65.939 E46.9990
G0 X134.390 Y65.939 F5400
G0 F3000 E45.9990
G0 X130.860 Y65.939 F5400
G0 F3000 E46.9990
G1 X132.298 Y65.939 E47.0468 F2400
G1 X132.167 Y65.678 E47.0565
G1 X131.644 Y65.155 E47.0811
G1 X131.317 Y65.351 E47.0938
G1 X131.056 Y65.613 E47.1061
G1 X130.860 Y65.939 E47.1188
G0 X130.860 Y65.939 F5400
G0 X128.048 Y65.090
G1 X127.787 Y65.221 E47.1285 F2400
G1 X127.264 Y65.744 E47.1531
G1 X127.199 Y65.939 E47.1599
G1 X128.637 Y65.939 E47.2078
G1 X128.833 Y65.874 E47.2146
G1 X128.048 Y65.090 E47.2515
G0 X128.048 Y65.090 F5400
G0 X128.702 Y62.344
G1 X128.506 Y62.017 E47.2642 F2400
G1 X127.983 Y61.494 E47.2888
G1 X127.329 Y62.148 E47.3196
G1 X127.329 Y62.409 E47.3282
G1 X127.787 Y62.867 E47.3498
G1 X128.048 Y62.998 E47.3595
G1 X128.702 Y62.344 E47.3902
G0 X128.702 Y62.344 F5400
G0 X131.513 Y61.494
G1 X130.860 Y62.148 E47.4210 F2400
G1 X130.860 Y62.409 E47.4297
G1 X131.317 Y62.867 E47.4512
G1 X131.644 Y63.063 E47.4639
G1 X132.167 Y62.540 E47.4885
G1 X132.363 Y62.213 E47.5012
G1 X131.840 Y61.690 E47.5258
G1 X131.513 Y61.494 E47.5384
G0 X131.513 Y61.494 F5400
G0 F3000 E46.5384
G0 X131.644 Y57.964 F5400
G0 F3000 E47.5384
G1 X131.317 Y58.160 E47.5511 F2400
G1 X130.794 Y58.683 E47.5757
G1 X131.513 Y59.402 E47.6095
G1 X131.775 Y59.271 E47.6192
G1 X132.298 Y58.748 E47.6438
G1 X132.167 Y58.487 E47.6535
G1 X131.644 Y57.964 E47.6781
G0 X131.644 Y57.964 F5400
G0 F3000 E46.6781
G0 X135.044 Y52.211 F5400
G0 F3000 E47.6781
G1 X135.305 Y52.080 E47.6879 F2400
G1 X135.828 Y51.557 E47.7125
G1 X135.893 Y51.361 E47.7193
G1 X135.370 Y50.838 E47.7439
G1 X135.109 Y50.707 E47.7536
G1 X134.325 Y51.492 E47.7905
G1 X135.044 Y52.211 E47.8244
G0 X135.044 Y52.211 F5400
G0 F3000 E46.8244
G0 X135.174 Y55.872 F5400
G0 F3000 E47.8244
G1 X135.893 Y55.153 E47.8582 F2400
G1 X135.697 Y54.826 E47.8708
G1 X135.174 Y54.303 E47.8954
G1 X134.651 Y54.826 E47.9200
G1 X134.455 Y55.153 E47.9327
G1 X135.174 Y55.872 E47.9665
G0 X135.174 Y55.872 F5400
G0 X135.893 Y58.552
G1 X135.370 Y58.029 E47.9911 F2400
G1 X135.109 Y57.899 E48.0008
G1 X134.325 Y58.683 E48.0377
G1 X135.044 Y59.402 E48.0715
G1 X135.305 Y59.271 E48.0813
G1 X135.828 Y58.748 E48.1059
G1 X135.893 Y58.552 E48.1127
G0 X135.893 Y58.552 F5400
G0 X138.705 Y59.402
G1 X138.966 Y59.271 E48.1225 F2400
G1 X139.489 Y58.748 E48.1471
G1 X139.358 Y58.487 E48.1568
G1 X138.835 Y57.964 E48.1814
G1 X138.509 Y58.160 E48.1940
G1 X137.986 Y58.683 E48.2186
G1 X138.705 Y59.402 E48.2525
G0 X138.705 Y59.402 F5400
G0 X139.554 Y62.213
G1 X139.031 Y61.690 E48.2771 F2400
G1 X138.705 Y61.494 E48.2897
G1 X138.051 Y62.148 E48.3205
G1 X138.051 Y62.409 E48.3292
G1 X138.509 Y62.867 E48.3507
G1 X138.835 Y63.063 E48.3634
G1 X139.358 Y62.540 E48.3880
G1 X139.554 Y62.213 E48.4006
G0 X139.554 Y62.213 F5400
G0 X142.431 Y62.998
G1 X143.084 Y62.344 E48.4314 F2400
G1 X142.889 Y62.017 E48.4440
G1 X142.366 Y61.494 E48.4686
G1 X141.712 Y62.148 E48.4994
G1 X141.712 Y62.409 E48.5081
G1 X142.170 Y62.867 E48.5296
G1 X142.431 Y62.998 E48.5393
G0 X142.431 Y62.998 F5400
G0 X143.215 Y65.874
G1 X142.431 Y65.090 E48.5762 F2400
G1 X142.170 Y65.221 E48.5859
G1 X141.647 Y65.744 E48.6105
G1 X141.581 Y65.939 E48.6174
G1 X143.019 Y65.939 E48.6652
G1 X143.215 Y65.874 E48.6721
G0 X143.215 Y65.874 F5400
G0 F3000 E47.6721
G0 X146.680 Y65.939 F5400
G0 F3000 E48.6721
G1 X146.550 Y65.678 E48.6818 F2400
G1 X146.027 Y65.155 E48.7064
G1 X145.700 Y65.351 E48.7191
G1 X145.438 Y65.613 E48.7314
G1 X145.242 Y65.939 E48.7441
G1 X146.680 Y65.939 E48.7919
G0 X146.680 Y65.939 F5400
G0 X146.811 Y72.085
G1 X147.138 Y72.020 E48.8030 F2400
G1 X147.073 Y71.824 E48.8098
G1 X146.811 Y71.824 E48.8185
G1 X146.811 Y72.085 E48.8272
G0 X146.811 Y72.085 F5400
G0 X146.811 Y78.491
G1 X147.138 Y78.426 E48.8383 F2400
G1 X147.073 Y78.230 E48.8452
G1 X146.811 Y78.230 E48.8539
G1 X146.811 Y78.491 E48.8625
G0 X146.811 Y78.491 F5400
G0 F3000 E47.8625
G0 X146.876 Y111.898 F5400
G0 F3000 E48.8625
G1 X146.876 Y88.102 E49.6540 F2400
G1 X146.419 Y88.037 E49.6694
G1 X123.407 Y88.037 E50.4348
G1 X122.949 Y88.102 E50.4501
G1 X122.949 Y111.637 E51.2329
G1 X123.015 Y111.963 E51.2440
G1 X146.419 Y111.963 E52.0224
G1 X146.876 Y111.898 E52.0378
G0 X146.876 Y111.898 F5400
G0 F3000 E51.0378
G0 X150.864 Y134.061 F5400
G0 F3000 E52.0378
G1 X118.961 Y134.061 E53.0989 F2400
G1 X118.634 Y133.864 E53.1116
G1 X117.850 Y133.080 E53.1485
G1 X117.850 Y99.608 E54.2618
G1 X117.850 Y66.920 E55.3489
G1 X118.634 Y66.136 E55.3858
G1 X118.961 Y65.939 E55.3985
G1 X121.576 Y65.939 E55.4855
G1 X121.446 Y65.678 E55.4952
G1 X120.923 Y65.155 E55.5198
G1 X120.726 Y64.828 E55.5325
G1 X120.726 Y63.259 E55.5847
G1 X120.923 Y62.932 E55.5974
G1 X121.576 Y62.278 E55.6281
G1 X123.145 Y62.278 E55.6803
G1 X123.603 Y62.344 E55.6957
G1 X124.126 Y62.867 E55.7203
G1 X124.453 Y63.063 E55.7330
G1 X124.976 Y62.540 E55.7576
G1 X125.172 Y62.213 E55.7703
G1 X124.387 Y61.429 E55.8072
G1 X124.387 Y59.860 E55.8593
G1 X124.453 Y59.402 E55.8747
G1 X125.237 Y58.617 E55.9116
G1 X127.068 Y58.617 E55.9725
G1 X127.852 Y59.402 E56.0094
G1 X128.179 Y59.206 E56.0221
G1 X128.702 Y58.683 E56.0467
G1 X128.506 Y58.356 E56.0593
G1 X127.983 Y57.833 E56.0839
G1 X127.917 Y57.376 E56.0993
G1 X127.917 Y56.330 E56.1341
G1 X127.983 Y55.872 E56.1495
G1 X128.768 Y55.087 E56.1864
G1 X130.337 Y55.087 E56.2386
G1 X130.794 Y55.153 E56.2540
G1 X131.317 Y55.676 E56.2786
G1 X131.644 Y55.872 E56.2912
G1 X132.167 Y55.349 E56.3158
G1 X132.363 Y55.022 E56.3285
G1 X131.578 Y54.238 E56.3654
G1 X131.578 Y52.669 E56.4176
G1 X131.644 Y52.211 E56.4330
G1 X132.167 Y51.688 E56.4576
G1 X132.298 Y51.427 E56.4673
G1 X131.775 Y50.904 E56.4919
G1 X131.578 Y50.577 E56.5046
G1 X131.578 Y48.746 E56.5655
G1 X132.363 Y47.962 E56.6024
G1 X132.821 Y47.896 E56.6177
G1 X134.390 Y47.896 E56.6699
G1 X135.174 Y48.680 E56.7068
G1 X135.959 Y47.896 E56.7437
G1 X137.528 Y47.896 E56.7959
G1 X137.986 Y47.962 E56.8113
G1 X138.770 Y48.746 E56.8482
G1 X138.770 Y50.315 E56.9004
G1 X138.705 Y50.773 E56.9158
G1 X138.182 Y51.296 E56.9404
G1 X138.051 Y51.557 E56.9501
G1 X138.574 Y52.080 E56.9747
G1 X138.770 Y52.407 E56.9874
G1 X138.770 Y54.238 E57.0483
G1 X137.986 Y55.022 E57.0852
G1 X138.182 Y55.349 E57.0978
G1 X138.705 Y55.872 E57.1224
G1 X139.031 Y55.676 E57.1351
G1 X139.554 Y55.153 E57.1597
G1 X140.012 Y55.087 E57.1751
G1 X141.581 Y55.087 E57.2273
G1 X142.366 Y55.872 E57.2642
G1 X142.431 Y56.330 E57.2795
G1 X142.431 Y57.376 E57.3143
G1 X142.366 Y57.833 E57.3297
G1 X141.843 Y58.356 E57.3543
G1 X141.647 Y58.683 E57.3670
G1 X142.170 Y59.206 E57.3916
G1 X142.496 Y59.402 E57.4043
G1 X143.281 Y58.617 E57.4412
G1 X145.111 Y58.617 E57.5020
G1 X145.896 Y59.402 E57.5389
G1 X145.961 Y59.860 E57.5543
G1 X145.961 Y61.429 E57.6065
G1 X145.177 Y62.213 E57.6434
G1 X145.373 Y62.540 E57.6561
G1 X145.896 Y63.063 E57.6807
G1 X146.222 Y62.867 E57.6934
G1 X146.745 Y62.344 E57.7180
G1 X147.203 Y62.278 E57.7333
G1 X148.772 Y62.278 E57.7855
G1 X149.557 Y63.063 E57.8224
G1 X149.622 Y63.521 E57.8378
G1 X149.622 Y64.567 E57.8726
G1 X149.557 Y65.025 E57.8880
G1 X148.772 Y65.809 E57.9249
G1 X148.772 Y65.939 E57.9292
G1 X150.864 Y65.939 E57.9988
G1 X151.191 Y66.136 E58.0115
G1 X151.976 Y66.920 E58.0484
G1 X151.976 Y100.392 E59.1617
G1 X151.976 Y133.080 E60.2489
G1 X151.191 Y133.864 E60.2858
G1 X150.864 Y134.061 E60.2985
G0 X150.864 Y134.061 F5400
G0 F3000 E59.2985
G0 X135.174 Y147.920 F5400
G0 F3000 E60.2985
G1 X134.848 Y148.116 E60.3111 F2400
G1 X134.325 Y148.639 E60.3357
G1 X135.174 Y149.489 E60.3757
G1 X135.893 Y148.770 E60.4095
G1 X135.697 Y148.443 E60.4222
G1 X135.174 Y147.920 E60.4468
G0 X135.174 Y147.920 F5400
G0 F3000 E59.4468
G0 X135.174 Y144.259 F5400
G0 F3000 E60.4468
G1 X134.651 Y144.782 E60.4714 F2400
G1 X134.455 Y145.109 E60.4840
G1 X135.174 Y145.828 E60.5179
G1 X135.893 Y145.109 E60.5517
G1 X135.697 Y144.782 E60.5643
G1 X135.174 Y144.259 E60.5889
G0 X135.174 Y144.259 F5400
G0 F3000 E59.5889
G0 X141.843 Y137.591 F5400
G0 F3000 E60.5889
G1 X141.647 Y137.918 E60.6016 F2400
G1 X142.104 Y138.375 E60.6231
G1 X142.300 Y138.571 E60.6324
G1 X142.561 Y138.441 E60.6421
G1 X143.084 Y137.918 E60.6667
G1 X142.889 Y137.591 E60.6793
G1 X142.366 Y137.068 E60.7039
G1 X141.843 Y137.591 E60.7285
G0 X141.843 Y137.591 F5400
G0 F3000 E59.7285
G0 X132.952 Y130.922 F5400
G0 F3000 E60.7285
G1 X133.213 Y130.922 E60.7372 F2400
G1 X133.344 Y131.053 E60.7434
G1 X133.605 Y131.053 E60.7521
G1 X133.736 Y131.184 E60.7582
G1 X134.651 Y131.314 E60.7890
G1 X135.697 Y131.314 E60.8238
G1 X135.828 Y131.184 E60.8299
G1 X136.090 Y131.184 E60.8386
G1 X136.220 Y131.053 E60.8448
G1 X136.678 Y130.988 E60.8601
G1 X137.659 Y130.399 E60.8982
G1 X137.920 Y130.138 E60.9105
G1 X138.508 Y129.157 E60.9485
G1 X138.639 Y128.765 E60.9623
G1 X138.639 Y128.504 E60.9710
G1 X138.770 Y128.373 E60.9771
G1 X138.770 Y127.588 E61.0032
G1 X138.900 Y127.458 E61.0093
G1 X138.900 Y127.196 E61.0180
G1 X138.770 Y127.065 E61.0242
G1 X138.770 Y126.542 E61.0416
G1 X138.377 Y125.366 E61.0828
G1 X137.985 Y124.712 E61.1082
G1 X137.724 Y124.450 E61.1205
G1 X137.397 Y124.254 E61.1332
G1 X137.136 Y123.993 E61.1455
G1 X135.959 Y123.601 E61.1867
G1 X135.697 Y123.601 E61.1954
G1 X135.567 Y123.470 E61.2016
G1 X134.521 Y123.470 E61.2364
G1 X134.128 Y123.601 E61.2501
G1 X133.213 Y123.731 E61.2809
G1 X132.233 Y124.320 E61.3189
G1 X131.971 Y124.581 E61.3312
G1 X131.187 Y125.889 E61.3819
G1 X131.056 Y126.804 E61.4126
G1 X131.056 Y128.373 E61.4648
G1 X131.187 Y128.504 E61.4710
G1 X131.187 Y128.765 E61.4797
G1 X131.317 Y128.896 E61.4858
G1 X131.317 Y129.157 E61.4945
G1 X131.644 Y129.745 E61.5169
G1 X131.775 Y130.007 E61.5266
G1 X132.298 Y130.530 E61.5512
G1 X132.952 Y130.922 E61.5766
G0 X132.952 Y130.922 F5400
G0 F3000 E60.5766
G0 X128.702 Y137.918 F5400
G0 F3000 E61.5766
G1 X128.506 Y137.591 E61.5892 F2400
G1 X127.983 Y137.068 E61.6138
G1 X127.460 Y137.591 E61.6384
G1 X127.264 Y137.918 E61.6511
G1 X127.460 Y138.113 E61.6603
G1 X127.918 Y138.571 E61.6819
G1 X128.179 Y138.441 E61.6916
G1 X128.702 Y137.918 E61.7162
G0 X128.702 Y137.918 F5400
G0 X131.513 Y138.636
G1 X131.775 Y138.506 E61.7259 F2400
G1 X132.298 Y137.983 E61.7505
G1 X132.363 Y137.787 E61.7574
G1 X131.840 Y137.264 E61.7820
G1 X131.513 Y137.068 E61.7946
G1 X130.990 Y137.591 E61.8192
G1 X130.794 Y137.918 E61.8319
G1 X131.513 Y138.636 E61.8657
G0 X131.513 Y138.636 F5400
G0 X132.298 Y141.513
G1 X132.167 Y141.252 E61.8754 F2400
G1 X131.644 Y140.729 E61.9000
G1 X131.317 Y140.925 E61.9127
G1 X130.794 Y141.448 E61.9373
G1 X131.513 Y142.167 E61.9711
G1 X131.775 Y142.036 E61.9808
G1 X132.298 Y141.513 E62.0054
G0 X132.298 Y141.513 F5400
G0 X135.174 Y140.729
G1 X134.848 Y140.925 E62.0181 F2400
G1 X134.325 Y141.448 E62.0427
G1 X135.174 Y142.297 E62.0827
G1 X135.893 Y141.579 E62.1165
G1 X135.697 Y141.252 E62.1292
G1 X135.174 Y140.729 E62.1538
G0 X135.174 Y140.729 F5400
G0 X135.893 Y137.918
G1 X135.697 Y137.591 E62.1664 F2400
G1 X135.174 Y137.068 E62.1910
G1 X134.651 Y137.591 E62.2156
G1 X134.455 Y137.918 E62.2283
G1 X135.174 Y138.636 E62.2621
G1 X135.893 Y137.918 E62.2959
G0 X135.893 Y137.918 F5400
G0 X138.705 Y138.636
G1 X138.966 Y138.506 E62.3056 F2400
G1 X139.489 Y137.983 E62.3302
G1 X139.554 Y137.787 E62.3371
G1 X139.031 Y137.264 E62.3617
G1 X138.705 Y137.068 E62.3744
G1 X138.182 Y137.591 E62.3990
G1 X137.986 Y137.918 E62.4117
G1 X138.705 Y138.636 E62.4455
G0 X138.705 Y138.636 F5400
G0 X139.489 Y141.383
G1 X138.835 Y140.729 E62.4762 F2400
G1 X138.509 Y140.925 E62.4889
G1 X137.986 Y141.448 E62.5135
G1 X138.443 Y141.905 E62.5350
G1 X138.835 Y142.167 E62.5507
G1 X139.358 Y141.644 E62.5753
G1 X139.489 Y141.383 E62.5850
G0 X139.489 Y141.383 F5400
G0 X141.647 Y141.448
G1 X141.843 Y141.774 E62.5977 F2400
G1 X142.366 Y142.297 E62.6223
G1 X142.431 Y142.755 E62.6376
G1 X142.431 Y143.801 E62.6724
G1 X142.366 Y144.259 E62.6878
G1 X141.581 Y145.044 E62.7247
G1 X140.012 Y145.044 E62.7769
G1 X139.554 Y144.978 E62.7923
G1 X139.031 Y144.455 E62.8169
G1 X138.705 Y144.259 E62.8296
G1 X138.182 Y144.782 E62.8542
G1 X137.986 Y145.109 E62.8668
G1 X138.770 Y145.893 E62.9037
G1 X138.770 Y147.462 E62.9559
G1 X138.705 Y147.920 E62.9713
G1 X138.182 Y148.443 E62.9959
G1 X138.051 Y148.704 E63.0056
G1 X138.574 Y149.227 E63.0302
G1 X138.770 Y149.554 E63.0429
G1 X138.770 Y151.385 E63.1038
G1 X137.986 Y152.169 E63.1407
G1 X137.528 Y152.235 E63.1561
G1 X135.959 Y152.235 E63.2082
G1 X135.174 Y151.450 E63.2451
G1 X134.390 Y152.235 E63.2820
G1 X132.429 Y152.235 E63.3473
G1 X132.232 Y152.039 E63.3565
G1 X131.578 Y151.385 E63.3873
G1 X131.578 Y149.816 E63.4394
G1 X131.644 Y149.358 E63.4548
G1 X132.167 Y148.835 E63.4794
G1 X132.298 Y148.574 E63.4891
G1 X131.775 Y148.051 E63.5137
G1 X131.578 Y147.724 E63.5264
G1 X131.578 Y145.893 E63.5873
G1 X132.363 Y145.109 E63.6242
G1 X132.167 Y144.782 E63.6369
G1 X131.644 Y144.259 E63.6615
G1 X131.317 Y144.455 E63.6742
G1 X130.794 Y144.978 E63.6988
G1 X130.337 Y145.044 E63.7141
G1 X128.768 Y145.044 E63.7663
G1 X127.983 Y144.259 E63.8032
G1 X127.917 Y143.801 E63.8186
G1 X127.917 Y142.755 E63.8534
G1 X127.983 Y142.297 E63.8688
G1 X128.506 Y141.774 E63.8934
G1 X128.702 Y141.448 E63.9061
G1 X128.179 Y140.925 E63.9307
G1 X127.852 Y140.729 E63.9433
G1 X127.068 Y141.513 E63.9802
G1 X125.237 Y141.513 E64.0411
G1 X124.453 Y140.729 E64.0780
G1 X124.387 Y140.271 E64.0934
G1 X124.387 Y138.702 E64.1456
G1 X125.172 Y137.918 E64.1825
G1 X124.976 Y137.591 E64.1952
G1 X124.453 Y137.068 E64.2198
G1 X124.126 Y137.264 E64.2324
G1 X123.603 Y137.787 E64.2570
G1 X123.145 Y137.852 E64.2724
G1 X121.576 Y137.852 E64.3246
G1 X120.792 Y137.068 E64.3615
G1 X120.726 Y136.610 E64.3769
G1 X120.726 Y135.564 E64.4117
G1 X120.792 Y135.106 E64.4271
G1 X121.707 Y134.191 E64.4701
G1 X123.538 Y134.191 E64.5310
G1 X124.322 Y134.975 E64.5679
G1 X124.649 Y134.780 E64.5806
G1 X125.172 Y134.257 E64.6052
G1 X125.630 Y134.191 E64.6205
G1 X126.676 Y134.191 E64.6553
G1 X127.133 Y134.257 E64.6707
G1 X127.918 Y135.041 E64.7076
G1 X128.179 Y134.910 E64.7173
G1 X128.702 Y134.387 E64.7419
G1 X129.029 Y134.191 E64.7546
G1 X130.598 Y134.191 E64.8068
G1 X130.925 Y134.387 E64.8195
G1 X131.448 Y134.910 E64.8441
G1 X131.644 Y134.975 E64.8510
G1 X132.429 Y134.191 E64.8879
G1 X134.259 Y134.191 E64.9487
G1 X135.174 Y135.106 E64.9918
G1 X136.090 Y134.191 E65.0348
G1 X137.920 Y134.191 E65.0957
G1 X138.705 Y134.975 E65.1326
G1 X139.031 Y134.780 E65.1453
G1 X139.554 Y134.257 E65.1699
G1 X140.012 Y134.191 E65.1853
G1 X141.058 Y134.191 E65.2201
G1 X141.516 Y134.257 E65.2355
G1 X142.300 Y135.041 E65.2724
G1 X142.561 Y134.910 E65.2821
G1 X143.084 Y134.387 E65.3067
G1 X143.412 Y134.191 E65.3194
G1 X144.981 Y134.191 E65.3715
G1 X145.308 Y134.387 E65.3842
G1 X145.831 Y134.910 E65.4088
G1 X146.027 Y134.975 E65.4157
G1 X146.811 Y134.191 E65.4526
G1 X148.642 Y134.191 E65.5135
G1 X149.426 Y134.975 E65.5504
G1 X149.622 Y135.303 E65.5631
G1 X149.622 Y136.872 E65.6153
G1 X149.426 Y137.199 E65.6279
G1 X148.772 Y137.852 E65.6587
G1 X147.203 Y137.852 E65.7109
G1 X146.745 Y137.787 E65.7263
G1 X146.222 Y137.264 E65.7509
G1 X145.896 Y137.068 E65.7635
G1 X145.373 Y137.591 E65.7881
G1 X145.177 Y137.918 E65.8008
G1 X145.961 Y138.702 E65.8377
G1 X145.961 Y140.271 E65.8899
G1 X145.896 Y140.729 E65.9053
G1 X145.111 Y141.513 E65.9422
G1 X143.281 Y141.513 E66.0031
G1 X142.496 Y140.729 E66.0400
G1 X142.170 Y140.925 E66.0526
G1 X141.647 Y141.448 E66.0772
G0 X141.647 Y141.448 F5400
G0 X141.450 Y141.774
G1 X141.973 Y142.297 E66.1018 F2400
G1 X142.039 Y142.755 E66.1172
G1 X142.039 Y143.801 E66.1520
G1 X141.973 Y144.259 E66.1674
G1 X141.581 Y144.651 E66.1858
G1 X139.620 Y144.651 E66.2511
G1 X139.423 Y144.455 E66.2603
G1 X139.162 Y144.194 E66.2726
G1 X139.162 Y142.625 E66.3248
G1 X139.228 Y142.167 E66.3402
G1 X139.620 Y141.774 E66.3586
G1 X141.450 Y141.774 E66.4195
G0 X141.450 Y141.774 F5400
G0 F3000 E65.4195
G0 X146.353 Y137.002 F5400
G0 F3000 E66.4195
G1 X146.353 Y135.433 E66.4717 F2400
G1 X146.419 Y134.975 E66.4871
G1 X146.811 Y134.583 E66.5055
G1 X148.642 Y134.583 E66.5664
G1 X149.165 Y135.106 E66.5910
G1 X149.230 Y135.564 E66.6064
G1 X149.230 Y136.610 E66.6412
G1 X149.165 Y137.068 E66.6566
G1 X148.772 Y137.460 E66.6750
G1 X146.811 Y137.460 E66.7402
G1 X146.615 Y137.264 E66.7495
G1 X146.353 Y137.002 E66.7618
G0 X146.353 Y137.002 F5400
G0 F3000 E65.7618
G0 X143.150 Y137.460 F5400
G0 F3000 E66.7618
G1 X142.954 Y137.264 E66.7710 F2400
G1 X142.692 Y137.002 E66.7833
G1 X142.692 Y135.172 E66.8442
G1 X143.215 Y134.649 E66.8688
G1 X143.673 Y134.583 E66.8842
G1 X144.719 Y134.583 E66.9190
G1 X145.177 Y134.649 E66.9344
G1 X145.569 Y135.041 E66.9528
G1 X145.569 Y136.610 E67.0050
G1 X145.504 Y137.068 E67.0204
G1 X145.111 Y137.460 E67.0388
G1 X143.150 Y137.460 E67.1041
G0 X143.150 Y137.460 F5400
G0 X142.692 Y138.702
G1 X142.954 Y138.441 E67.1164 F2400
G1 X143.281 Y138.244 E67.1290
G1 X145.111 Y138.244 E67.1899
G1 X145.373 Y138.506 E67.2022
G1 X145.569 Y138.833 E67.2149
G1 X145.569 Y140.663 E67.2758
G1 X145.308 Y140.925 E67.2881
G1 X144.981 Y141.121 E67.3008
G1 X143.412 Y141.121 E67.3530
G1 X143.084 Y140.925 E67.3656
G1 X142.692 Y140.533 E67.3841
G1 X142.692 Y138.702 E67.4450
G0 X142.692 Y138.702 F5400
G0 F3000 E66.4450
G0 X139.620 Y138.244 F5400
G0 F3000 E67.4450
G1 X141.189 Y138.244 E67.4972 F2400
G1 X141.647 Y138.310 E67.5126
G1 X142.039 Y138.702 E67.5310
G1 X142.039 Y140.271 E67.5832
G1 X141.973 Y140.729 E67.5986
G1 X141.581 Y141.121 E67.6170
G1 X139.620 Y141.121 E67.6823
G1 X139.423 Y140.925 E67.6915
G1 X139.162 Y140.663 E67.7038
G1 X139.162 Y139.094 E67.7560
G1 X139.228 Y138.636 E67.7714
G1 X139.620 Y138.244 E67.7898
G0 X139.620 Y138.244 F5400
G0 X139.162 Y137.002
G1 X139.162 Y135.433 E67.8420 F2400
G1 X139.228 Y134.975 E67.8574
G1 X139.620 Y134.583 E67.8758
G1 X141.450 Y134.583 E67.9367
G1 X141.973 Y135.106 E67.9613
G1 X142.039 Y135.564 E67.9767
G1 X142.039 Y136.610 E68.0115
G1 X141.973 Y137.068 E68.0269
G1 X141.581 Y137.460 E68.0453
G1 X139.620 Y137.460 E68.1106
G1 X139.423 Y137.264 E68.1198
G1 X139.162 Y137.002 E68.1321
G0 X139.162 Y137.002 F5400
G0 F3000 E67.1321
G0 X123.995 Y136.610 F5400
G0 F3000 E68.1321
G1 X123.930 Y137.068 E68.1475 F2400
G1 X123.538 Y137.460 E68.1659
G1 X121.576 Y137.460 E68.2312
G1 X121.380 Y137.264 E68.2404
G1 X121.118 Y137.002 E68.2527
G1 X121.118 Y135.172 E68.3136
G1 X121.641 Y134.649 E68.3382
G1 X122.099 Y134.583 E68.3536
G1 X123.145 Y134.583 E68.3884
G1 X123.603 Y134.649 E68.4037
G1 X123.995 Y135.041 E68.4222
G1 X123.995 Y136.610 E68.4744
G0 X123.995 Y136.610 F5400
G0 F3000 E67.4744
G0 X128.310 Y137.002 F5400
G0 F3000 E68.4744
G1 X128.310 Y135.172 E68.5353 F2400
G1 X128.833 Y134.649 E68.5599
G1 X129.291 Y134.583 E68.5752
G1 X130.337 Y134.583 E68.6100
G1 X130.794 Y134.649 E68.6254
G1 X131.187 Y135.041 E68.6439
G1 X131.187 Y136.610 E68.6961
G1 X131.121 Y137.068 E68.7114
G1 X130.729 Y137.460 E68.7299
G1 X128.768 Y137.460 E68.7951
G1 X128.571 Y137.264 E68.8044
G1 X128.310 Y137.002 E68.8167
G0 X128.310 Y137.002 F5400
G0 X127.199 Y137.460
G1 X125.237 Y137.460 E68.8819 F2400
G1 X125.041 Y137.264 E68.8911
G1 X124.779 Y137.002 E68.9034
G1 X124.779 Y135.433 E68.9556
G1 X124.845 Y134.975 E68.9710
G1 X125.237 Y134.583 E68.9895
G1 X127.068 Y134.583 E69.0503
G1 X127.591 Y135.106 E69.0749
G1 X127.656 Y135.564 E69.0903
G1 X127.656 Y136.610 E69.1251
G1 X127.591 Y137.068 E69.1405
G1 X127.199 Y137.460 E69.1589
G0 X127.199 Y137.460 F5400
G0 F3000 E68.1589
G0 X127.656 Y140.533 F5400
G0 F3000 E69.1589
G1 X127.133 Y141.056 E69.1835 F2400
G1 X126.676 Y141.121 E69.1989
G1 X125.237 Y141.121 E69.2468
G1 X125.041 Y140.925 E69.2560
G1 X124.779 Y140.663 E69.2683
G1 X124.779 Y139.094 E69.3205
G1 X124.845 Y138.636 E69.3359
G1 X125.237 Y138.244 E69.3543
G1 X126.806 Y138.244 E69.4065
G1 X127.264 Y138.310 E69.4219
G1 X127.656 Y138.702 E69.4403
G1 X127.656 Y140.533 E69.5012
G0 X127.656 Y140.533 F5400
G0 F3000 E68.5012
G0 X130.729 Y141.121 F5400
G0 F3000 E69.5012
G1 X128.768 Y141.121 E69.5665 F2400
G1 X128.571 Y140.925 E69.5757
G1 X128.310 Y140.663 E69.5880
G1 X128.310 Y139.094 E69.6402
G1 X128.375 Y138.636 E69.6556
G1 X128.768 Y138.244 E69.6740
G1 X130.337 Y138.244 E69.7262
G1 X130.794 Y138.310 E69.7416
G1 X131.187 Y138.702 E69.7600
G1 X131.187 Y140.271 E69.8122
G1 X131.121 Y140.729 E69.8276
G1 X130.729 Y141.121 E69.8461
G0 X130.729 Y141.121 F5400
G0 F3000 E68.8461
G0 X130.729 Y144.651 F5400
G0 F3000 E69.8461
G1 X128.768 Y144.651 E69.9113 F2400
G1 X128.571 Y144.455 E69.9205
G1 X128.310 Y144.194 E69.9328
G1 X128.310 Y142.363 E69.9937
G1 X128.833 Y141.840 E70.0183
G1 X129.291 Y141.774 E70.0337
G1 X130.337 Y141.774 E70.0685
G1 X130.794 Y141.840 E70.0839
G1 X131.187 Y142.232 E70.1023
G1 X131.187 Y143.801 E70.1545
G1 X131.121 Y144.259 E70.1699
G1 X130.729 Y144.651 E70.1883
G0 X130.729 Y144.651 F5400
G0 F3000 E69.1883
G0 X134.782 Y149.489 F5400
G0 F3000 E70.1883
G1 X134.848 Y149.947 E70.2037 F2400
G1 X134.848 Y150.993 E70.2385
G1 X134.782 Y151.450 E70.2539
G1 X134.390 Y151.843 E70.2723
G1 X132.429 Y151.843 E70.3376
G1 X132.232 Y151.646 E70.3468
G1 X131.971 Y151.385 E70.3591
G1 X131.971 Y149.816 E70.4113
G1 X132.036 Y149.358 E70.4267
G1 X132.429 Y148.966 E70.4451
G1 X134.259 Y148.966 E70.5060
G1 X134.782 Y149.489 E70.5306
G0 X134.782 Y149.489 F5400
G0 X136.024 Y149.031
G1 X136.482 Y148.966 E70.5460 F2400
G1 X137.528 Y148.966 E70.5808
G1 X137.986 Y149.031 E70.5962
G1 X138.378 Y149.424 E70.6146
G1 X138.378 Y150.993 E70.6668
G1 X138.312 Y151.450 E70.6822
G1 X137.920 Y151.843 E70.7006
G1 X136.351 Y151.843 E70.7528
G1 X135.893 Y151.777 E70.7682
G1 X135.632 Y151.516 E70.7805
G1 X135.501 Y151.385 E70.7867
G1 X135.501 Y149.554 E70.8476
G1 X136.024 Y149.031 E70.8721
G0 X136.024 Y149.031 F5400
G0 F3000 E69.8721
G0 X135.567 Y145.828 F5400
G0 F3000 E70.8721
G1 X135.959 Y145.435 E70.8906 F2400
G1 X137.528 Y145.435 E70.9428
G1 X137.986 Y145.501 E70.9582
G1 X138.378 Y145.893 E70.9766
G1 X138.378 Y147.462 E71.0288
G1 X138.312 Y147.920 E71.0442
G1 X137.920 Y148.312 E71.0626
G1 X135.959 Y148.312 E71.1279
G1 X135.762 Y148.116 E71.1371
G1 X135.501 Y147.855 E71.1494
G1 X135.501 Y146.286 E71.2016
G1 X135.567 Y145.828 E71.2170
G0 X135.567 Y145.828 F5400
G0 X134.455 Y145.501
G1 X134.848 Y145.893 E71.2354 F2400
G1 X134.848 Y147.724 E71.2963
G1 X134.325 Y148.247 E71.3209
G1 X133.867 Y148.312 E71.3363
G1 X132.429 Y148.312 E71.3841
G1 X132.232 Y148.116 E71.3934
G1 X131.971 Y147.855 E71.4057
G1 X131.971 Y146.286 E71.4579
G1 X132.036 Y145.828 E71.4732
G1 X132.429 Y145.435 E71.4917
G1 X133.998 Y145.435 E71.5439
G1 X134.455 Y145.501 E71.5593
G0 X134.455 Y145.501 F5400
G0 F3000 E70.5593
G0 X134.782 Y142.297 F5400
G0 F3000 E71.5593
G1 X134.848 Y142.755 E71.5747 F2400
G1 X134.848 Y143.801 E71.6094
G1 X134.782 Y144.259 E71.6248
G1 X134.390 Y144.651 E71.6433
G1 X132.429 Y144.651 E71.7085
G1 X132.232 Y144.455 E71.7178
G1 X131.971 Y144.194 E71.7301
G1 X131.971 Y142.625 E71.7822
G1 X132.036 Y142.167 E71.7976
G1 X132.429 Y141.774 E71.8161
G1 X134.259 Y141.774 E71.8769
G1 X134.782 Y142.297 E71.9015
G0 X134.782 Y142.297 F5400
G0 X136.024 Y141.840
G1 X136.482 Y141.774 E71.9169 F2400
G1 X137.528 Y141.774 E71.9517
G1 X137.986 Y141.840 E71.9671
G1 X138.378 Y142.232 E71.9856
G1 X138.378 Y143.801 E72.0377
G1 X138.312 Y144.259 E72.0531
G1 X137.920 Y144.651 E72.0716
G1 X136.351 Y144.651 E72.1238
G1 X135.893 Y144.586 E72.1392
G1 X135.632 Y144.324 E72.1515
G1 X135.501 Y144.194 E72.1576
G1 X135.501 Y142.363 E72.2185
G1 X136.024 Y141.840 E72.2431
G0 X136.024 Y141.840 F5400
G0 F3000 E71.2431
G0 X135.567 Y138.636 F5400
G0 F3000 E72.2431
G1 X135.959 Y138.244 E72.2615 F2400
G1 X137.528 Y138.244 E72.3137
G1 X137.986 Y138.310 E72.3291
G1 X138.378 Y138.702 E72.3476
G1 X138.378 Y140.271 E72.3997
G1 X138.312 Y140.729 E72.4151
G1 X137.920 Y141.121 E72.4336
G1 X136.351 Y141.121 E72.4858
G1 X135.893 Y141.056 E72.5011
G1 X135.632 Y140.794 E72.5134
G1 X135.501 Y140.663 E72.5196
G1 X135.501 Y139.094 E72.5718
G1 X135.567 Y138.636 E72.5872
G0 X135.567 Y138.636 F5400
G0 X134.455 Y138.310
G1 X134.848 Y138.702 E72.6056 F2400
G1 X134.848 Y140.533 E72.6665
G1 X134.325 Y141.056 E72.6911
G1 X133.867 Y141.121 E72.7065
G1 X132.429 Y141.121 E72.7543
G1 X132.232 Y140.925 E72.7636
G1 X131.971 Y140.663 E72.7759
G1 X131.971 Y139.094 E72.8280
G1 X132.036 Y138.636 E72.8434
G1 X132.429 Y138.244 E72.8619
G1 X133.998 Y138.244 E72.9141
G1 X134.455 Y138.310 E72.9295
G0 X134.455 Y138.310 F5400
G0 F3000 E71.9295
G0 X134.782 Y135.106 F5400
G0 F3000 E72.9295
G1 X134.848 Y135.564 E72.9448 F2400
G1 X134.848 Y136.610 E72.9796
G1 X134.782 Y137.068 E72.9950
G1 X134.390 Y137.460 E73.0135
G1 X132.429 Y137.460 E73.0787
G1 X132.232 Y137.264 E73.0879
G1 X131.971 Y137.002 E73.1002
G1 X131.971 Y135.433 E73.1524
G1 X132.036 Y134.975 E73.1678
G1 X132.429 Y134.583 E73.1863
G1 X134.259 Y134.583 E73.2471
G1 X134.782 Y135.106 E73.2717
G0 X134.782 Y135.106 F5400
G0 X136.482 Y134.583
G1 X137.528 Y134.583 E73.3065 F2400
G1 X137.986 Y134.649 E73.3219
G1 X138.378 Y135.041 E73.3404
G1 X138.378 Y136.610 E73.3925
G1 X138.312 Y137.068 E73.4079
G1 X137.920 Y137.460 E73.4264
G1 X136.351 Y137.460 E73.4786
G1 X135.893 Y137.395 E73.4940
G1 X135.632 Y137.133 E73.5063
G1 X135.501 Y137.002 E73.5124
G1 X135.501 Y135.172 E73.5733
G1 X136.024 Y134.649 E73.5979
G1 X136.482 Y134.583 E73.6133
G0 X136.482 Y134.583 F5400
G0 F3000 E72.6133
G0 X135.567 Y123.078 F5400
G0 F3000 E73.6133
G1 X134.521 Y123.078 E73.6481 F2400
G1 X134.128 Y123.208 E73.6618
G1 X133.213 Y123.339 E73.6926
G1 X132.233 Y123.927 E73.7306
G1 X131.971 Y124.189 E73.7429
G1 X131.775 Y124.254 E73.7498
G1 X130.794 Y125.889 E73.8132
G1 X130.664 Y126.804 E73.8439
G1 X130.664 Y128.373 E73.8961
G1 X130.794 Y128.504 E73.9022
G1 X130.794 Y128.765 E73.9109
G1 X130.925 Y128.896 E73.9171
G1 X130.925 Y129.157 E73.9258
G1 X131.710 Y130.465 E73.9765
G1 X132.036 Y130.661 E73.9892
G1 X132.298 Y130.922 E74.0015
G1 X132.952 Y131.314 E74.0268
G1 X133.213 Y131.314 E74.0355
G1 X133.344 Y131.445 E74.0417
G1 X133.605 Y131.445 E74.0504
G1 X133.736 Y131.576 E74.0565
G1 X133.998 Y131.576 E74.0652
G1 X134.259 Y131.707 E74.0749
G1 X135.697 Y131.707 E74.1228
G1 X135.828 Y131.576 E74.1289
G1 X136.090 Y131.576 E74.1376
G1 X136.220 Y131.445 E74.1438
G1 X136.678 Y131.380 E74.1591
G1 X137.985 Y130.596 E74.2099
G1 X138.182 Y130.268 E74.2225
G1 X138.443 Y130.007 E74.2348
G1 X138.639 Y129.680 E74.2475
G1 X138.770 Y129.288 E74.2613
G1 X138.966 Y128.961 E74.2740
G1 X139.031 Y128.504 E74.2893
G1 X139.162 Y128.373 E74.2955
G1 X139.162 Y127.588 E74.3216
G1 X139.293 Y127.458 E74.3277
G1 X139.293 Y127.196 E74.3364
G1 X139.162 Y127.065 E74.3426
G1 X139.162 Y126.542 E74.3600
G1 X138.770 Y125.366 E74.4012
G1 X138.377 Y124.712 E74.4266
G1 X138.116 Y124.450 E74.4389
G1 X137.920 Y124.124 E74.4515
G1 X136.939 Y123.535 E74.4896
G1 X136.155 Y123.274 E74.5171
G1 X135.697 Y123.208 E74.5325
G1 X135.567 Y123.078 E74.5386
G0 X135.567 Y123.078 F5400
G0 F3000 E73.5386
G0 X135.501 Y50.577 F5400
G0 F3000 E74.5386
G1 X135.501 Y48.746 E74.5995 F2400
G1 X135.762 Y48.485 E74.6118
G1 X136.090 Y48.288 E74.6245
G1 X137.920 Y48.288 E74.6854
G1 X138.182 Y48.550 E74.6977
G1 X138.378 Y48.877 E74.7103
G1 X138.378 Y50.707 E74.7712
G1 X138.116 Y50.969 E74.7835
G1 X137.789 Y51.165 E74.7962
G1 X136.220 Y51.165 E74.8484
G1 X135.893 Y50.969 E74.8611
G1 X135.632 Y50.707 E74.8734
G1 X135.501 Y50.577 E74.8795
G0 X135.501 Y50.577 F5400
G0 F3000 E73.8795
G0 X132.429 Y51.165 F5400
G0 F3000 E74.8795
G1 X132.232 Y50.969 E74.8888 F2400
G1 X131.971 Y50.707 E74.9011
G1 X131.971 Y49.138 E74.9533
G1 X132.036 Y48.680 E74.9686
G1 X132.429 Y48.288 E74.9871
G1 X133.998 Y48.288 E75.0393
G1 X134.455 Y48.354 E75.0547
G1 X134.848 Y48.746 E75.0731
G1 X134.848 Y50.577 E75.1340
G1 X134.325 Y51.100 E75.1586
G1 X133.867 Y51.165 E75.1740
G1 X132.429 Y51.165 E75.2218
G0 X132.429 Y51.165 F5400
G0 F3000 E74.2218
G0 X131.187 Y56.068 F5400
G0 F3000 E75.2218
G1 X131.187 Y57.899 E75.2827 F2400
G1 X130.925 Y58.160 E75.2950
G1 X130.598 Y58.356 E75.3077
G1 X129.029 Y58.356 E75.3599
G1 X128.702 Y58.160 E75.3726
G1 X128.310 Y57.768 E75.3910
G1 X128.310 Y55.937 E75.4519
G1 X128.571 Y55.676 E75.4642
G1 X128.898 Y55.479 E75.4769
G1 X130.729 Y55.479 E75.5378
G1 X130.990 Y55.741 E75.5501
G1 X131.187 Y56.068 E75.5627
G0 X131.187 Y56.068 F5400
G0 F3000 E74.5627
G0 X134.455 Y55.545 F5400
G0 F3000 E75.5627
G1 X134.848 Y55.937 E75.5812 F2400
G1 X134.848 Y57.768 E75.6421
G1 X134.325 Y58.291 E75.6667
G1 X133.867 Y58.356 E75.6821
G1 X132.429 Y58.356 E75.7299
G1 X132.232 Y58.160 E75.7391
G1 X131.971 Y57.899 E75.7514
G1 X131.971 Y56.330 E75.8036
G1 X132.036 Y55.872 E75.8190
G1 X132.429 Y55.479 E75.8375
G1 X133.998 Y55.479 E75.8896
G1 X134.455 Y55.545 E75.9050
G0 X134.455 Y55.545 F5400
G0 X134.782 Y54.303
G1 X134.390 Y54.695 E75.9235 F2400
G1 X132.429 Y54.695 E75.9887
G1 X132.232 Y54.499 E75.9979
G1 X131.971 Y54.238 E76.0102
G1 X131.971 Y52.669 E76.0624
G1 X132.036 Y52.211 E76.0778
G1 X132.429 Y51.818 E76.0963
G1 X134.259 Y51.818 E76.1571
G1 X134.782 Y52.341 E76.1817
G1 X134.848 Y52.799 E76.1971
G1 X134.848 Y53.845 E76.2319
G1 X134.782 Y54.303 E76.2473
G0 X134.782 Y54.303 F5400
G0 F3000 E75.2473
G0 X137.920 Y54.695 F5400
G0 F3000 E76.2473
G1 X136.351 Y54.695 E76.2995 F2400
G1 X135.893 Y54.630 E76.3149
G1 X135.632 Y54.368 E76.3272
G1 X135.501 Y54.238 E76.3333
G1 X135.501 Y52.669 E76.3855
G1 X135.567 Y52.211 E76.4009
G1 X135.959 Y51.818 E76.4194
G1 X137.528 Y51.818 E76.4715
G1 X137.986 Y51.884 E76.4869
G1 X138.378 Y52.276 E76.5054
G1 X138.378 Y53.845 E76.5576
G1 X138.312 Y54.303 E76.5729
G1 X137.920 Y54.695 E76.5914
G0 X137.920 Y54.695 F5400
G0 F3000 E75.5914
G0 X138.378 Y57.899 F5400
G0 F3000 E76.5914
G1 X138.116 Y58.160 E76.6037 F2400
G1 X137.789 Y58.356 E76.6164
G1 X136.220 Y58.356 E76.6686
G1 X135.893 Y58.160 E76.6813
G1 X135.501 Y57.768 E76.6997
G1 X135.501 Y55.937 E76.7606
G1 X135.762 Y55.676 E76.7729
G1 X136.090 Y55.479 E76.7856
G1 X137.920 Y55.479 E76.8465
G1 X138.182 Y55.741 E76.8588
G1 X138.378 Y56.068 E76.8714
G1 X138.378 Y57.899 E76.9323
G0 X138.378 Y57.899 F5400
G0 F3000 E75.9323
G0 X141.516 Y58.291 F5400
G0 F3000 E76.9323
G1 X141.058 Y58.356 E76.9477 F2400
G1 X139.620 Y58.356 E76.9955
G1 X139.423 Y58.160 E77.0048
G1 X139.162 Y57.899 E77.0171
G1 X139.162 Y56.330 E77.0693
G1 X139.228 Y55.872 E77.0847
G1 X139.620 Y55.479 E77.1031
G1 X141.189 Y55.479 E77.1553
G1 X141.647 Y55.545 E77.1707
G1 X142.039 Y55.937 E77.1891
G1 X142.039 Y57.768 E77.2500
G1 X141.516 Y58.291 E77.2746
G0 X141.516 Y58.291 F5400
G0 F3000 E76.2746
G0 X146.811 Y87.644 F5400
G0 F3000 E77.2746
G1 X122.753 Y87.644 E78.0748 F2400
G1 X122.557 Y87.710 E78.0816
G1 X122.557 Y111.768 E78.8818
G1 X122.622 Y112.356 E78.9015
G1 X147.073 Y112.356 E79.7147
G1 X147.268 Y112.291 E79.7216
G1 X147.268 Y87.710 E80.5391
G1 X146.811 Y87.644 E80.5545
G0 X146.811 Y87.644 F5400
G0 F3000 E79.5545
G0 X147.073 Y77.838 F5400
G0 F3000 E80.5545
G1 X146.550 Y77.838 E80.5719 F2400
G1 X146.354 Y78.165 E80.5846
G1 X146.354 Y78.688 E80.6020
G1 X146.550 Y78.884 E80.6112
G1 X147.399 Y78.819 E80.6395
G1 X147.530 Y78.426 E80.6533
G1 X147.399 Y78.034 E80.6670
G1 X147.073 Y77.838 E80.6797
G0 X147.073 Y77.838 F5400
G0 F3000 E79.6797
G0 X147.399 Y71.497 F5400
G0 F3000 E80.6797
G1 X146.942 Y71.431 E80.6951 F2400
G1 X146.484 Y71.497 E80.7104
G1 X146.354 Y71.627 E80.7166
G1 X146.354 Y72.150 E80.7340
G1 X146.419 Y72.346 E80.7408
G1 X146.680 Y72.477 E80.7506
G1 X147.073 Y72.477 E80.7636
G1 X147.399 Y72.281 E80.7763
G1 X147.530 Y71.889 E80.7900
G1 X147.399 Y71.758 E80.7962
G1 X147.399 Y71.497 E80.8049
G0 X147.399 Y71.497 F5400
G0 F3000 E79.8049
G0 X150.603 Y66.332 F5400
G0 F3000 E80.8049
G1 X151.061 Y66.397 E80.8203 F2400
G1 X151.584 Y66.920 E80.8449
G1 X151.584 Y133.080 E83.0453
G1 X151.061 Y133.603 E83.0699
G1 X150.603 Y133.668 E83.0853
G1 X118.831 Y133.668 E84.1421
G1 X118.634 Y133.472 E84.1513
G1 X118.242 Y133.080 E84.1698
G1 X118.242 Y66.920 E86.3702
G1 X118.765 Y66.397 E86.3948
G1 X119.223 Y66.332 E86.4102
G1 X150.603 Y66.332 E87.4539
G0 X150.603 Y66.332 F5400
G0 F3000 E86.4539
G0 X146.419 Y63.063 F5400
G0 F3000 E87.4539
G1 X146.811 Y62.671 E87.4724 F2400
G1 X148.380 Y62.671 E87.5246
G1 X148.838 Y62.736 E87.5400
G1 X149.230 Y63.129 E87.5584
G1 X149.230 Y64.959 E87.6193
G1 X148.707 Y65.482 E87.6439
G1 X148.249 Y65.548 E87.6593
G1 X146.811 Y65.548 E87.7071
G1 X146.615 Y65.351 E87.7163
G1 X146.353 Y65.090 E87.7286
G1 X146.353 Y63.521 E87.7808
G1 X146.419 Y63.063 E87.7962
G0 X146.419 Y63.063 F5400
G0 F3000 E86.7962
G0 X143.281 Y62.671 F5400
G0 F3000 E87.7962
G1 X145.111 Y62.671 E87.8571 F2400
G1 X145.373 Y62.932 E87.8694
G1 X145.569 Y63.259 E87.8821
G1 X145.569 Y65.090 E87.9430
G1 X145.308 Y65.351 E87.9553
G1 X144.981 Y65.548 E87.9680
G1 X143.412 Y65.548 E88.0201
G1 X143.084 Y65.351 E88.0328
G1 X142.692 Y64.959 E88.0513
G1 X142.692 Y63.129 E88.1122
G1 X142.954 Y62.867 E88.1245
G1 X143.281 Y62.671 E88.1371
G0 X143.281 Y62.671 F5400
G0 X142.692 Y61.429
G1 X142.692 Y59.598 E88.1980 F2400
G1 X143.215 Y59.075 E88.2226
G1 X143.673 Y59.010 E88.2380
G1 X144.719 Y59.010 E88.2728
G1 X145.177 Y59.075 E88.2882
G1 X145.569 Y59.468 E88.3066
G1 X145.569 Y61.037 E88.3588
G1 X145.504 Y61.494 E88.3742
G1 X145.111 Y61.887 E88.3926
G1 X143.150 Y61.887 E88.4579
G1 X142.954 Y61.690 E88.4671
G1 X142.692 Y61.429 E88.4794
G0 X142.692 Y61.429 F5400
G0 F3000 E87.4794
G0 X139.620 Y61.887 F5400
G0 F3000 E88.4794
G1 X139.423 Y61.690 E88.4887 F2400
G1 X139.162 Y61.429 E88.5010
G1 X139.162 Y59.860 E88.5531
G1 X139.228 Y59.402 E88.5685
G1 X139.620 Y59.010 E88.5870
G1 X141.189 Y59.010 E88.6392
G1 X141.647 Y59.075 E88.6546
G1 X142.039 Y59.468 E88.6730
G1 X142.039 Y61.037 E88.7252
G1 X141.973 Y61.494 E88.7406
G1 X141.581 Y61.887 E88.7590
G1 X139.620 Y61.887 E88.8243
G0 X139.620 Y61.887 F5400
G0 X139.228 Y63.063
G1 X139.620 Y62.671 E88.8427 F2400
G1 X141.189 Y62.671 E88.8949
G1 X141.647 Y62.736 E88.9103
G1 X142.039 Y63.129 E88.9287
G1 X142.039 Y64.959 E88.9896
G1 X141.516 Y65.482 E89.0142
G1 X141.058 Y65.548 E89.0296
G1 X139.620 Y65.548 E89.0774
G1 X139.423 Y65.351 E89.0867
G1 X139.162 Y65.090 E89.0990
G1 X139.162 Y63.521 E89.1511
G1 X139.228 Y63.063 E89.1665
G0 X139.228 Y63.063 F5400
G0 F3000 E88.1665
G0 X136.090 Y62.671 F5400
G0 F3000 E89.1665
G1 X137.920 Y62.671 E89.2274 F2400
G1 X138.182 Y62.932 E89.2397
G1 X138.378 Y63.259 E89.2524
G1 X138.378 Y65.090 E89.3133
G1 X138.116 Y65.351 E89.3256
G1 X137.789 Y65.548 E89.3383
G1 X136.220 Y65.548 E89.3905
G1 X135.893 Y65.351 E89.4031
G1 X135.632 Y65.090 E89.4154
G1 X135.501 Y64.959 E89.4216
G1 X135.501 Y63.129 E89.4825
G1 X135.762 Y62.867 E89.4948
G1 X136.090 Y62.671 E89.5075
G0 X136.090 Y62.671 F5400
G0 X135.501 Y61.429
G1 X135.501 Y59.860 E89.5596 F2400
G1 X135.567 Y59.402 E89.5750
G1 X135.959 Y59.010 E89.5935
G1 X137.528 Y59.010 E89.6457
G1 X137.986 Y59.075 E89.6611
G1 X138.378 Y59.468 E89.6795
G1 X138.378 Y61.037 E89.7317
G1 X138.312 Y61.494 E89.7471
G1 X137.920 Y61.887 E89.7655
G1 X136.351 Y61.887 E89.8177
G1 X135.893 Y61.821 E89.8331
G1 X135.632 Y61.560 E89.8454
G1 X135.501 Y61.429 E89.8515
G0 X135.501 Y61.429 F5400
G0 F3000 E88.8515
G0 X132.429 Y61.887 F5400
G0 F3000 E89.8515
G1 X132.232 Y61.690 E89.8608 F2400
G1 X131.971 Y61.429 E89.8731
G1 X131.971 Y59.860 E89.9253
G1 X132.036 Y59.402 E89.9407
G1 X132.429 Y59.010 E89.9591
G1 X134.259 Y59.010 E90.0200
G1 X134.782 Y59.533 E90.0446
G1 X134.848 Y59.991 E90.0600
G1 X134.848 Y61.037 E90.0948
G1 X134.782 Y61.494 E90.1101
G1 X134.390 Y61.887 E90.1286
G1 X132.429 Y61.887 E90.1938
G0 X132.429 Y61.887 F5400
G0 X132.036 Y63.063
G1 X132.429 Y62.671 E90.2123 F2400
G1 X133.998 Y62.671 E90.2645
G1 X134.455 Y62.736 E90.2798
G1 X134.848 Y63.129 E90.2983
G1 X134.848 Y64.959 E90.3592
G1 X134.325 Y65.482 E90.3838
G1 X133.867 Y65.548 E90.3992
G1 X132.429 Y65.548 E90.4470
G1 X132.232 Y65.351 E90.4562
G1 X131.971 Y65.090 E90.4685
G1 X131.971 Y63.521 E90.5207
G1 X132.036 Y63.063 E90.5361
G0 X132.036 Y63.063 F5400
G0 F3000 E89.5361
G0 X128.898 Y62.671 F5400
G0 F3000 E90.5361
G1 X130.729 Y62.671 E90.5970 F2400
G1 X130.990 Y62.932 E90.6093
G1 X131.187 Y63.259 E90.6220
G1 X131.187 Y65.090 E90.6829
G1 X130.925 Y65.351 E90.6952
G1 X130.598 Y65.548 E90.7079
G1 X129.029 Y65.548 E90.7600
G1 X128.702 Y65.351 E90.7727
G1 X128.310 Y64.959 E90.7912
G1 X128.310 Y63.129 E90.8521
G1 X128.571 Y62.867 E90.8644
G1 X128.898 Y62.671 E90.8770
G0 X128.898 Y62.671 F5400
G0 X128.310 Y61.429
G1 X128.310 Y59.860 E90.9292 F2400
G1 X128.375 Y59.402 E90.9446
G1 X128.768 Y59.010 E90.9631
G1 X130.337 Y59.010 E91.0152
G1 X130.794 Y59.075 E91.0306
G1 X131.187 Y59.468 E91.0491
G1 X131.187 Y61.037 E91.1013
G1 X131.121 Y61.494 E91.1167
G1 X130.729 Y61.887 E91.1351
G1 X128.768 Y61.887 E91.2003
G1 X128.571 Y61.690 E91.2096
G1 X128.310 Y61.429 E91.2219
G0 X128.310 Y61.429 F5400
G0 F3000 E90.2219
G0 X125.237 Y61.887 F5400
G0 F3000 E91.2219
G1 X125.041 Y61.690 E91.2311 F2400
G1 X124.779 Y61.429 E91.2434
G1 X124.779 Y59.860 E91.2956
G1 X124.845 Y59.402 E91.3110
G1 X125.237 Y59.010 E91.3294
G1 X127.068 Y59.010 E91.3903
G1 X127.591 Y59.533 E91.4149
G1 X127.656 Y59.991 E91.4303
G1 X127.656 Y61.037 E91.4651
G1 X127.591 Y61.494 E91.4805
G1 X127.199 Y61.887 E91.4989
G1 X125.237 Y61.887 E91.5642
G0 X125.237 Y61.887 F5400
G0 X124.845 Y63.063
G1 X125.237 Y62.671 E91.5826 F2400
G1 X126.806 Y62.671 E91.6348
G1 X127.264 Y62.736 E91.6502
G1 X127.656 Y63.129 E91.6686
G1 X127.656 Y64.959 E91.7295
G1 X127.133 Y65.482 E91.7541
G1 X126.676 Y65.548 E91.7695
G1 X125.237 Y65.548 E91.8173
G1 X125.041 Y65.351 E91.8266
G1 X124.779 Y65.090 E91.8389
G1 X124.779 Y63.521 E91.8911
G1 X124.845 Y63.063 E91.9064
G0 X124.845 Y63.063 F5400
G0 X123.538 Y62.671
G1 X123.799 Y62.932 E91.9187 F2400
G1 X123.995 Y63.259 E91.9314
G1 X123.995 Y65.090 E91.9923
G1 X123.734 Y65.351 E92.0046
G1 X123.407 Y65.548 E92.0173
G1 X121.838 Y65.548 E92.0695
G1 X121.511 Y65.351 E92.0822
G1 X121.249 Y65.090 E92.0945
G1 X121.118 Y64.698 E92.1082
G1 X121.118 Y63.129 E92.1604
G1 X121.380 Y62.867 E92.1727
G1 X121.707 Y62.671 E92.1854
G1 X123.538 Y62.671 E92.2463
G0 X123.538 Y62.671 F5400
G0 X123.538 Y63.063
G1 X123.603 Y63.521 E92.2617 F2400
G1 X123.603 Y65.090 E92.3139
G1 X123.145 Y65.155 E92.3292
G1 X121.707 Y65.155 E92.3771
G1 X121.511 Y64.959 E92.3863
G1 X121.511 Y63.129 E92.4472
G1 X121.969 Y63.063 E92.4626
G1 X123.538 Y63.063 E92.5148
G0 X123.538 Y63.063 F5400
G0 F3000 E91.5148
G0 X135.893 Y50.577 F5400
G0 F3000 E92.5148
G1 X135.893 Y48.746 E92.5757 F2400
G1 X136.351 Y48.680 E92.5910
G1 X137.920 Y48.680 E92.6432
G1 X137.986 Y49.138 E92.6586
G1 X137.986 Y50.707 E92.7108
G1 X137.528 Y50.773 E92.7262
G1 X136.090 Y50.773 E92.7740
G1 X135.893 Y50.577 E92.7833
G0 X135.893 Y50.577 F5400
G0 X134.128 Y50.773
G1 X132.429 Y50.773 E92.8398 F2400
G1 X132.363 Y50.446 E92.8509
G1 X132.363 Y48.877 E92.9031
G1 X132.429 Y48.680 E92.9100
G1 X133.998 Y48.680 E92.9622
G1 X134.455 Y48.746 E92.9775
G1 X134.455 Y50.577 E93.0384
G1 X134.128 Y50.773 E93.0511
G0 X134.128 Y50.773 F5400
G0 F3000 E92.0511
G0 X134.455 Y54.107 F5400
G0 F3000 E93.0511
G1 X134.390 Y54.303 E93.0580 F2400
G1 X132.429 Y54.303 E93.1232
G1 X132.363 Y53.976 E93.1343
G1 X132.363 Y52.407 E93.1865
G1 X132.429 Y52.211 E93.1934
G1 X134.259 Y52.211 E93.2543
G1 X134.455 Y52.538 E93.2670
G1 X134.455 Y54.107 E93.3192
G0 X134.455 Y54.107 F5400
G0 X135.959 Y54.303
G1 X135.893 Y53.976 E93.3303 F2400
G1 X135.893 Y52.407 E93.3825
G1 X135.959 Y52.211 E93.3893
G1 X137.528 Y52.211 E93.4415
G1 X137.986 Y52.276 E93.4569
G1 X137.986 Y53.845 E93.5091
G1 X137.920 Y54.303 E93.5245
G1 X135.959 Y54.303 E93.5897
G0 X135.959 Y54.303 F5400
G0 F3000 E92.5897
G0 X135.893 Y63.129 F5400
G0 F3000 E93.5897
G1 X136.351 Y63.063 E93.6051 F2400
G1 X137.920 Y63.063 E93.6573
G1 X137.986 Y63.521 E93.6727
G1 X137.986 Y65.090 E93.7249
G1 X137.528 Y65.155 E93.7403
G1 X136.090 Y65.155 E93.7881
G1 X135.893 Y64.959 E93.7973
G1 X135.893 Y63.129 E93.8582
G0 X135.893 Y63.129 F5400
G0 F3000 E92.8582
G0 X132.363 Y63.259 F5400
G0 F3000 E93.8582
G1 X132.429 Y63.063 E93.8651 F2400
G1 X133.998 Y63.063 E93.9173
G1 X134.455 Y63.129 E93.9327
G1 X134.455 Y64.959 E93.9936
G1 X134.128 Y65.155 E94.0063
G1 X132.429 Y65.155 E94.0628
G1 X132.363 Y64.828 E94.0739
G1 X132.363 Y63.259 E94.1261
G0 X132.363 Y63.259 F5400
G0 F3000 E93.1261
G0 X128.702 Y63.129 F5400
G0 F3000 E94.1261
G1 X129.160 Y63.063 E94.1415 F2400
G1 X130.729 Y63.063 E94.1936
G1 X130.794 Y63.521 E94.2090
G1 X130.794 Y65.090 E94.2612
G1 X130.337 Y65.155 E94.2766
G1 X128.898 Y65.155 E94.3244
G1 X128.702 Y64.959 E94.3337
G1 X128.702 Y63.129 E94.3946
G0 X128.702 Y63.129 F5400
G0 X126.806 Y63.063
G1 X127.264 Y63.129 E94.4100 F2400
G1 X127.264 Y64.959 E94.4708
G1 X126.937 Y65.155 E94.4835
G1 X125.237 Y65.155 E94.5401
G1 X125.172 Y64.828 E94.5512
G1 X125.172 Y63.259 E94.6033
G1 X125.237 Y63.063 E94.6102
G1 X126.806 Y63.063 E94.6624
G0 X126.806 Y63.063 F5400
G0 F3000 E93.6624
G0 X127.264 Y59.729 F5400
G0 F3000 E94.6624
G1 X127.264 Y61.298 E94.7146 F2400
G1 X127.199 Y61.494 E94.7215
G1 X125.237 Y61.494 E94.7867
G1 X125.172 Y61.167 E94.7978
G1 X125.172 Y59.598 E94.8500
G1 X125.237 Y59.402 E94.8569
G1 X127.068 Y59.402 E94.9178
G1 X127.264 Y59.729 E94.9305
G0 X127.264 Y59.729 F5400
G0 F3000 E93.9305
G0 X130.794 Y59.468 F5400
G0 F3000 E94.9305
G1 X130.794 Y61.037 E94.9827 F2400
G1 X130.729 Y61.494 E94.9980
G1 X128.768 Y61.494 E95.0633
G1 X128.702 Y61.167 E95.0744
G1 X128.702 Y59.598 E95.1266
G1 X128.768 Y59.402 E95.1334
G1 X130.337 Y59.402 E95.1856
G1 X130.794 Y59.468 E95.2010
G0 X130.794 Y59.468 F5400
G0 X130.794 Y57.899
G1 X130.337 Y57.964 E95.2164 F2400
G1 X128.898 Y57.964 E95.2642
G1 X128.702 Y57.768 E95.2735
G1 X128.702 Y55.937 E95.3344
G1 X129.160 Y55.872 E95.3498
G1 X130.729 Y55.872 E95.4019
G1 X130.794 Y56.330 E95.4173
G1 X130.794 Y57.899 E95.4695
G0 X130.794 Y57.899 F5400
G0 F3000 E94.4695
G0 X134.128 Y57.964 F5400
G0 F3000 E95.4695
G1 X132.429 Y57.964 E95.5260 F2400
G1 X132.363 Y57.637 E95.5372
G1 X132.363 Y56.068 E95.5893
G1 X132.429 Y55.872 E95.5962
G1 X133.998 Y55.872 E95.6484
G1 X134.455 Y55.937 E95.6638
G1 X134.455 Y57.768 E95.7247
G1 X134.128 Y57.964 E95.7374
G0 X134.128 Y57.964 F5400
G0 X134.455 Y59.729
G1 X134.455 Y61.298 E95.7896 F2400
G1 X134.390 Y61.494 E95.7964
G1 X132.429 Y61.494 E95.8617
G1 X132.363 Y61.167 E95.8728
G1 X132.363 Y59.598 E95.9250
G1 X132.429 Y59.402 E95.9318
G1 X134.259 Y59.402 E95.9927
G1 X134.455 Y59.729 E96.0054
G0 X134.455 Y59.729 F5400
G0 F3000 E95.0054
G0 X137.986 Y59.468 F5400
G0 F3000 E96.0054
G1 X137.986 Y61.037 E96.0576 F2400
G1 X137.920 Y61.494 E96.0730
G1 X135.959 Y61.494 E96.1382
G1 X135.893 Y61.167 E96.1493
G1 X135.893 Y59.598 E96.2015
G1 X135.959 Y59.402 E96.2084
G1 X137.528 Y59.402 E96.2606
G1 X137.986 Y59.468 E96.2760
G0 X137.986 Y59.468 F5400
G0 X137.986 Y57.899
G1 X137.528 Y57.964 E96.2914 F2400
G1 X136.090 Y57.964 E96.3392
G1 X135.893 Y57.768 E96.3484
G1 X135.893 Y55.937 E96.4093
G1 X136.351 Y55.872 E96.4247
G1 X137.920 Y55.872 E96.4769
G1 X137.986 Y56.330 E96.4923
G1 X137.986 Y57.899 E96.5445
G0 X137.986 Y57.899 F5400
G0 F3000 E95.5445
G0 X141.320 Y57.964 F5400
G0 F3000 E96.5445
G1 X139.620 Y57.964 E96.6010 F2400
G1 X139.554 Y57.637 E96.6121
G1 X139.554 Y56.068 E96.6643
G1 X139.620 Y55.872 E96.6712
G1 X141.189 Y55.872 E96.7234
G1 X141.647 Y55.937 E96.7387
G1 X141.647 Y57.768 E96.7996
G1 X141.320 Y57.964 E96.8123
G0 X141.320 Y57.964 F5400
G0 F3000 E95.8123
G0 X143.084 Y61.167 F5400
G0 F3000 E96.8123
G1 X143.084 Y59.598 E96.8645 F2400
G1 X143.412 Y59.402 E96.8772
G1 X144.981 Y59.402 E96.9294
G1 X145.177 Y59.468 E96.9363
G1 X145.177 Y61.037 E96.9885
G1 X145.111 Y61.494 E97.0038
G1 X143.150 Y61.494 E97.0691
G1 X143.084 Y61.167 E97.0802
G0 X143.084 Y61.167 F5400
G0 X141.581 Y61.494
G1 X139.620 Y61.494 E97.1454 F2400
G1 X139.554 Y61.167 E97.1565
G1 X139.554 Y59.598 E97.2087
G1 X139.620 Y59.402 E97.2156
G1 X141.189 Y59.402 E97.2678
G1 X141.647 Y59.468 E97.2832
G1 X141.647 Y61.037 E97.3353
G1 X141.581 Y61.494 E97.3507
G0 X141.581 Y61.494 F5400
G0 F3000 E96.3507
G0 X141.647 Y64.959 F5400
G0 F3000 E97.3507
G1 X141.320 Y65.155 E97.3634 F2400
G1 X139.620 Y65.155 E97.4199
G1 X139.554 Y64.828 E97.4310
G1 X139.554 Y63.259 E97.4832
G1 X139.620 Y63.063 E97.4901
G1 X141.189 Y63.063 E97.5423
G1 X141.647 Y63.129 E97.5577
G1 X141.647 Y64.959 E97.6186
G0 X141.647 Y64.959 F5400
G0 F3000 E96.6186
G0 X145.177 Y65.090 F5400
G0 F3000 E97.6186
G1 X144.719 Y65.155 E97.6340 F2400
G1 X143.281 Y65.155 E97.6818
G1 X143.084 Y64.959 E97.6910
G1 X143.084 Y63.129 E97.7519
G1 X143.542 Y63.063 E97.7673
G1 X145.111 Y63.063 E97.8195
G1 X145.177 Y63.521 E97.8349
G1 X145.177 Y65.090 E97.8871
G0 X145.177 Y65.090 F5400
G0 X146.811 Y65.155
G1 X146.745 Y64.828 E97.8982 F2400
G1 X146.745 Y63.259 E97.9504
G1 X146.811 Y63.063 E97.9572
G1 X148.380 Y63.063 E98.0094
G1 X148.838 Y63.129 E98.0248
G1 X148.838 Y64.959 E98.0857
G1 X148.511 Y65.155 E98.0984
G1 X146.811 Y65.155 E98.1549
G0 X146.811 Y65.155 F5400
G0 F3000 E97.1549
G0 X146.680 Y72.869 F5400
G0 F3000 E98.1549
G1 X147.203 Y72.869 E98.1723 F2400
G1 X147.530 Y72.673 E98.1850
G1 X147.922 Y72.020 E98.2103
G1 X147.791 Y71.627 E98.2241
G1 X147.596 Y71.301 E98.2368
G1 X147.334 Y71.039 E98.2491
G1 X146.550 Y71.039 E98.2751
G1 X146.223 Y71.235 E98.2878
G1 X146.027 Y71.562 E98.3005
G1 X145.961 Y72.281 E98.3245
G1 X146.288 Y72.608 E98.3399
G1 X146.680 Y72.869 E98.3556
G0 X146.680 Y72.869 F5400
G0 F3000 E97.3556
G0 X146.550 Y79.276 F5400
G0 F3000 E98.3556
G1 X147.399 Y79.211 E98.3839 F2400
G1 X147.661 Y78.949 E98.3962
G1 X147.857 Y78.622 E98.4089
G1 X147.857 Y78.230 E98.4219
G1 X147.726 Y77.838 E98.4357
G1 X147.465 Y77.577 E98.4480
G1 X147.073 Y77.446 E98.4617
G1 X146.550 Y77.446 E98.4791
G1 X146.288 Y77.707 E98.4914
G1 X145.961 Y78.165 E98.5101
G1 X145.961 Y78.688 E98.5275
G1 X146.157 Y79.014 E98.5402
G1 X146.550 Y79.276 E98.5558
G0 X146.550 Y79.276 F5400
G0 F3000 E97.5558
G0 X147.203 Y112.748 F5400
G0 F3000 E98.5558
G1 X147.661 Y112.683 E98.5712 F2400
G1 X147.661 Y87.317 E99.4149
G1 X147.203 Y87.252 E99.4302
G1 X122.622 Y87.252 E100.2478
G1 X122.165 Y87.317 E100.2632
G1 X122.165 Y112.421 E101.0981
G1 X122.230 Y112.748 E101.1092
G1 X147.203 Y112.748 E101.9398
G0 X147.203 Y112.748 F5400
G0 F3000 E100.9398
G0 X139.554 Y142.363 F5400
G0 F3000 E101.9398
G1 X139.620 Y142.167 E101.9467 F2400
G1 X141.450 Y142.167 E102.0076
G1 X141.647 Y142.494 E102.0203
G1 X141.647 Y144.063 E102.0725
G1 X141.581 Y144.259 E102.0793
G1 X139.620 Y144.259 E102.1446
G1 X139.554 Y143.932 E102.1557
G1 X139.554 Y142.363 E102.2079
G0 X139.554 Y142.363 F5400
G0 F3000 E101.2079
G0 X123.538 Y137.068 F5400
G0 F3000 E102.2079
G1 X121.576 Y137.068 E102.2731 F2400
G1 X121.511 Y136.741 E102.2842
G1 X121.511 Y135.172 E102.3364
G1 X121.838 Y134.975 E102.3491
G1 X123.407 Y134.975 E102.4013
G1 X123.603 Y135.041 E102.4081
G1 X123.603 Y136.610 E102.4603
G1 X123.538 Y137.068 E102.4757
G0 X123.538 Y137.068 F5400
G0 F3000 E101.4757
G0 X129.029 Y142.167 F5400
G0 F3000 E102.4757
G1 X130.598 Y142.167 E102.5279 F2400
G1 X130.794 Y142.232 E102.5348
G1 X130.794 Y143.801 E102.5870
G1 X130.729 Y144.259 E102.6024
G1 X128.768 Y144.259 E102.6676
G1 X128.702 Y143.932 E102.6787
G1 X128.702 Y142.363 E102.7309
G1 X129.029 Y142.167 E102.7436
G0 X129.029 Y142.167 F5400
G0 F3000 E101.7436
G0 X128.702 Y138.833 F5400
G0 F3000 E102.7436
G1 X128.768 Y138.636 E102.7505 F2400
G1 X130.337 Y138.636 E102.8026
G1 X130.794 Y138.702 E102.8180
G1 X130.794 Y140.271 E102.8702
G1 X130.729 Y140.729 E102.8856
G1 X128.768 Y140.729 E102.9508
G1 X128.702 Y140.402 E102.9619
G1 X128.702 Y138.833 E103.0141
G0 X128.702 Y138.833 F5400
G0 X126.806 Y138.636
G1 X127.264 Y138.702 E103.0295 F2400
G1 X127.264 Y140.533 E103.0904
G1 X126.937 Y140.729 E103.1031
G1 X125.237 Y140.729 E103.1596
G1 X125.172 Y140.402 E103.1707
G1 X125.172 Y138.833 E103.2229
G1 X125.237 Y138.636 E103.2298
G1 X126.806 Y138.636 E103.2820
G0 X126.806 Y138.636 F5400
G0 F3000 E102.2820
G0 X127.264 Y135.303 F5400
G0 F3000 E103.2820
G1 X127.264 Y136.872 E103.3342 F2400
G1 X127.199 Y137.068 E103.3411
G1 X125.237 Y137.068 E103.4063
G1 X125.172 Y136.741 E103.4174
G1 X125.172 Y135.172 E103.4696
G1 X125.237 Y134.975 E103.4765
G1 X127.068 Y134.975 E103.5373
G1 X127.264 Y135.303 E103.5500
G0 X127.264 Y135.303 F5400
G0 F3000 E102.5500
G0 X130.794 Y135.041 F5400
G0 F3000 E103.5500
G1 X130.794 Y136.610 E103.6022 F2400
G1 X130.729 Y137.068 E103.6176
G1 X128.768 Y137.068 E103.6828
G1 X128.702 Y136.741 E103.6939
G1 X128.702 Y135.172 E103.7461
G1 X129.029 Y134.975 E103.7588
G1 X130.598 Y134.975 E103.8110
G1 X130.794 Y135.041 E103.8179
G0 X130.794 Y135.041 F5400
G0 F3000 E102.8179
G0 X139.620 Y127.131 F5400
G0 F3000 E103.8179
G1 X139.554 Y126.412 E103.8419 F2400
G1 X139.423 Y126.281 E103.8481
G1 X139.423 Y126.019 E103.8568
G1 X139.293 Y125.889 E103.8629
G1 X139.293 Y125.627 E103.8716
G1 X138.508 Y124.320 E103.9223
G1 X137.985 Y123.797 E103.9469
G1 X137.331 Y123.404 E103.9723
G1 X136.874 Y123.078 E103.9910
G1 X136.613 Y123.078 E103.9997
G1 X136.482 Y122.947 E104.0058
G1 X136.220 Y122.947 E104.0145
G1 X136.090 Y122.816 E104.0207
G1 X135.174 Y122.685 E104.0514
G1 X134.390 Y122.685 E104.0775
G1 X134.259 Y122.816 E104.0837
G1 X133.736 Y122.816 E104.1010
G1 X133.605 Y122.947 E104.1072
G1 X133.148 Y123.012 E104.1226
G1 X132.167 Y123.601 E104.1606
G1 X131.906 Y123.862 E104.1729
G1 X131.579 Y124.058 E104.1856
G1 X131.317 Y124.320 E104.1979
G1 X130.533 Y125.627 E104.2486
G1 X130.402 Y126.019 E104.2623
G1 X130.402 Y126.281 E104.2710
G1 X130.271 Y126.412 E104.2772
G1 X130.271 Y127.981 E104.3294
G1 X130.337 Y128.438 E104.3447
G1 X130.598 Y129.222 E104.3722
G1 X130.794 Y129.550 E104.3849
G1 X130.925 Y129.942 E104.3987
G1 X131.187 Y130.203 E104.4110
G1 X131.383 Y130.530 E104.4236
G1 X131.906 Y131.053 E104.4482
G1 X132.886 Y131.642 E104.4863
G1 X133.736 Y131.968 E104.5166
G1 X134.128 Y131.968 E104.5296
G1 X134.259 Y132.099 E104.5358
G1 X135.305 Y132.099 E104.5706
G1 X135.762 Y132.034 E104.5859
G1 X136.155 Y131.903 E104.5997
G1 X136.613 Y131.837 E104.6151
G1 X137.920 Y131.053 E104.6658
G1 X138.443 Y130.530 E104.6904
G1 X138.639 Y130.203 E104.7030
G1 X138.900 Y129.942 E104.7153
G1 X139.031 Y129.550 E104.7291
G1 X139.423 Y128.896 E104.7544
G1 X139.554 Y127.981 E104.7852
G1 X139.620 Y127.131 E104.8135
G0 X139.620 Y127.131 F5400
G0 X143.346 Y127.458
G1 X143.150 Y127.131 E104.8262 F2400
G1 X142.954 Y127.458 E104.8389
G1 X143.150 Y127.653 E104.8481
G1 X143.346 Y127.458 E104.8573
G0 X143.346 Y127.458 F5400
G0 F3000 E103.8573
G0 X150.864 Y133.276 F5400
G0 F3000 E104.8573
G1 X118.961 Y133.276 E105.9184 F2400
G1 X118.634 Y133.080 E105.9311
G1 X118.634 Y66.920 E108.1316
G1 X118.961 Y66.724 E108.1443
G1 X150.864 Y66.724 E109.2054
G1 X151.191 Y66.920 E109.2180
G1 X151.191 Y133.080 E111.4185
G1 X150.864 Y133.276 E111.4312
G0 X150.864 Y133.276 F5400
G0 F3000 E110.4312
G0 X146.745 Y136.741 F5400
G0 F3000 E111.4312
G1 X146.745 Y135.172 E111.4834 F2400
G1 X146.811 Y134.975 E111.4903
G1 X148.642 Y134.975 E111.5512
G1 X148.838 Y135.303 E111.5638
G1 X148.838 Y136.872 E111.6160
G1 X148.772 Y137.068 E111.6229
G1 X146.811 Y137.068 E111.6882
G1 X146.745 Y136.741 E111.6993
G0 X146.745 Y136.741 F5400
G0 F3000 E110.6993
G0 X143.150 Y137.068 F5400
G0 F3000 E111.6993
G1 X143.084 Y136.741 E111.7104 F2400
G1 X143.084 Y135.172 E111.7625
G1 X143.412 Y134.975 E111.7752
G1 X144.981 Y134.975 E111.8274
G1 X145.177 Y135.041 E111.8343
G1 X145.177 Y136.610 E111.8865
G1 X145.111 Y137.068 E111.9019
G1 X143.150 Y137.068 E111.9671
G0 X143.150 Y137.068 F5400
G0 X143.084 Y138.702
G1 X143.542 Y138.636 E111.9825 F2400
G1 X145.111 Y138.636 E112.0347
G1 X145.177 Y139.094 E112.0501
G1 X145.177 Y140.663 E112.1022
G1 X144.719 Y140.729 E112.1176
G1 X143.281 Y140.729 E112.1655
G1 X143.084 Y140.533 E112.1747
G1 X143.084 Y138.702 E112.2356
G0 X143.084 Y138.702 F5400
G0 F3000 E111.2356
G0 X139.620 Y138.636 F5400
G0 F3000 E112.2356
G1 X141.189 Y138.636 E112.2878 F2400
G1 X141.647 Y138.702 E112.3032
G1 X141.647 Y140.271 E112.3554
G1 X141.581 Y140.729 E112.3707
G1 X139.620 Y140.729 E112.4360
G1 X139.554 Y140.402 E112.4471
G1 X139.554 Y138.833 E112.4993
G1 X139.620 Y138.636 E112.5061
G0 X139.620 Y138.636 F5400
G0 X139.554 Y136.741
G1 X139.554 Y135.172 E112.5583 F2400
G1 X139.620 Y134.975 E112.5652
G1 X141.450 Y134.975 E112.6261
G1 X141.647 Y135.303 E112.6388
G1 X141.647 Y136.872 E112.6910
G1 X141.581 Y137.068 E112.6979
G1 X139.620 Y137.068 E112.7631
G1 X139.554 Y136.741 E112.7742
G0 X139.554 Y136.741 F5400
G0 F3000 E111.7742
G0 X135.893 Y136.741 F5400
G0 F3000 E112.7742
G1 X135.893 Y135.172 E112.8264 F2400
G1 X136.220 Y134.975 E112.8391
G1 X137.789 Y134.975 E112.8913
G1 X137.986 Y135.041 E112.8981
G1 X137.986 Y136.610 E112.9503
G1 X137.920 Y137.068 E112.9657
G1 X135.959 Y137.068 E113.0310
G1 X135.893 Y136.741 E113.0421
G0 X135.893 Y136.741 F5400
G0 X134.390 Y137.068
G1 X132.429 Y137.068 E113.1073 F2400
G1 X132.363 Y136.741 E113.1184
G1 X132.363 Y135.172 E113.1706
G1 X132.429 Y134.975 E113.1775
G1 X134.259 Y134.975 E113.2383
G1 X134.455 Y135.303 E113.2510
G1 X134.455 Y136.872 E113.3032
G1 X134.390 Y137.068 E113.3101
G0 X134.390 Y137.068 F5400
G0 F3000 E112.3101
G0 X134.455 Y140.533 F5400
G0 F3000 E113.3101
G1 X134.128 Y140.729 E113.3228 F2400
G1 X132.429 Y140.729 E113.3793
G1 X132.363 Y140.402 E113.3904
G1 X132.363 Y138.833 E113.4426
G1 X132.429 Y138.636 E113.4495
G1 X133.998 Y138.636 E113.5017
G1 X134.455 Y138.702 E113.5171
G1 X134.455 Y140.533 E113.5780
G0 X134.455 Y140.533 F5400
G0 X135.959 Y140.729
G1 X135.893 Y140.402 E113.5891 F2400
G1 X135.893 Y138.833 E113.6412
G1 X135.959 Y138.636 E113.6481
G1 X137.528 Y138.636 E113.7003
G1 X137.986 Y138.702 E113.7157
G1 X137.986 Y140.271 E113.7679
G1 X137.920 Y140.729 E113.7833
G1 X135.959 Y140.729 E113.8485
G0 X135.959 Y140.729 F5400
G0 F3000 E112.8485
G0 X135.893 Y143.932 F5400
G0 F3000 E113.8485
G1 X135.893 Y142.363 E113.9007 F2400
G1 X136.220 Y142.167 E113.9134
G1 X137.789 Y142.167 E113.9656
G1 X137.986 Y142.232 E113.9725
G1 X137.986 Y143.801 E114.0246
G1 X137.920 Y144.259 E114.0400
G1 X135.959 Y144.259 E114.1053
G1 X135.893 Y143.932 E114.1164
G0 X135.893 Y143.932 F5400
G0 X134.390 Y144.259
G1 X132.429 Y144.259 E114.1816 F2400
G1 X132.363 Y143.932 E114.1927
G1 X132.363 Y142.363 E114.2449
G1 X132.429 Y142.167 E114.2518
G1 X134.259 Y142.167 E114.3127
G1 X134.455 Y142.494 E114.3253
G1 X134.455 Y144.063 E114.3775
G1 X134.390 Y144.259 E114.3844
G0 X134.390 Y144.259 F5400
G0 F3000 E113.3844
G0 X134.455 Y147.724 F5400
G0 F3000 E114.3844
G1 X134.128 Y147.920 E114.3971 F2400
G1 X132.429 Y147.920 E114.4536
G1 X132.363 Y147.593 E114.4647
G1 X132.363 Y146.024 E114.5169
G1 X132.429 Y145.828 E114.5238
G1 X133.998 Y145.828 E114.5760
G1 X134.455 Y145.893 E114.5914
G1 X134.455 Y147.724 E114.6523
G0 X134.455 Y147.724 F5400
G0 X135.959 Y147.920
G1 X135.893 Y147.593 E114.6634 F2400
G1 X135.893 Y146.024 E114.7156
G1 X135.959 Y145.828 E114.7224
G1 X137.528 Y145.828 E114.7746
G1 X137.986 Y145.893 E114.7900
G1 X137.986 Y147.462 E114.8422
G1 X137.920 Y147.920 E114.8576
G1 X135.959 Y147.920 E114.9228
G0 X135.959 Y147.920 F5400
G0 F3000 E113.9228
G0 X135.893 Y151.123 F5400
G0 F3000 E114.9228
G1 X135.893 Y149.554 E114.9750 F2400
G1 X136.220 Y149.358 E114.9877
G1 X137.789 Y149.358 E115.0399
G1 X137.986 Y149.424 E115.0468
G1 X137.986 Y150.993 E115.0990
G1 X137.920 Y151.450 E115.1143
G1 X135.959 Y151.450 E115.1796
G1 X135.893 Y151.123 E115.1907
G0 X135.893 Y151.123 F5400
G0 F3000 E114.1907
G0 X132.429 Y151.450 F5400
G0 F3000 E115.1907
G1 X132.363 Y151.123 E115.2018 F2400
G1 X132.363 Y149.554 E115.2539
G1 X132.429 Y149.358 E115.2608
G1 X134.259 Y149.358 E115.3217
G1 X134.455 Y149.685 E115.3344
G1 X134.455 Y151.254 E115.3866
G1 X134.390 Y151.450 E115.3935
G1 X132.429 Y151.450 E115.4587
G0 F3000 E114.4587
G0 X132.429 Y151.450 F5400
G0 F3000 E115.4587
G0 E114.4587
G0 X128.900 Y55.900 F5400
G0 F3000 E115.4587
;segType:Support
G1 X141.500 Y55.900 E115.8149 F2400
G0 X137.900 Y48.700 F5400
G1 X132.500 Y48.700 E115.9676 F2400
G1 X132.500 Y50.500 E116.0185
G1 X137.900 Y50.500 E116.1711
G1 X137.900 Y52.300 E116.2220
G1 X132.500 Y52.300 E116.3747
G1 X132.500 Y54.100 E116.4256
G1 X137.900 Y54.100 E116.5782
G0 F3000 E115.5782
G0 X121.700 Y135.100 F5400
G0 F3000 E116.5782
G1 X148.700 Y135.100 E117.3416 F2400
G1 X148.700 Y136.900 E117.3924
G1 X121.700 Y136.900 E118.1558
G0 X125.300 Y140.500 F5400
G1 X145.100 Y140.500 E118.7155 F2400
G0 X141.500 Y144.100 F5400
G1 X128.900 Y144.100 E119.0718 F2400
G0 X132.500 Y151.300 F5400
G1 X137.900 Y151.300 E119.2244 F2400
G1 X137.900 Y149.500 E119.2753
G1 X132.500 Y149.500 E119.4280
G1 X132.500 Y147.700 E119.4789
G1 X137.900 Y147.700 E119.6315
G1 X137.900 Y145.900 E119.6824
G1 X132.500 Y145.900 E119.8351
G0 X128.900 Y142.300 F5400
G1 X141.500 Y142.300 E120.1913 F2400
G0 X145.100 Y138.700 F5400
G1 X125.300 Y138.700 E120.7511 F2400
G0 F3000 E119.7511
G0 X126.802 Y132.400 F5400
G0 X131.284 Y113.600
G0 X131.284 Y113.600
G0 X121.379 Y113.600
G0 X121.379 Y86.400
G0 X137.769 Y86.400
G0 X137.855 Y86.040
G0 F3000 E120.7511
;segType:HShell
G1 X119.940 Y68.124 E121.5937 F2400
G0 X119.395 Y67.780 F5400
;segType:Perimeter
G1 X119.240 Y67.200 E121.6137 F1439
G1 X150.779 Y67.200 E122.6627
G1 X150.779 Y132.800 E124.8445
G1 X119.180 Y132.800 E125.8955
G1 X119.180 Y67.260 E128.0754
G0 X119.952 Y67.467 F5400
G0 F3000 E127.0754
G0 X119.996 Y67.600 F5400
G0 X126.138 Y86.400
G0 X126.138 Y86.400
G0 X148.580 Y86.400
G0 X148.580 Y113.600
G0 X135.024 Y113.600
G0 X135.024 Y113.600
G0 X137.972 Y122.623
G0 X137.972 Y122.623
G0 X138.092 Y122.687
G0 X138.941 Y123.384
G0 X139.638 Y124.233
G0 X140.156 Y125.202
G0 X140.475 Y126.253
G0 X140.582 Y127.346
G0 X140.475 Y128.440
G0 X140.185 Y129.395
G0 X140.185 Y129.395
G0 F3000 E128.0754
;segType:Loop
G1 X140.475 Y128.440 E128.1086 F2400
G1 X140.582 Y127.346 E128.1451
G1 X140.475 Y126.253 E128.1817
G1 X140.156 Y125.202 E128.2182
G1 X139.638 Y124.233 E128.2547
G1 X138.941 Y123.384 E128.2913
G1 X138.092 Y122.687 E128.3278
G1 X137.123 Y122.170 E128.3643
G1 X136.072 Y121.851 E128.4009
G1 X134.979 Y121.743 E128.4374
G1 X133.886 Y121.851 E128.4739
G1 X132.835 Y122.170 E128.5105
G1 X131.866 Y122.687 E128.5470
G1 X131.017 Y123.384 E128.5835
G1 X130.320 Y124.233 E128.6200
G1 X129.802 Y125.202 E128.6566
G1 X129.483 Y126.253 E128.6931
G1 X129.376 Y127.346 E128.7296
G1 X129.483 Y128.440 E128.7662
G1 X129.802 Y129.491 E128.8027
G1 X130.320 Y130.460 E128.8392
G1 X131.017 Y131.309 E128.8758
G1 X131.866 Y132.006 E128.9123
G1 X132.244 Y132.207 E128.9265
G1 X132.292 Y132.321 E128.9323
G1 X132.421 Y132.354 E128.9377
G1 X132.550 Y132.386 E128.9424
G1 X132.679 Y132.419 E128.9464
G0 X133.000 Y132.485 F5400
G0 X132.886 Y132.470
G0 X132.772 Y132.442
G0 X132.657 Y132.413
G0 X132.543 Y132.384
G0 X132.429 Y132.356
G0 X132.314 Y132.327
G1 X132.200 Y132.400 E128.9509 F2400
G1 X119.580 Y132.400 E129.3707
G1 X119.580 Y67.600 E131.5259
G1 X150.379 Y67.600 E132.5503
G1 X150.379 Y132.400 E134.7055
G1 X137.800 Y132.400 E135.1239
G0 X137.686 Y132.317 F5400
G0 X137.572 Y132.345
G0 X137.457 Y132.374
G0 X137.343 Y132.403
G0 X137.229 Y132.431
G0 X137.114 Y132.460
G1 X137.000 Y132.478 E135.1262 F2400
G1 X136.886 Y132.495 E135.1282
G0 X137.000 Y132.478 F5400
G1 X137.217 Y132.434 E135.1343 F2400
G1 X137.346 Y132.402 E135.1387
G1 X137.476 Y132.369 E135.1438
G1 X137.605 Y132.337 E135.1496
G1 X137.734 Y132.305 E135.1562
G1 X137.769 Y132.178 E135.1605
G1 X138.092 Y132.006 E135.1727
G1 X138.941 Y131.309 E135.2093
G1 X139.638 Y130.459 E135.2458
G1 X140.109 Y129.579 E135.2790
G0 X140.871 Y128.088 F5400
;segType:HShell
G1 X144.823 Y132.040 E135.4649 F2400
G0 X144.257 Y132.040 F5400
G1 X140.806 Y128.588 E135.6272 F2400
G0 X140.275 Y127.857 F5400
;segType:Perimeter
G1 X140.063 Y128.419 E135.6471 F1439
G1 X139.784 Y129.337 E135.6791
G1 X139.304 Y130.236 E135.7130
G1 X138.657 Y131.024 E135.7469
G1 X137.869 Y131.671 E135.7808
G1 X136.970 Y132.152 E135.8147
G1 X135.994 Y132.448 E135.8486
G1 X134.979 Y132.548 E135.8826
G1 X133.964 Y132.448 E135.9165
G1 X132.989 Y132.152 E135.9504
G1 X132.089 Y131.671 E135.9843
G1 X131.301 Y131.024 E136.0182
G1 X130.654 Y130.236 E136.0521
G1 X130.174 Y129.337 E136.0860
G1 X129.878 Y128.361 E136.1200
G1 X129.778 Y127.346 E136.1539
G1 X129.878 Y126.332 E136.1878
G1 X130.174 Y125.356 E136.2217
G1 X130.654 Y124.457 E136.2556
G1 X131.301 Y123.668 E136.2896
G1 X132.089 Y123.022 E136.3235
G1 X132.989 Y122.541 E136.3574
G1 X133.964 Y122.245 E136.3913
G1 X134.979 Y122.145 E136.4252
G1 X135.994 Y122.245 E136.4591
G1 X136.970 Y122.541 E136.4930
G1 X137.869 Y123.022 E136.5270
G1 X138.657 Y123.668 E136.5609
G1 X139.304 Y124.457 E136.5948
G1 X139.784 Y125.356 E136.6287
G1 X140.081 Y126.332 E136.6626
G1 X140.181 Y127.346 E136.6965
G1 X140.087 Y128.302 E136.7285
G0 X140.060 Y129.101 F5400
G0 F3000 E135.7285
G0 X140.327 Y128.926 F5400
G0 X142.154 Y127.728
G0 X142.154 Y127.728
G0 X142.095 Y127.127
G0 X142.403 Y126.549
G0 X142.981 Y126.241
G0 X143.632 Y126.305
G0 X143.940 Y126.557
G0 X143.940 Y126.557
G0 F3000 E136.7285
;segType:Loop
G1 X144.138 Y126.720 E136.7370 F2400
G1 X144.319 Y127.316 E136.7577
G1 X144.222 Y127.802 E136.7742
G1 X143.827 Y128.284 E136.7949
G1 X143.201 Y128.474 E136.8167
G1 X142.574 Y128.284 E136.8385
G1 X142.159 Y127.778 E136.8603
G1 X142.095 Y127.127 E136.8820
G1 X142.403 Y126.549 E136.9038
G1 X142.981 Y126.241 E136.9256
G1 X143.632 Y126.305 E136.9473
G1 X143.785 Y126.430 E136.9539
G0 F3000 E135.9539
G0 X130.138 Y113.960 F5400
G0 F3000 E136.9539
;segType:HShell
G1 X142.348 Y126.171 E137.5282 F2400
G0 X142.752 Y126.817 F5400
;segType:Perimeter
G1 X143.062 Y126.651 E137.5399 F1439
G1 X143.472 Y126.691 E137.5536
G1 X143.791 Y126.952 E137.5673
G1 X143.907 Y127.336 E137.5807
G1 X143.850 Y127.626 E137.5905
G1 X143.595 Y127.936 E137.6039
G1 X143.201 Y128.056 E137.6176
G1 X142.807 Y127.936 E137.6313
G1 X142.545 Y127.618 E137.6450
G1 X142.505 Y127.208 E137.6587
G1 X142.671 Y126.898 E137.6703
G0 F3000 E136.6703
G0 X142.520 Y127.354 F5400
G0 X142.671 Y126.898
G0 X142.671 Y126.898
G0 X142.699 Y126.845
G0 X143.062 Y126.651
G0 X143.472 Y126.691
G0 X147.212 Y113.200
G0 X147.080 Y113.600
G0 F3000 E137.6703
;segType:Loop
G1 X121.379 Y113.600 E138.5252 F2400
G1 X121.379 Y86.400 E139.4298
G1 X148.580 Y86.400 E140.3346
G1 X148.580 Y113.600 E141.2392
G1 X147.280 Y113.600 E141.2825
G0 F3000 E140.2825
G0 X150.018 Y116.870 F5400
G0 F3000 E141.2825
;segType:HShell
G1 X147.108 Y113.960 E141.4194 F2400
G0 X147.674 Y113.960 F5400
G1 X150.018 Y116.305 E141.5296 F2400
G0 X150.018 Y115.739 F5400
G1 X148.240 Y113.960 E141.6133 F2400
G0 X148.806 Y113.960 F5400
G1 X150.018 Y115.173 E141.6704 F2400
G0 X150.018 Y114.608 F5400
G1 X148.940 Y113.529 E141.7211 F2400
G0 X148.920 Y113.200 F5400
;segType:Perimeter
G1 X148.120 Y113.200 E141.7477 F1439
G1 X121.779 Y113.200 E142.6238
G1 X121.779 Y86.800 E143.5019
G1 X148.180 Y86.800 E144.3800
G1 X148.180 Y113.140 E145.2561
G0 F3000 E144.2561
G0 X148.205 Y113.600 F5400
G0 X121.379 Y113.600
G0 X121.379 Y86.400
G0 X146.695 Y86.400
G0 X146.695 Y86.400
G0 X146.344 Y80.071
G0 X146.344 Y80.071
G0 F3000 E145.2561
;segType:Loop
G1 X146.270 Y80.049 E145.2587 F2400
G1 X145.949 Y79.877 E145.2708
G1 X145.669 Y79.647 E145.2828
G1 X145.438 Y79.366 E145.2949
G1 X145.267 Y79.046 E145.3070
G1 X145.161 Y78.698 E145.3191
G1 X145.126 Y78.337 E145.3312
G1 X145.161 Y77.975 E145.3432
G1 X145.267 Y77.627 E145.3553
G1 X145.438 Y77.307 E145.3674
G1 X145.669 Y77.026 E145.3795
G1 X145.949 Y76.796 E145.3916
G1 X146.270 Y76.624 E145.4037
G1 X146.618 Y76.519 E145.4157
G1 X146.979 Y76.483 E145.4278
G1 X147.341 Y76.519 E145.4399
G1 X147.688 Y76.624 E145.4520
G1 X148.009 Y76.796 E145.4641
G1 X148.289 Y77.026 E145.4762
G1 X148.520 Y77.307 E145.4883
G1 X148.691 Y77.627 E145.5003
G1 X148.797 Y77.975 E145.5124
G1 X148.832 Y78.337 E145.5245
G1 X148.797 Y78.698 E145.5366
G1 X148.691 Y79.046 E145.5487
G1 X148.520 Y79.366 E145.5608
G1 X148.289 Y79.647 E145.5729
G1 X148.009 Y79.877 E145.5849
G1 X147.688 Y80.049 E145.5970
G1 X147.341 Y80.154 E145.6091
G1 X146.979 Y80.190 E145.6212
G1 X146.618 Y80.154 E145.6333
G1 X146.536 Y80.129 E145.6361
G0 X147.066 Y80.543 F5400
;segType:HShell
G1 X150.018 Y83.495 E145.7750 F2400
G0 X150.018 Y82.929 F5400
G1 X147.555 Y80.466 E145.8909 F2400
G0 X147.964 Y80.310 F5400
G1 X150.018 Y82.364 E145.9875 F2400
G0 X150.018 Y81.798 F5400
G1 X148.314 Y80.093 E146.0677 F2400
G0 X148.256 Y79.513 F5400
;segType:Perimeter
G1 X147.477 Y79.695 E146.0943 F1439
G1 X147.262 Y79.760 E146.1018
G1 X146.979 Y79.788 E146.1112
G1 X146.696 Y79.760 E146.1207
G1 X146.424 Y79.677 E146.1301
G1 X146.173 Y79.543 E146.1396
G1 X145.953 Y79.363 E146.1491
G1 X145.772 Y79.143 E146.1585
G1 X145.638 Y78.892 E146.1680
G1 X145.556 Y78.620 E146.1775
G1 X145.528 Y78.337 E146.1869
G1 X145.556 Y78.053 E146.1964
G1 X145.638 Y77.781 E146.2059
G1 X145.772 Y77.530 E146.2153
G1 X145.953 Y77.310 E146.2248
G1 X146.173 Y77.130 E146.2342
G1 X146.424 Y76.996 E146.2437
G1 X146.696 Y76.913 E146.2532
G1 X146.979 Y76.885 E146.2626
G1 X147.262 Y76.913 E146.2721
G1 X147.534 Y76.996 E146.2816
G1 X147.785 Y77.130 E146.2910
G1 X148.005 Y77.310 E146.3005
G1 X148.186 Y77.530 E146.3100
G1 X148.320 Y77.781 E146.3194
G1 X148.403 Y78.053 E146.3289
G1 X148.431 Y78.337 E146.3384
G1 X148.403 Y78.620 E146.3478
G1 X148.320 Y78.892 E146.3573
G1 X148.186 Y79.143 E146.3668
G1 X148.005 Y79.363 E146.3762
G1 X147.785 Y79.543 E146.3857
G1 X147.587 Y79.649 E146.3931
G0 X146.908 Y80.071 F5400
G0 F3000 E145.3931
G0 X146.918 Y80.184 F5400
G0 X146.618 Y80.154
G0 X146.270 Y80.049
G0 X145.949 Y79.877
G0 X145.669 Y79.647
G0 X145.438 Y79.366
G0 X145.267 Y79.046
G0 X145.161 Y78.698
G0 X145.126 Y78.337
G0 X145.161 Y77.975
G0 X145.267 Y77.627
G0 X145.438 Y77.307
G0 X145.669 Y77.026
G0 X145.949 Y76.796
G0 X146.270 Y76.624
G0 X146.598 Y76.525
G0 X146.598 Y76.525
G0 X146.344 Y73.624
G0 X146.344 Y73.624
G0 F3000 E146.3931
;segType:Loop
G1 X146.270 Y73.601 E146.3957 F2400
G1 X145.949 Y73.430 E146.4078
G1 X145.669 Y73.200 E146.4199
G1 X145.438 Y72.919 E146.4320
G1 X145.267 Y72.599 E146.4441
G1 X145.161 Y72.251 E146.4561
G1 X145.126 Y71.889 E146.4682
G1 X145.161 Y71.528 E146.4803
G1 X145.267 Y71.180 E146.4924
G1 X145.438 Y70.860 E146.5045
G1 X145.669 Y70.579 E146.5166
G1 X145.949 Y70.348 E146.5286
G1 X146.270 Y70.177 E146.5407
G1 X146.618 Y70.071 E146.5528
G1 X146.979 Y70.036 E146.5649
G1 X147.341 Y70.071 E146.5770
G1 X147.688 Y70.177 E146.5891
G1 X148.009 Y70.348 E146.6012
G1 X148.289 Y70.578 E146.6132
G1 X148.520 Y70.860 E146.6253
G1 X148.691 Y71.180 E146.6374
G1 X148.797 Y71.528 E146.6495
G1 X148.832 Y71.889 E146.6616
G1 X148.797 Y72.251 E146.6737
G1 X148.691 Y72.598 E146.6857
G1 X148.520 Y72.919 E146.6978
G1 X148.289 Y73.200 E146.7099
G1 X148.009 Y73.430 E146.7220
G1 X147.688 Y73.601 E146.7341
G1 X147.341 Y73.707 E146.7462
G1 X146.979 Y73.742 E146.7582
G1 X146.618 Y73.707 E146.7703
G1 X146.536 Y73.682 E146.7732
G0 X147.377 Y74.065 F5400
;segType:HShell
G1 X150.018 Y76.707 E146.8974 F2400
G0 X150.018 Y76.141 F5400
G1 X147.816 Y73.939 E147.0010 F2400
G0 X148.186 Y73.743 F5400
G1 X150.018 Y75.575 E147.0872 F2400
G0 X150.018 Y75.010 F5400
G1 X148.501 Y73.492 E147.1586 F2400
G0 X148.256 Y73.065 F5400
;segType:Perimeter
G1 X147.477 Y73.248 E147.1852 F1439
G1 X147.262 Y73.313 E147.1926
G1 X146.979 Y73.340 E147.2021
G1 X146.696 Y73.313 E147.2116
G1 X146.424 Y73.230 E147.2210
G1 X146.173 Y73.096 E147.2305
G1 X145.953 Y72.915 E147.2400
G1 X145.772 Y72.695 E147.2494
G1 X145.638 Y72.445 E147.2589
G1 X145.556 Y72.172 E147.2684
G1 X145.528 Y71.889 E147.2778
G1 X145.556 Y71.606 E147.2873
G1 X145.638 Y71.334 E147.2968
G1 X145.772 Y71.083 E147.3062
G1 X145.953 Y70.863 E147.3157
G1 X146.173 Y70.682 E147.3251
G1 X146.424 Y70.548 E147.3346
G1 X146.696 Y70.466 E147.3441
G1 X146.979 Y70.438 E147.3535
G1 X147.262 Y70.466 E147.3630
G1 X147.534 Y70.548 E147.3725
G1 X147.785 Y70.682 E147.3819
G1 X148.005 Y70.863 E147.3914
G1 X148.186 Y71.083 E147.4009
G1 X148.320 Y71.334 E147.4103
G1 X148.403 Y71.606 E147.4198
G1 X148.431 Y71.889 E147.4293
G1 X148.403 Y72.172 E147.4387
G1 X148.320 Y72.445 E147.4482
G1 X148.186 Y72.695 E147.4576
G1 X148.005 Y72.916 E147.4671
G1 X147.785 Y73.096 E147.4766
G1 X147.587 Y73.202 E147.4840
G0 X146.908 Y73.624 F5400
G0 X146.836 Y74.090
;segType:HShell
G1 X150.018 Y77.272 E147.6337 F2400
G0 X150.018 Y77.838 F5400
G1 X146.098 Y73.918 E147.8181 F2400
G0 X137.289 Y86.040 F5400
G1 X119.940 Y68.690 E148.6342 F2400
G0 X119.940 Y69.255 F5400
G1 X136.724 Y86.040 E149.4237 F2400
G0 X136.158 Y86.040 F5400
G1 X119.940 Y69.821 E150.1865 F2400
G0 X119.940 Y70.387 F5400
G1 X135.592 Y86.040 E150.9228 F2400
G0 X135.027 Y86.040 F5400
G1 X119.940 Y70.953 E151.6324 F2400
G0 X119.940 Y71.518 F5400
G1 X134.461 Y86.040 E152.3155 F2400
G0 X133.895 Y86.040 F5400
G1 X119.940 Y72.084 E152.9719 F2400
G0 X119.940 Y72.650 F5400
G1 X133.330 Y86.040 E153.6017 F2400
G0 X132.764 Y86.040 F5400
G1 X119.940 Y73.215 E154.2049 F2400
G0 X119.940 Y73.781 F5400
G1 X132.198 Y86.040 E154.7815 F2400
G0 X131.633 Y86.040 F5400
G1 X119.940 Y74.347 E155.3315 F2400
G0 X119.940 Y74.912 F5400
G1 X131.067 Y86.040 E155.8549 F2400
G0 X130.501 Y86.040 F5400
G1 X119.940 Y75.478 E156.3517 F2400
G0 X119.940 Y76.044 F5400
G1 X129.936 Y86.040 E156.8219 F2400
G0 X129.370 Y86.040 F5400
G1 X119.940 Y76.609 E157.2654 F2400
G0 X119.940 Y77.175 F5400
G1 X128.804 Y86.040 E157.6824 F2400
G0 X128.239 Y86.040 F5400
G1 X119.940 Y77.741 E158.0728 F2400
G0 X119.940 Y78.306 F5400
G1 X127.673 Y86.040 E158.4365 F2400
G0 X127.107 Y86.040 F5400
G1 X119.940 Y78.872 E158.7736 F2400
G0 X119.940 Y79.438 F5400
G1 X126.541 Y86.040 E159.0842 F2400
G0 X125.976 Y86.040 F5400
G1 X119.940 Y80.004 E159.3681 F2400
G0 X119.940 Y80.569 F5400
G1 X125.410 Y86.040 E159.6254 F2400
G0 X124.844 Y86.040 F5400
G1 X119.940 Y81.135 E159.8561 F2400
G0 X119.940 Y81.701 F5400
G1 X124.279 Y86.040 E160.0602 F2400
G0 X123.713 Y86.040 F5400
G1 X119.940 Y82.266 E160.2377 F2400
G0 X119.940 Y82.832 F5400
G1 X123.147 Y86.040 E160.3885 F2400
G0 X122.582 Y86.040 F5400
G1 X119.940 Y83.398 E160.5128 F2400
G0 X119.940 Y83.963 F5400
G1 X122.016 Y86.040 E160.6105 F2400
G0 X121.450 Y86.040 F5400
G1 X119.940 Y84.529 E160.6815 F2400
G0 X119.940 Y85.095 F5400
G1 X121.019 Y86.173 E160.7323 F2400
G0 X121.019 Y86.739 F5400
G1 X119.940 Y85.660 E160.7830 F2400
G0 X119.940 Y86.226 F5400
G1 X121.019 Y87.305 E160.8338 F2400
G0 X121.019 Y87.871 F5400
G1 X119.940 Y86.792 E160.8845 F2400
G0 X119.940 Y87.357 F5400
G1 X121.019 Y88.436 E160.9352 F2400
G0 X121.019 Y89.002 F5400
G1 X119.940 Y87.923 E160.9860 F2400
G0 X119.940 Y88.489 F5400
