; #disp params :
; Printmode:0
; Layer:33
; Zmax:159.626 mm
; Xmax:266.143 mm
; Ymax:9.11 mm
; Xmin:61.646 mm
; Ymin:0.08 mm
; E0diam:0.4 mm
; E0len:19.6461 m
; E0temp:210 C
; Bedtemp:210 C
; Time:173.633 min
; #params end
; GCode generated by CraftWare

G28 X Y ; home horizontally
G28 Z ; home vertically


M104 S210 ;set head temp (no wait)
M190 S72 ;set bed temp (wait)
M109 S210 ;set head temp (wait)

; ------------------------------------
; Raft Layer #0
; ------------------------------------
M109 S220 ;set temp override (wait)
M106 S0 ;turn off fan
G21 ; mm
G90 ; abs
G92 E0 ;reset extr
G0 F600 Z0.080
;segType:Raft
G0 F3000 E-1.00000
G0 F600 Z2.080
G0 X64.464 Y159.364 F4320
G0 F600 Z0.080
G0 F3000 E0.00000
G1 X61.843 Y156.743 E0.15410 F600
G1 X61.712 Y156.350 E0.17133
G1 X61.712 Y131.975 E1.18470
G1 X61.908 Y131.647 E1.20060
G1 X64.791 Y128.764 E1.37011
G1 X65.054 Y128.764 E1.38101
G1 X65.185 Y128.633 E1.38871
G1 X66.102 Y128.502 E1.42724
G1 X66.233 Y128.371 E1.43494
G1 X66.691 Y128.306 E1.45419
G1 X67.084 Y128.175 E1.47142
G1 X67.543 Y128.109 E1.49069
G1 X67.674 Y127.978 E1.49840
G1 X68.592 Y127.847 E1.53692
G1 X68.723 Y127.716 E1.54463
G1 X69.181 Y127.651 E1.56388
G1 X69.574 Y127.520 E1.58111
G1 X70.033 Y127.454 E1.60038
G1 X70.164 Y127.323 E1.60809
G1 X71.082 Y127.192 E1.64661
G1 X71.213 Y127.061 E1.65432
G1 X72.130 Y126.930 E1.69284
G1 X72.261 Y126.799 E1.70055
G1 X72.523 Y126.799 E1.71144
G1 X72.654 Y126.667 E1.71915
G1 X73.571 Y126.536 E1.75767
G1 X73.703 Y126.405 E1.76538
G1 X74.620 Y126.274 E1.80390
G1 X74.751 Y126.143 E1.81161
G1 X75.013 Y126.143 E1.82250
G1 X75.340 Y125.947 E1.83837
G1 X75.340 Y74.053 E3.99588
G1 X74.882 Y73.988 E4.01513
G1 X74.751 Y73.857 E4.02283
G1 X73.834 Y73.726 E4.06136
G1 X73.703 Y73.595 E4.06906
G1 X72.785 Y73.464 E4.10759
G1 X72.654 Y73.333 E4.11529
G1 X72.392 Y73.333 E4.12619
G1 X72.261 Y73.201 E4.13389
G1 X71.344 Y73.070 E4.17242
G1 X71.213 Y72.939 E4.18012
G1 X70.295 Y72.808 E4.21865
G1 X70.164 Y72.677 E4.22635
G1 X69.705 Y72.611 E4.24563
G1 X69.312 Y72.480 E4.26286
G1 X68.854 Y72.415 E4.28211
G1 X68.723 Y72.284 E4.28981
G1 X67.805 Y72.153 E4.32834
G1 X67.674 Y72.022 E4.33604
G1 X66.757 Y71.891 E4.37457
G1 X66.626 Y71.760 E4.38227
G1 X66.167 Y71.694 E4.40155
G1 X65.774 Y71.563 E4.41878
G1 X65.316 Y71.498 E4.43803
G1 X65.185 Y71.367 E4.44573
G1 X64.726 Y71.301 E4.46501
G1 X62.105 Y68.680 E4.61910
G1 X61.712 Y68.025 E4.65087
G1 X61.712 Y43.650 E5.66424
G1 X61.843 Y43.519 E5.67195
G1 X61.843 Y43.257 E5.68285
G1 X64.464 Y40.636 E5.83695
G1 X64.791 Y40.440 E5.85284
G1 X124.024 Y40.440 E8.31545
G1 X126.645 Y43.060 E8.46955
G1 X126.711 Y43.519 E8.48882
G1 X126.711 Y50.072 E8.76123
G1 X127.169 Y50.137 E8.78048
G1 X194.264 Y50.137 E11.56998
G1 X226.239 Y50.137 E12.89935
G1 X226.698 Y50.072 E12.91860
G1 X226.698 Y43.257 E13.20191
G1 X229.319 Y40.636 E13.35601
G1 X229.647 Y40.440 E13.37191
G1 X262.670 Y40.440 E14.74487
G1 X263.129 Y40.505 E14.76414
G1 X263.456 Y40.702 E14.78001
G1 X265.815 Y43.060 E14.91870
G1 X266.012 Y43.388 E14.93460
G1 X266.143 Y43.781 E14.95183
G1 X266.143 Y67.894 E15.95430
G1 X266.012 Y68.287 E15.97153
G1 X265.815 Y68.615 E15.98743
G1 X263.063 Y71.367 E16.14924
G1 X262.146 Y71.498 E16.18776
G1 X262.015 Y71.629 E16.19547
G1 X261.098 Y71.760 E16.23399
G1 X260.967 Y71.891 E16.24170
G1 X260.704 Y71.891 E16.25259
G1 X260.573 Y72.022 E16.26030
G1 X259.656 Y72.153 E16.29882
G1 X259.525 Y72.284 E16.30653
G1 X258.608 Y72.415 E16.34506
G1 X258.477 Y72.546 E16.35276
G1 X258.215 Y72.546 E16.36366
G1 X258.084 Y72.677 E16.37136
G1 X257.166 Y72.808 E16.40989
G1 X257.035 Y72.939 E16.41759
G1 X256.118 Y73.070 E16.45612
G1 X255.987 Y73.201 E16.46382
G1 X255.725 Y73.201 E16.47472
G1 X255.594 Y73.333 E16.48243
G1 X254.676 Y73.464 E16.52095
G1 X254.545 Y73.595 E16.52866
G1 X253.628 Y73.726 E16.56718
G1 X253.497 Y73.857 E16.57489
G1 X253.039 Y73.922 E16.59414
G1 X252.645 Y74.053 E16.61137
G1 X252.514 Y74.184 E16.61907
G1 X252.514 Y125.554 E18.75478
G1 X252.580 Y126.012 E18.77403
G1 X252.711 Y126.143 E18.78174
G1 X253.628 Y126.274 E18.82026
G1 X253.759 Y126.405 E18.82797
G1 X254.676 Y126.536 E18.86649
G1 X254.807 Y126.667 E18.87420
G1 X255.266 Y126.733 E18.89348
G1 X255.659 Y126.864 E18.91070
G1 X256.118 Y126.930 E18.92996
G1 X256.249 Y127.061 E18.93766
G1 X257.166 Y127.192 E18.97619
G1 X257.297 Y127.323 E18.98389
G1 X258.215 Y127.454 E19.02242
G1 X258.346 Y127.585 E19.03012
G1 X258.608 Y127.585 E19.04102
G1 X258.739 Y127.716 E19.04872
G1 X259.656 Y127.847 E19.08725
G1 X259.787 Y127.978 E19.09495
G1 X260.704 Y128.109 E19.13348
G1 X260.835 Y128.240 E19.14118
G1 X261.753 Y128.371 E19.17971
G1 X261.884 Y128.502 E19.18741
G1 X262.146 Y128.502 E19.19831
G1 X262.277 Y128.633 E19.20602
G1 X262.736 Y128.699 E19.22529
G1 X263.129 Y128.830 E19.24252
G1 X266.012 Y131.713 E19.41203
G1 X266.143 Y132.106 E19.42926
G1 X266.143 Y156.481 E20.44263
G1 X265.946 Y156.808 E20.45853
G1 X263.194 Y159.560 E20.62034
G1 X229.385 Y159.560 E22.02598
G1 X226.764 Y156.940 E22.18008
G1 X226.698 Y156.481 E22.19936
G1 X226.698 Y149.928 E22.47177
G1 X226.239 Y149.863 E22.49102
G1 X159.144 Y149.863 E25.28052
G1 X127.169 Y149.863 E26.60989
G1 X126.711 Y149.928 E26.62914
G1 X126.711 Y156.743 E26.91245
G1 X126.514 Y157.071 E26.92835
G1 X124.024 Y159.560 E27.07474
G1 X64.791 Y159.560 E29.53735
G1 X64.464 Y159.364 E29.55324
G0 X119.044 Y125.095 F4320
G1 X208.810 Y125.095 E33.28529 F600
G1 X208.876 Y124.637 E33.30454
G1 X208.876 Y75.101 E35.36397
G1 X208.417 Y75.036 E35.38322
G1 X119.044 Y75.036 E39.09892
G1 X118.979 Y75.494 E39.11817
G1 X118.979 Y124.768 E41.16670
G1 X119.044 Y125.095 E41.18058
G0 X119.796 Y125.554 F4320
G1 X119.796 Y159.233 E42.58078 F600
G0 X115.796 Y159.233 F4320
G1 X115.796 Y40.898 E47.50054 F600
G0 X111.796 Y40.898 F4320
G1 X111.796 Y159.233 E52.42029 F600
G0 X107.796 Y159.233 F4320
G1 X107.796 Y40.898 E57.34005 F600
G0 X103.796 Y40.898 F4320
G1 X103.796 Y159.233 E62.25981 F600
G0 X99.796 Y159.233 F4320
G1 X99.796 Y40.898 E67.17957 F600
G0 X95.796 Y40.898 F4320
G1 X95.796 Y159.233 E72.09933 F600
G0 X91.796 Y159.233 F4320
G1 X91.796 Y40.898 E77.01909 F600
G0 X87.796 Y40.898 F4320
G1 X87.796 Y159.233 E81.93885 F600
G0 X83.796 Y159.233 F4320
G1 X83.796 Y40.898 E86.85861 F600
G0 X79.796 Y40.898 F4320
G1 X79.796 Y159.233 E91.77837 F600
G0 X75.796 Y159.233 F4320
G1 X75.796 Y40.898 E96.69814 F600
G0 X71.796 Y40.898 F4320
G1 X71.796 Y72.743 E98.02206 F600
G0 X67.796 Y71.694 F4320
G1 X67.796 Y40.898 E99.30239 F600
G0 X63.796 Y42.078 F4320
G1 X63.796 Y69.728 E100.45197 F600
G0 X119.796 Y74.708 F4320
G1 X119.796 Y40.898 E101.85762 F600
G0 X123.796 Y40.898 F4320
G1 X123.796 Y74.708 E103.26327 F600
G0 X127.796 Y74.708 F4320
G1 X127.796 Y50.596 E104.26574 F600
G0 X131.796 Y50.596 F4320
G1 X131.796 Y74.708 E105.26821 F600
G0 X135.796 Y74.708 F4320
G1 X135.796 Y50.596 E106.27068 F600
G0 X139.796 Y50.596 F4320
G1 X139.796 Y74.708 E107.27316 F600
G0 X143.796 Y74.708 F4320
G1 X143.796 Y50.596 E108.27563 F600
G0 X147.796 Y50.596 F4320
G1 X147.796 Y74.708 E109.27810 F600
G0 X151.796 Y74.708 F4320
G1 X151.796 Y50.596 E110.28057 F600
G0 X155.796 Y50.596 F4320
G1 X155.796 Y74.708 E111.28304 F600
G0 X159.796 Y74.708 F4320
G1 X159.796 Y50.596 E112.28551 F600
G0 X163.796 Y50.596 F4320
G1 X163.796 Y74.708 E113.28799 F600
G0 X167.796 Y74.708 F4320
G1 X167.796 Y50.596 E114.29046 F600
G0 X171.796 Y50.596 F4320
G1 X171.796 Y74.708 E115.29293 F600
G0 X175.796 Y74.708 F4320
G1 X175.796 Y50.596 E116.29540 F600
G0 X179.796 Y50.596 F4320
G1 X179.796 Y74.708 E117.29787 F600
G0 X183.796 Y74.708 F4320
G1 X183.796 Y50.596 E118.30035 F600
G0 X187.796 Y50.596 F4320
G1 X187.796 Y74.708 E119.30282 F600
G0 X191.796 Y74.708 F4320
G1 X191.796 Y50.596 E120.30529 F600
G0 X195.796 Y50.596 F4320
G1 X195.796 Y74.708 E121.30776 F600
G0 X199.796 Y74.708 F4320
G1 X199.796 Y50.596 E122.31023 F600
G0 X203.796 Y50.596 F4320
G1 X203.796 Y74.708 E123.31271 F600
G0 X207.796 Y74.708 F4320
G1 X207.796 Y50.596 E124.31518 F600
G0 X211.796 Y50.596 F4320
G1 X211.796 Y149.535 E128.42860 F600
G0 X207.796 Y149.535 F4320
G1 X207.796 Y125.554 E129.42563 F600
G0 X203.796 Y125.554 F4320
G1 X203.796 Y149.535 E130.42265 F600
G0 X199.796 Y149.535 F4320
G1 X199.796 Y125.554 E131.41968 F600
G0 X195.796 Y125.554 F4320
G1 X195.796 Y149.535 E132.41670 F600
G0 X191.796 Y149.535 F4320
G1 X191.796 Y125.554 E133.41373 F600
G0 X187.796 Y125.554 F4320
G1 X187.796 Y149.535 E134.41075 F600
G0 X183.796 Y149.535 F4320
G1 X183.796 Y125.554 E135.40778 F600
G0 X179.796 Y125.554 F4320
G1 X179.796 Y149.535 E136.40480 F600
G0 X175.796 Y149.535 F4320
G1 X175.796 Y125.554 E137.40182 F600
G0 X171.796 Y125.554 F4320
G1 X171.796 Y149.535 E138.39885 F600
G0 X167.796 Y149.535 F4320
G1 X167.796 Y125.554 E139.39587 F600
G0 X163.796 Y125.554 F4320
G1 X163.796 Y149.535 E140.39290 F600
G0 X159.796 Y149.535 F4320
G1 X159.796 Y125.554 E141.38992 F600
G0 X155.796 Y125.554 F4320
G1 X155.796 Y149.535 E142.38695 F600
G0 X151.796 Y149.535 F4320
G1 X151.796 Y125.554 E143.38397 F600
G0 X147.796 Y125.554 F4320
G1 X147.796 Y149.535 E144.38100 F600
G0 X143.796 Y149.535 F4320
G1 X143.796 Y125.554 E145.37802 F600
G0 X139.796 Y125.554 F4320
G1 X139.796 Y149.535 E146.37505 F600
G0 X135.796 Y149.535 F4320
G1 X135.796 Y125.554 E147.37207 F600
G0 X131.796 Y125.554 F4320
G1 X131.796 Y149.535 E148.36909 F600
G0 X127.796 Y149.535 F4320
G1 X127.796 Y125.554 E149.36612 F600
G0 X123.796 Y125.554 F4320
G1 X123.796 Y159.233 E150.76631 F600
G0 X71.796 Y159.233 F4320
G1 X71.796 Y127.520 E152.08478 F600
G0 X67.796 Y128.568 F4320
G1 X67.796 Y159.233 E153.35966 F600
G0 X63.796 Y158.053 F4320
G1 X63.796 Y130.534 E154.50380 F600
G0 X215.796 Y149.535 F4320
G1 X215.796 Y50.596 E158.61722 F600
G0 X219.796 Y50.596 F4320
G1 X219.796 Y149.535 E162.73064 F600
G0 X223.796 Y149.535 F4320
G1 X223.796 Y50.596 E166.84406 F600
G0 X227.796 Y42.864 F4320
G1 X227.796 Y157.398 E171.60582 F600
G0 X231.796 Y159.233 F4320
G1 X231.796 Y40.898 E176.52558 F600
G0 X235.796 Y40.898 F4320
G1 X235.796 Y159.233 E181.44532 F600
G0 X239.796 Y159.233 F4320
G1 X239.796 Y40.898 E186.36508 F600
G0 X243.796 Y40.898 F4320
G1 X243.796 Y159.233 E191.28484 F600
G0 X247.796 Y159.233 F4320
G1 X247.796 Y40.898 E196.20458 F600
G0 X251.796 Y40.898 F4320
G1 X251.796 Y159.233 E201.12434 F600
G0 X255.796 Y159.233 F4320
G1 X255.796 Y127.389 E202.44828 F600
G0 X259.796 Y128.437 F4320
G1 X259.796 Y159.233 E203.72860 F600
G0 X263.796 Y158.315 F4320
G1 X263.796 Y130.272 E204.89454 F600
G0 X255.796 Y72.743 F4320
G1 X255.796 Y40.898 E206.21846 F600
G0 X259.796 Y40.898 F4320
G1 X259.796 Y71.825 E207.50424 F600
G0 X263.796 Y69.991 F4320
G1 X263.796 Y41.816 E208.67562 F600
M104 S210 ;set temp back (don't wait)



; ------------------------------------
; Raft Layer #1
; ------------------------------------
G92 E0 ;reset extr
G0 F600 Z0.380
;segType:Raft
G0 X264.243 Y41.530 F7200
G1 X228.336 Y41.530 E1.49282 F2400
G0 X227.026 Y42.863 F7200
G1 X265.553 Y42.863 E3.09460 F2400
G0 X266.077 Y49.530 F7200
G1 X226.633 Y49.530 E4.73452 F2400
G1 X226.633 Y48.197 E4.78995
G1 X266.077 Y48.197 E6.42987
G1 X266.077 Y46.863 E6.48531
G1 X226.633 Y46.863 E8.12523
G1 X226.633 Y45.530 E8.18066
G1 X266.077 Y45.530 E9.82058
G1 X266.077 Y44.197 E9.87601
G1 X226.633 Y44.197 E11.51593
G0 X208.810 Y76.197 F7200
G1 X252.449 Y76.197 E13.33020 F2400
G1 X252.449 Y77.530 E13.38563
G1 X208.810 Y77.530 E15.19989
G1 X208.810 Y78.863 E15.25533
G1 X252.449 Y78.863 E17.06959
G1 X252.449 Y80.197 E17.12502
G1 X208.810 Y80.197 E18.93928
G1 X208.810 Y81.530 E18.99472
G1 X252.449 Y81.530 E20.80898
G1 X252.449 Y82.863 E20.86441
G1 X208.810 Y82.863 E22.67868
G1 X208.810 Y84.197 E22.73411
G1 X252.449 Y84.197 E24.54837
G1 X252.449 Y85.530 E24.60380
G1 X208.810 Y85.530 E26.41807
G1 X208.810 Y86.863 E26.47350
G1 X252.449 Y86.863 E28.28776
G1 X252.449 Y88.197 E28.34320
G1 X208.810 Y88.197 E30.15746
G1 X208.810 Y89.530 E30.21289
G1 X252.449 Y89.530 E32.02715
G1 X252.449 Y90.863 E32.08259
G1 X208.810 Y90.863 E33.89685
G1 X208.810 Y92.197 E33.95229
G1 X252.449 Y92.197 E35.76655
G1 X252.449 Y93.530 E35.82198
G1 X208.810 Y93.530 E37.63625
G1 X208.810 Y94.863 E37.69168
G1 X252.449 Y94.863 E39.50594
G1 X252.449 Y96.197 E39.56138
G1 X208.810 Y96.197 E41.37564
G1 X208.810 Y97.530 E41.43108
G1 X252.449 Y97.530 E43.24534
G1 X252.449 Y98.863 E43.30078
G1 X208.810 Y98.863 E45.11504
G1 X208.810 Y100.197 E45.17047
G1 X252.449 Y100.197 E46.98474
G1 X252.449 Y101.530 E47.04017
G1 X208.810 Y101.530 E48.85443
G1 X208.810 Y102.863 E48.90987
G1 X252.449 Y102.863 E50.72413
G1 X252.449 Y104.197 E50.77957
G1 X208.810 Y104.197 E52.59383
G1 X208.810 Y105.530 E52.64926
G1 X252.449 Y105.530 E54.46353
G1 X252.449 Y106.863 E54.51896
G1 X208.810 Y106.863 E56.33322
G1 X208.810 Y108.197 E56.38866
G1 X252.449 Y108.197 E58.20292
G1 X252.449 Y109.530 E58.25836
G1 X208.810 Y109.530 E60.07262
G1 X208.810 Y110.863 E60.12805
G1 X252.449 Y110.863 E61.94232
G1 X252.449 Y112.197 E61.99775
G1 X208.810 Y112.197 E63.81201
G1 X208.810 Y113.530 E63.86745
G1 X252.449 Y113.530 E65.68171
G1 X252.449 Y114.863 E65.73715
G1 X208.810 Y114.863 E67.55141
G1 X208.810 Y116.197 E67.60684
G1 X252.449 Y116.197 E69.42111
G1 X252.449 Y117.530 E69.47654
G1 X208.810 Y117.530 E71.29080
G1 X208.810 Y118.863 E71.34624
G1 X252.449 Y118.863 E73.16050
G1 X252.449 Y120.197 E73.21594
G1 X208.810 Y120.197 E75.03020
G1 X208.810 Y121.530 E75.08563
G1 X252.449 Y121.530 E76.89990
G1 X252.449 Y122.863 E76.95533
G1 X208.810 Y122.863 E78.76959
G1 X208.810 Y124.197 E78.82503
G1 X252.449 Y124.197 E80.63929
G1 X252.449 Y125.530 E80.69473
G1 X75.275 Y125.530 E88.06075
G1 X75.275 Y124.197 E88.11618
G1 X118.913 Y124.197 E89.93044
G1 X118.913 Y122.863 E89.98588
G1 X75.275 Y122.863 E91.80014
G1 X75.275 Y121.530 E91.85558
G1 X118.913 Y121.530 E93.66984
G1 X118.913 Y120.197 E93.72527
G1 X75.275 Y120.197 E95.53954
G1 X75.275 Y118.863 E95.59497
G1 X118.913 Y118.863 E97.40923
G1 X118.913 Y117.530 E97.46467
G1 X75.275 Y117.530 E99.27893
G1 X75.275 Y116.197 E99.33437
G1 X118.913 Y116.197 E101.14863
G1 X118.913 Y114.863 E101.20406
G1 X75.275 Y114.863 E103.01833
G1 X75.275 Y113.530 E103.07376
G1 X118.913 Y113.530 E104.88802
G1 X118.913 Y112.197 E104.94346
G1 X75.275 Y112.197 E106.75772
G1 X75.275 Y110.863 E106.81316
G1 X118.913 Y110.863 E108.62742
G1 X118.913 Y109.530 E108.68285
G1 X75.275 Y109.530 E110.49712
G1 X75.275 Y108.197 E110.55255
G1 X118.913 Y108.197 E112.36681
G1 X118.913 Y106.863 E112.42225
G1 X75.275 Y106.863 E114.23651
G1 X75.275 Y105.530 E114.29195
G1 X118.913 Y105.530 E116.10621
G1 X118.913 Y104.197 E116.16164
G1 X75.275 Y104.197 E117.97591
G1 X75.275 Y102.863 E118.03134
G1 X118.913 Y102.863 E119.84560
G1 X118.913 Y101.530 E119.90104
G1 X75.275 Y101.530 E121.71530
G1 X75.275 Y100.197 E121.77074
G1 X118.913 Y100.197 E123.58500
G1 X118.913 Y98.863 E123.64043
G1 X75.275 Y98.863 E125.45470
G1 X75.275 Y97.530 E125.51013
G1 X118.913 Y97.530 E127.32439
G1 X118.913 Y96.197 E127.37983
G1 X75.275 Y96.197 E129.19409
G1 X75.275 Y94.863 E129.24953
G1 X118.913 Y94.863 E131.06380
G1 X118.913 Y93.530 E131.11923
G1 X75.275 Y93.530 E132.93350
G1 X75.275 Y92.197 E132.98894
G1 X118.913 Y92.197 E134.80321
G1 X118.913 Y90.863 E134.85864
G1 X75.275 Y90.863 E136.67291
G1 X75.275 Y89.530 E136.72835
G1 X118.913 Y89.530 E138.54262
G1 X118.913 Y88.197 E138.59805
G1 X75.275 Y88.197 E140.41232
G1 X75.275 Y86.863 E140.46776
G1 X118.913 Y86.863 E142.28203
G1 X118.913 Y85.530 E142.33746
G1 X75.275 Y85.530 E144.15173
G1 X75.275 Y84.197 E144.20717
G1 X118.913 Y84.197 E146.02144
G1 X118.913 Y82.863 E146.07687
G1 X75.275 Y82.863 E147.89114
G1 X75.275 Y81.530 E147.94658
G1 X118.913 Y81.530 E149.76085
G1 X118.913 Y80.197 E149.81628
G1 X75.275 Y80.197 E151.63055
G1 X75.275 Y78.863 E151.68599
G1 X118.913 Y78.863 E153.50026
G1 X118.913 Y77.530 E153.55569
G1 X75.275 Y77.530 E155.36996
G1 X75.275 Y76.197 E155.42540
G1 X118.913 Y76.197 E157.23967
G0 X126.645 Y44.197 F7200
G1 X61.646 Y44.197 E159.94200 F2400
G1 X61.646 Y45.530 E159.99744
G1 X126.645 Y45.530 E162.69977
G1 X126.645 Y46.863 E162.75520
G1 X61.646 Y46.863 E165.45753
G1 X61.646 Y48.197 E165.51297
G1 X126.645 Y48.197 E168.21530
G1 X126.645 Y49.530 E168.27074
G1 X61.646 Y49.530 E170.97306
G1 X61.646 Y50.863 E171.02850
G1 X266.077 Y50.863 E179.52776
G1 X266.077 Y52.197 E179.58320
G1 X61.646 Y52.197 E188.08244
G1 X61.646 Y53.530 E188.13788
G1 X266.077 Y53.530 E196.63714
G1 X266.077 Y54.863 E196.69256
G1 X61.646 Y54.863 E205.19182
G1 X61.646 Y56.197 E205.24726
G1 X266.077 Y56.197 E213.74650
G1 X266.077 Y57.530 E213.80194
G1 X61.646 Y57.530 E222.30120
G1 X61.646 Y58.863 E222.35662
G1 X266.077 Y58.863 E230.85588
G1 X266.077 Y60.197 E230.91132
G1 X61.646 Y60.197 E239.41056
G1 X61.646 Y61.530 E239.46600
G1 X266.077 Y61.530 E247.96526
G1 X266.077 Y62.863 E248.02070
G1 X61.646 Y62.863 E256.51992
G1 X61.646 Y64.197 E256.57534
G1 X266.077 Y64.197 E265.07458
G1 X266.077 Y65.530 E265.13000
G1 X61.646 Y65.530 E273.62924
G1 X61.646 Y66.863 E273.68466
G1 X266.077 Y66.863 E282.18390
G0 X265.946 Y68.197 F7200
G1 X61.777 Y68.197 E290.67224 F2400
G0 X62.826 Y69.530 F7200
G1 X264.898 Y69.530 E299.07342 F2400
G0 X263.456 Y70.863 F7200
G1 X64.267 Y70.863 E307.35474 F2400
G0 X68.199 Y72.197 F7200
G1 X259.525 Y72.197 E315.30918 F2400
G0 X254.545 Y73.530 F7200
G1 X73.178 Y73.530 E322.84954 F2400
G0 X75.275 Y74.863 F7200
G1 X252.449 Y74.863 E330.21558 F2400
G0 X255.594 Y126.863 F7200
G1 X72.130 Y126.863 E337.84312 F2400
G0 X67.019 Y128.197 F7200
G1 X260.704 Y128.197 E345.89560 F2400
G0 X263.718 Y129.530 F7200
G1 X64.005 Y129.530 E354.19868 F2400
G0 X62.564 Y130.863 F7200
G1 X265.160 Y130.863 E362.62168 F2400
G0 X266.077 Y132.197 F7200
G1 X61.646 Y132.197 E371.12092 F2400
G1 X61.646 Y133.530 E371.17632
G1 X266.077 Y133.530 E379.67556
G1 X266.077 Y134.863 E379.73100
G1 X61.646 Y134.863 E388.23024
G1 X61.646 Y136.197 E388.28564
G1 X266.077 Y136.197 E396.78488
G1 X266.077 Y137.530 E396.84032
G1 X61.646 Y137.530 E405.33952
G1 X61.646 Y138.863 E405.39496
G1 X266.077 Y138.863 E413.89420
G1 X266.077 Y140.197 E413.94960
G1 X61.646 Y140.197 E422.44884
G1 X61.646 Y141.530 E422.50428
G1 X266.077 Y141.530 E431.00352
G1 X266.077 Y142.863 E431.05892
G1 X61.646 Y142.863 E439.55816
G1 X61.646 Y144.197 E439.61360
G1 X266.077 Y144.197 E448.11284
G1 X266.077 Y145.530 E448.16824
G1 X61.646 Y145.530 E456.66748
G1 X61.646 Y146.863 E456.72292
G1 X266.077 Y146.863 E465.22212
G1 X266.077 Y148.197 E465.27756
G1 X61.646 Y148.197 E473.77680
G1 X61.646 Y149.530 E473.83220
G1 X266.077 Y149.530 E482.33144
G1 X266.077 Y150.863 E482.38688
G1 X226.633 Y150.863 E484.02680
G1 X226.633 Y152.197 E484.08220
G1 X266.077 Y152.197 E485.72212
G1 X266.077 Y153.530 E485.77756
G1 X226.633 Y153.530 E487.41748
G1 X226.633 Y154.863 E487.47292
G1 X266.077 Y154.863 E489.11284
G1 X266.077 Y156.197 E489.16824
G1 X226.633 Y156.197 E490.80816
G0 X227.288 Y157.530 F7200
G1 X265.160 Y157.530 E492.38272 F2400
G0 X263.850 Y158.863 F7200
G1 X228.598 Y158.863 E493.84828 F2400
G0 X126.645 Y150.863 F7200
G1 X61.646 Y150.863 E496.55064 F2400
G1 X61.646 Y152.197 E496.60604
G1 X126.645 Y152.197 E499.30840
G1 X126.645 Y153.530 E499.36380
G1 X61.646 Y153.530 E502.06612
G1 X61.646 Y154.863 E502.12156
G1 X126.645 Y154.863 E504.82388
G1 X126.645 Y156.197 E504.87932
G1 X61.646 Y156.197 E507.58164
G0 X62.564 Y157.530 F7200
G1 X125.990 Y157.530 E510.21856 F2400
G0 X124.679 Y158.863 F7200
G1 X63.874 Y158.863 E512.74652 F2400
G0 X62.171 Y42.863 F7200
G1 X126.383 Y42.863 E515.41612 F2400
G0 X125.072 Y41.530 F7200
G1 X63.481 Y41.530 E517.97680 F2400



; ------------------------------------
; Raft Layer #2
; ------------------------------------
G92 E0 ;reset extr
G0 F600 Z0.680
;segType:Raft
G0 F3000 E-1.00000
G0 F600 Z2.680
G0 X61.797 Y68.156 F7200
G0 F600 Z0.680
G0 F3000 E0.00000
G1 X61.797 Y43.650 E1.01882 F2400
G1 X62.197 Y42.995 E1.05074
G1 X62.197 Y68.811 E2.12404
G1 X62.597 Y69.204 E2.14736
G1 X62.597 Y42.602 E3.25335
G1 X62.997 Y42.209 E3.27667
G1 X62.997 Y69.597 E4.41535
G1 X63.397 Y69.991 E4.43867
G1 X63.397 Y41.816 E5.61004
G1 X63.797 Y41.423 E5.63336
G1 X63.797 Y70.384 E6.83742
G1 X64.197 Y70.777 E6.86073
G1 X64.197 Y41.030 E8.09748
G1 X64.597 Y40.636 E8.12080
G1 X64.597 Y71.301 E9.39569
G1 X64.997 Y71.432 E9.41319
G1 X64.997 Y40.505 E10.69897
G1 X65.397 Y40.505 E10.71560
G1 X65.397 Y71.563 E12.00684
G1 X65.797 Y71.694 E12.02434
G1 X65.797 Y40.505 E13.32102
G1 X66.197 Y40.505 E13.33765
G1 X66.197 Y71.825 E14.63978
G1 X66.597 Y71.825 E14.65641
G1 X66.597 Y40.505 E15.95853
G1 X66.997 Y40.505 E15.97517
G1 X66.997 Y71.956 E17.28274
G1 X67.397 Y72.087 E17.30024
G1 X67.397 Y40.505 E18.61327
G1 X67.797 Y40.505 E18.62990
G1 X67.797 Y72.218 E19.94837
G1 X68.197 Y72.218 E19.96500
G1 X68.197 Y40.505 E21.28348
G1 X68.597 Y40.505 E21.30011
G1 X68.597 Y72.349 E22.62403
G1 X68.997 Y72.480 E22.64153
G1 X68.997 Y40.505 E23.97090
G1 X69.397 Y40.505 E23.98753
G1 X69.397 Y72.611 E25.32235
G1 X69.797 Y72.743 E25.33985
G1 X69.797 Y40.505 E26.68011
G1 X70.197 Y40.505 E26.69674
G1 X70.197 Y72.743 E28.03701
G1 X70.597 Y72.874 E28.05451
G1 X70.597 Y40.505 E29.40023
G1 X70.997 Y40.505 E29.41686
G1 X70.997 Y73.005 E30.76802
G1 X71.397 Y73.136 E30.78552
G1 X71.397 Y40.505 E32.14213
G1 X71.797 Y40.505 E32.15876
G1 X71.797 Y73.136 E33.51537
G1 X72.197 Y73.267 E33.53287
G1 X72.197 Y40.505 E34.89493
G1 X72.597 Y40.505 E34.91156
G1 X72.597 Y73.398 E36.27907
G1 X72.997 Y73.529 E36.29657
G1 X72.997 Y40.505 E37.66952
G1 X73.397 Y40.505 E37.68615
G1 X73.397 Y73.660 E39.06455
G1 X73.797 Y73.791 E39.08205
G1 X73.797 Y40.505 E40.46591
G1 X74.197 Y40.505 E40.48253
G1 X74.197 Y73.791 E41.86639
G1 X74.597 Y73.922 E41.88389
G1 X74.597 Y40.505 E43.27319
G1 X74.997 Y40.505 E43.28982
G1 X74.997 Y74.053 E44.68457
G0 X74.997 Y126.209 F7200
G1 X74.997 Y159.626 E46.07387 F2400
G1 X74.597 Y159.626 E46.09049
G1 X74.597 Y126.340 E47.47435
G1 X74.197 Y126.340 E47.49098
G1 X74.197 Y159.626 E48.87483
G1 X73.797 Y159.626 E48.89146
G1 X73.797 Y126.471 E50.26986
G1 X73.397 Y126.602 E50.28736
G1 X73.397 Y159.626 E51.66032
G1 X72.997 Y159.626 E51.67694
G1 X72.997 Y126.733 E53.04445
G1 X72.597 Y126.733 E53.06108
G1 X72.597 Y159.626 E54.42859
G1 X72.197 Y159.626 E54.44522
G1 X72.197 Y126.864 E55.80728
G1 X71.797 Y126.995 E55.82477
G1 X71.797 Y159.626 E57.18139
G1 X71.397 Y159.626 E57.19802
G1 X71.397 Y127.126 E58.54918
G1 X70.997 Y127.257 E58.56668
G1 X70.997 Y159.626 E59.91239
G1 X70.597 Y159.626 E59.92902
G1 X70.597 Y127.389 E61.26929
G1 X70.197 Y127.389 E61.28591
G1 X70.197 Y159.626 E62.62618
G1 X69.797 Y159.626 E62.64281
G1 X69.797 Y127.520 E63.97763
G1 X69.397 Y127.651 E63.99513
G1 X69.397 Y159.626 E65.32450
G1 X68.997 Y159.626 E65.34113
G1 X68.997 Y127.782 E66.66505
G1 X68.597 Y127.913 E66.68255
G1 X68.597 Y159.626 E68.00102
G1 X68.197 Y159.626 E68.01766
G1 X68.197 Y127.913 E69.33613
G1 X67.797 Y128.044 E69.35363
G1 X67.797 Y159.626 E70.66666
G1 X67.397 Y159.626 E70.68329
G1 X67.397 Y128.175 E71.99087
G1 X66.997 Y128.306 E72.00837
G1 X66.997 Y159.626 E73.31050
G1 X66.597 Y159.626 E73.32714
G1 X66.597 Y128.437 E74.62382
G1 X66.197 Y128.437 E74.64045
G1 X66.197 Y159.626 E75.93714
G1 X65.797 Y159.626 E75.95377
G1 X65.797 Y128.568 E77.24500
G1 X65.397 Y128.699 E77.26250
G1 X65.397 Y159.626 E78.54828
G1 X64.997 Y159.626 E78.56491
G1 X64.997 Y128.830 E79.84525
G1 X64.597 Y128.961 E79.86275
G1 X64.597 Y159.626 E81.13764
G1 X64.197 Y159.102 E81.16505
G1 X64.197 Y129.485 E82.39635
G1 X63.797 Y129.878 E82.41966
G1 X63.797 Y158.708 E83.61827
G1 X63.397 Y158.315 E83.64159
G1 X63.397 Y130.272 E84.80751
G1 X62.997 Y130.665 E84.83083
G1 X62.997 Y157.922 E85.96406
G1 X62.597 Y157.529 E85.98737
G1 X62.597 Y131.058 E87.08792
G1 X62.197 Y131.451 E87.11124
G1 X62.197 Y157.136 E88.17909
G1 X61.797 Y156.612 E88.20650
G1 X61.797 Y131.975 E89.23077
G0 X75.397 Y159.626 F7200
G1 X75.397 Y40.505 E94.18322 F2400
G1 X75.797 Y40.505 E94.19985
G1 X75.797 Y159.626 E99.15230
G1 X76.197 Y159.626 E99.16893
G1 X76.197 Y40.505 E104.12138
G1 X76.597 Y40.505 E104.13801
G1 X76.597 Y159.626 E109.09045
G1 X76.997 Y159.626 E109.10709
G1 X76.997 Y40.505 E114.05953
G1 X77.397 Y40.505 E114.07616
G1 X77.397 Y159.626 E119.02861
G1 X77.797 Y159.626 E119.04524
G1 X77.797 Y40.505 E123.99769
G1 X78.197 Y40.505 E124.01432
G1 X78.197 Y159.626 E128.96677
G1 X78.597 Y159.626 E128.98340
G1 X78.597 Y40.505 E133.93585
G1 X78.997 Y40.505 E133.95248
G1 X78.997 Y159.626 E138.90494
G1 X79.397 Y159.626 E138.92157
G1 X79.397 Y40.505 E143.87402
G1 X79.797 Y40.505 E143.89066
G1 X79.797 Y159.626 E148.84311
G1 X80.197 Y159.626 E148.85974
G1 X80.197 Y40.505 E153.81219
G1 X80.597 Y40.505 E153.82883
G1 X80.597 Y159.626 E158.78128
G1 X80.997 Y159.626 E158.79791
G1 X80.997 Y40.505 E163.75037
G1 X81.397 Y40.505 E163.76700
G1 X81.397 Y159.626 E168.71946
G1 X81.797 Y159.626 E168.73608
G1 X81.797 Y40.505 E173.68854
G1 X82.197 Y40.505 E173.70516
G1 X82.197 Y159.626 E178.65762
G1 X82.597 Y159.626 E178.67426
G1 X82.597 Y40.505 E183.62670
G1 X82.997 Y40.505 E183.64334
G1 X82.997 Y159.626 E188.59580
G1 X83.397 Y159.626 E188.61242
G1 X83.397 Y40.505 E193.56488
G1 X83.797 Y40.505 E193.58152
G1 X83.797 Y159.626 E198.53396
G1 X84.197 Y159.626 E198.55060
G1 X84.197 Y40.505 E203.50306
G1 X84.597 Y40.505 E203.51968
G1 X84.597 Y159.626 E208.47214
G1 X84.997 Y159.626 E208.48876
G1 X84.997 Y40.505 E213.44122
G1 X85.397 Y40.505 E213.45786
G1 X85.397 Y159.626 E218.41030
G1 X85.797 Y159.626 E218.42694
G1 X85.797 Y40.505 E223.37940
G1 X86.197 Y40.505 E223.39602
G1 X86.197 Y159.626 E228.34848
G1 X86.597 Y159.626 E228.36512
G1 X86.597 Y40.505 E233.31756
G1 X86.997 Y40.505 E233.33420
G1 X86.997 Y159.626 E238.28666
G1 X87.397 Y159.626 E238.30328
G1 X87.397 Y40.505 E243.25574
G1 X87.797 Y40.505 E243.27236
G1 X87.797 Y159.626 E248.22482
G1 X88.197 Y159.626 E248.24146
G1 X88.197 Y40.505 E253.19390
G1 X88.597 Y40.505 E253.21054
G1 X88.597 Y159.626 E258.16300
G1 X88.997 Y159.626 E258.17962
G1 X88.997 Y40.505 E263.13208
G1 X89.397 Y40.505 E263.14872
G1 X89.397 Y159.626 E268.10116
G1 X89.797 Y159.626 E268.11780
G1 X89.797 Y40.505 E273.07026
G1 X90.197 Y40.505 E273.08688
G1 X90.197 Y159.626 E278.03934
G1 X90.597 Y159.626 E278.05596
G1 X90.597 Y40.505 E283.00842
G1 X90.997 Y40.505 E283.02506
G1 X90.997 Y159.626 E287.97750
G1 X91.397 Y159.626 E287.99414
G1 X91.397 Y40.505 E292.94660
G1 X91.797 Y40.505 E292.96322
G1 X91.797 Y159.626 E297.91568
G1 X92.197 Y159.626 E297.93232
G1 X92.197 Y40.505 E302.88476
G1 X92.597 Y40.505 E302.90140
G1 X92.597 Y159.626 E307.85386
G1 X92.997 Y159.626 E307.87048
G1 X92.997 Y40.505 E312.82294
G1 X93.397 Y40.505 E312.83956
G1 X93.397 Y159.626 E317.79202
G1 X93.797 Y159.626 E317.80866
G1 X93.797 Y40.505 E322.76110
G1 X94.197 Y40.505 E322.77774
G1 X94.197 Y159.626 E327.73020
G1 X94.597 Y159.626 E327.74682
G1 X94.597 Y40.505 E332.69928
G1 X94.997 Y40.505 E332.71592
G1 X94.997 Y159.626 E337.66836
G1 X95.397 Y159.626 E337.68500
G1 X95.397 Y40.505 E342.63744
G1 X95.797 Y40.505 E342.65408
G1 X95.797 Y159.626 E347.60652
G1 X96.197 Y159.626 E347.62316
G1 X96.197 Y40.505 E352.57564
G1 X96.597 Y40.505 E352.59224
G1 X96.597 Y159.626 E357.54472
G1 X96.997 Y159.626 E357.56136
G1 X96.997 Y40.505 E362.51380
G1 X97.397 Y40.505 E362.53044
G1 X97.397 Y159.626 E367.48288
G1 X97.797 Y159.626 E367.49952
G1 X97.797 Y40.505 E372.45196
G1 X98.197 Y40.505 E372.46860
G1 X98.197 Y159.626 E377.42104
G1 X98.597 Y159.626 E377.43768
G1 X98.597 Y40.505 E382.39012
G1 X98.997 Y40.505 E382.40676
G1 X98.997 Y159.626 E387.35924
G1 X99.397 Y159.626 E387.37584
G1 X99.397 Y40.505 E392.32832
G1 X99.797 Y40.505 E392.34496
G1 X99.797 Y159.626 E397.29740
G1 X100.197 Y159.626 E397.31404
G1 X100.197 Y40.505 E402.26648
G1 X100.597 Y40.505 E402.28312
G1 X100.597 Y159.626 E407.23556
G1 X100.997 Y159.626 E407.25220
G1 X100.997 Y40.505 E412.20464
G1 X101.397 Y40.505 E412.22128
G1 X101.397 Y159.626 E417.17372
G1 X101.797 Y159.626 E417.19036
G1 X101.797 Y40.505 E422.14284
G1 X102.197 Y40.505 E422.15944
G1 X102.197 Y159.626 E427.11192
G1 X102.597 Y159.626 E427.12856
G1 X102.597 Y40.505 E432.08100
G1 X102.997 Y40.505 E432.09764
G1 X102.997 Y159.626 E437.05008
G1 X103.397 Y159.626 E437.06672
G1 X103.397 Y40.505 E442.01916
G1 X103.797 Y40.505 E442.03580
G1 X103.797 Y159.626 E446.98824
G1 X104.197 Y159.626 E447.00488
G1 X104.197 Y40.505 E451.95732
G1 X104.597 Y40.505 E451.97396
G1 X104.597 Y159.626 E456.92644
G1 X104.997 Y159.626 E456.94304
G1 X104.997 Y40.505 E461.89552
G1 X105.397 Y40.505 E461.91212
G1 X105.397 Y159.626 E466.86460
G1 X105.797 Y159.626 E466.88124
G1 X105.797 Y40.505 E471.83368
G1 X106.197 Y40.505 E471.85032
G1 X106.197 Y159.626 E476.80276
G1 X106.597 Y159.626 E476.81940
G1 X106.597 Y40.505 E481.77184
G1 X106.997 Y40.505 E481.78848
G1 X106.997 Y159.626 E486.74092
G1 X107.397 Y159.626 E486.75756
G1 X107.397 Y40.505 E491.71004
G1 X107.797 Y40.505 E491.72664
G1 X107.797 Y159.626 E496.67912
G1 X108.197 Y159.626 E496.69572
G1 X108.197 Y40.505 E501.64820
G1 X108.597 Y40.505 E501.66484
G1 X108.597 Y159.626 E506.61728
G1 X108.997 Y159.626 E506.63392
G1 X108.997 Y40.505 E511.58636
G1 X109.397 Y40.505 E511.60300
G1 X109.397 Y159.626 E516.55540
G1 X109.797 Y159.626 E516.57204
G1 X109.797 Y40.505 E521.52448
G1 X110.197 Y40.505 E521.54108
G1 X110.197 Y159.626 E526.49352
G1 X110.597 Y159.626 E526.51012
G1 X110.597 Y40.505 E531.46260
G1 X110.997 Y40.505 E531.47920
G1 X110.997 Y159.626 E536.43164
G1 X111.397 Y159.626 E536.44824
G1 X111.397 Y40.505 E541.40068
G1 X111.797 Y40.505 E541.41728
G1 X111.797 Y159.626 E546.36976
G1 X112.197 Y159.626 E546.38636
G1 X112.197 Y40.505 E551.33880
G1 X112.597 Y40.505 E551.35540
G1 X112.597 Y159.626 E556.30788
G1 X112.997 Y159.626 E556.32448
G1 X112.997 Y40.505 E561.27692
G1 X113.397 Y40.505 E561.29352
G1 X113.397 Y159.626 E566.24596
G1 X113.797 Y159.626 E566.26256
G1 X113.797 Y40.505 E571.21504
G1 X114.197 Y40.505 E571.23164
G1 X114.197 Y159.626 E576.18408
G1 X114.597 Y159.626 E576.20068
G1 X114.597 Y40.505 E581.15312
G1 X114.997 Y40.505 E581.16972
G1 X114.997 Y159.626 E586.12220
G1 X115.397 Y159.626 E586.13880
G1 X115.397 Y40.505 E591.09124
G1 X115.797 Y40.505 E591.10784
G1 X115.797 Y159.626 E596.06032
G1 X116.197 Y159.626 E596.07692
G1 X116.197 Y40.505 E601.02936
G1 X116.597 Y40.505 E601.04596
G1 X116.597 Y159.626 E605.99840
G1 X116.997 Y159.626 E606.01500
G1 X116.997 Y40.505 E610.96748
G1 X117.397 Y40.505 E610.98408
G1 X117.397 Y159.626 E615.93652
G1 X117.797 Y159.626 E615.95312
G1 X117.797 Y40.505 E620.90556
G1 X118.197 Y40.505 E620.92220
G1 X118.197 Y159.626 E625.87464
G1 X118.597 Y159.626 E625.89124
G1 X118.597 Y40.505 E630.84368
G1 X118.997 Y40.505 E630.86028
G1 X118.997 Y75.101 E632.29864
G1 X119.397 Y75.101 E632.31524
G1 X119.397 Y40.505 E633.75360
G1 X119.797 Y40.505 E633.77020
G1 X119.797 Y75.101 E635.20856
G1 X120.197 Y75.101 E635.22516
G1 X120.197 Y40.505 E636.66352
G1 X120.597 Y40.505 E636.68012
G1 X120.597 Y75.101 E638.11848
G1 X120.997 Y75.101 E638.13508
G1 X120.997 Y40.505 E639.57344
G1 X121.397 Y40.505 E639.59004
G1 X121.397 Y75.101 E641.02840
G1 X121.797 Y75.101 E641.04500
G1 X121.797 Y40.505 E642.48332
G1 X122.197 Y40.505 E642.49992
G1 X122.197 Y75.101 E643.93828
G1 X122.597 Y75.101 E643.95488
G1 X122.597 Y40.505 E645.39324
G1 X122.997 Y40.505 E645.40984
G1 X122.997 Y75.101 E646.84820
G1 X123.397 Y75.101 E646.86480
G1 X123.397 Y40.505 E648.30316
G1 X123.797 Y40.505 E648.31976
G1 X123.797 Y75.101 E649.75812
G1 X124.197 Y75.101 E649.77472
G1 X124.197 Y40.636 E651.20760
G1 X124.597 Y41.030 E651.23088
G1 X124.597 Y75.101 E652.64748
G1 X124.997 Y75.101 E652.66408
G1 X124.997 Y41.423 E654.06428
G1 X125.397 Y41.816 E654.08760
G1 X125.397 Y75.101 E655.47144
G1 X125.797 Y75.101 E655.48804
G1 X125.797 Y42.340 E656.85008
G1 X126.197 Y42.733 E656.87340
G1 X126.197 Y75.101 E658.21912
G1 X126.597 Y75.101 E658.23572
G1 X126.597 Y43.126 E659.56508
G0 X126.997 Y50.203 F7200
G1 X126.997 Y75.101 E660.60020 F2400
G1 X127.397 Y75.101 E660.61684
G1 X127.397 Y50.203 E661.65196
G1 X127.797 Y50.203 E661.66856
G1 X127.797 Y75.101 E662.70372
G1 X128.197 Y75.101 E662.72032
G1 X128.197 Y50.203 E663.75548
G1 X128.597 Y50.203 E663.77208
G1 X128.597 Y75.101 E664.80724
G1 X128.997 Y75.101 E664.82384
G1 X128.997 Y50.203 E665.85900
G1 X129.397 Y50.203 E665.87560
G1 X129.397 Y75.101 E666.91076
G1 X129.797 Y75.101 E666.92736
G1 X129.797 Y50.203 E667.96252
G1 X130.197 Y50.203 E667.97912
G1 X130.197 Y75.101 E669.01428
G1 X130.597 Y75.101 E669.03088
G1 X130.597 Y50.203 E670.06604
G1 X130.997 Y50.203 E670.08264
G1 X130.997 Y75.101 E671.11776
G1 X131.397 Y75.101 E671.13440
G1 X131.397 Y50.203 E672.16952
G1 X131.797 Y50.203 E672.18616
G1 X131.797 Y75.101 E673.22128
G1 X132.197 Y75.101 E673.23792
G1 X132.197 Y50.203 E674.27304
G1 X132.597 Y50.203 E674.28968
G1 X132.597 Y75.101 E675.32480
G1 X132.997 Y75.101 E675.34144
G1 X132.997 Y50.203 E676.37656
G1 X133.397 Y50.203 E676.39320
G1 X133.397 Y75.101 E677.42832
G1 X133.797 Y75.101 E677.44496
G1 X133.797 Y50.203 E678.48008
G1 X134.197 Y50.203 E678.49672
G1 X134.197 Y75.101 E679.53184
G1 X134.597 Y75.101 E679.54848
G1 X134.597 Y50.203 E680.58360
G1 X134.997 Y50.203 E680.60024
G1 X134.997 Y75.101 E681.63536
G1 X135.397 Y75.101 E681.65200
G1 X135.397 Y50.203 E682.68712
G1 X135.797 Y50.203 E682.70376
G1 X135.797 Y75.101 E683.73888
G1 X136.197 Y75.101 E683.75552
G1 X136.197 Y50.203 E684.79064
G1 X136.597 Y50.203 E684.80728
G1 X136.597 Y75.101 E685.84240
G1 X136.997 Y75.101 E685.85904
G1 X136.997 Y50.203 E686.89416
G1 X137.397 Y50.203 E686.91080
G1 X137.397 Y75.101 E687.94592
G1 X137.797 Y75.101 E687.96256
G1 X137.797 Y50.203 E688.99768
G1 X138.197 Y50.203 E689.01432
G1 X138.197 Y75.101 E690.04944
G1 X138.597 Y75.101 E690.06608
G1 X138.597 Y50.203 E691.10120
G1 X138.997 Y50.203 E691.11776
G1 X138.997 Y75.101 E692.15296
G1 X139.397 Y75.101 E692.16952
G1 X139.397 Y50.203 E693.20472
G1 X139.797 Y50.203 E693.22128
G1 X139.797 Y75.101 E694.25648
G1 X140.197 Y75.101 E694.27304
G1 X140.197 Y50.203 E695.30824
G1 X140.597 Y50.203 E695.32480
G1 X140.597 Y75.101 E696.36000
G1 X140.997 Y75.101 E696.37656
G1 X140.997 Y50.203 E697.41176
G1 X141.397 Y50.203 E697.42832
G1 X141.397 Y75.101 E698.46352
G1 X141.797 Y75.101 E698.48008
G1 X141.797 Y50.203 E699.51528
G1 X142.197 Y50.203 E699.53184
G1 X142.197 Y75.101 E700.56704
G1 X142.597 Y75.101 E700.58360
G1 X142.597 Y50.203 E701.61880
G1 X142.997 Y50.203 E701.63536
G1 X142.997 Y75.101 E702.67056
G1 X143.397 Y75.101 E702.68712
G1 X143.397 Y50.203 E703.72232
G1 X143.797 Y50.203 E703.73888
G1 X143.797 Y75.101 E704.77408
G1 X144.197 Y75.101 E704.79064
G1 X144.197 Y50.203 E705.82584
G1 X144.597 Y50.203 E705.84240
G1 X144.597 Y75.101 E706.87760
G1 X144.997 Y75.101 E706.89416
G1 X144.997 Y50.203 E707.92936
G1 X145.397 Y50.203 E707.94592
G1 X145.397 Y75.101 E708.98104
G1 X145.797 Y75.101 E708.99768
G1 X145.797 Y50.203 E710.03280
G1 X146.197 Y50.203 E710.04944
G1 X146.197 Y75.101 E711.08456
G1 X146.597 Y75.101 E711.10120
G1 X146.597 Y50.203 E712.13632
G1 X146.997 Y50.203 E712.15296
G1 X146.997 Y75.101 E713.18808
G1 X147.397 Y75.101 E713.20472
G1 X147.397 Y50.203 E714.23984
G1 X147.797 Y50.203 E714.25648
G1 X147.797 Y75.101 E715.29160
G1 X148.197 Y75.101 E715.30824
G1 X148.197 Y50.203 E716.34336
G1 X148.597 Y50.203 E716.36000
G1 X148.597 Y75.101 E717.39512
G1 X148.997 Y75.101 E717.41176
G1 X148.997 Y50.203 E718.44688
G1 X149.397 Y50.203 E718.46352
G1 X149.397 Y75.101 E719.49864
G1 X149.797 Y75.101 E719.51528
G1 X149.797 Y50.203 E720.55040
G1 X150.197 Y50.203 E720.56704
G1 X150.197 Y75.101 E721.60216
G1 X150.597 Y75.101 E721.61880
G1 X150.597 Y50.203 E722.65392
G1 X150.997 Y50.203 E722.67056
G1 X150.997 Y75.101 E723.70568
G1 X151.397 Y75.101 E723.72232
G1 X151.397 Y50.203 E724.75744
G1 X151.797 Y50.203 E724.77408
G1 X151.797 Y75.101 E725.80920
G1 X152.197 Y75.101 E725.82584
G1 X152.197 Y50.203 E726.86096
G1 X152.597 Y50.203 E726.87760
G1 X152.597 Y75.101 E727.91272
G1 X152.997 Y75.101 E727.92936
G1 X152.997 Y50.203 E728.96448
G1 X153.397 Y50.203 E728.98104
G1 X153.397 Y75.101 E730.01624
G1 X153.797 Y75.101 E730.03280
G1 X153.797 Y50.203 E731.06800
G1 X154.197 Y50.203 E731.08456
G1 X154.197 Y75.101 E732.11976
G1 X154.597 Y75.101 E732.13632
G1 X154.597 Y50.203 E733.17152
G1 X154.997 Y50.203 E733.18808
G1 X154.997 Y75.101 E734.22328
G1 X155.397 Y75.101 E734.23984
G1 X155.397 Y50.203 E735.27504
G1 X155.797 Y50.203 E735.29160
G1 X155.797 Y75.101 E736.32680
G1 X156.197 Y75.101 E736.34336
G1 X156.197 Y50.203 E737.37856
G1 X156.597 Y50.203 E737.39512
G1 X156.597 Y75.101 E738.43032
G1 X156.997 Y75.101 E738.44688
G1 X156.997 Y50.203 E739.48208
G1 X157.397 Y50.203 E739.49864
G1 X157.397 Y75.101 E740.53384
G1 X157.797 Y75.101 E740.55040
G1 X157.797 Y50.203 E741.58560
G1 X158.197 Y50.203 E741.60216
G1 X158.197 Y75.101 E742.63736
G1 X158.597 Y75.101 E742.65392
G1 X158.597 Y50.203 E743.68912
G1 X158.997 Y50.203 E743.70568
G1 X158.997 Y75.101 E744.74088
G1 X159.397 Y75.101 E744.75744
G1 X159.397 Y50.203 E745.79264
G1 X159.797 Y50.203 E745.80920
G1 X159.797 Y75.101 E746.84440
G1 X160.197 Y75.101 E746.86096
G1 X160.197 Y50.203 E747.89608
G1 X160.597 Y50.203 E747.91272
G1 X160.597 Y75.101 E748.94784
G1 X160.997 Y75.101 E748.96448
G1 X160.997 Y50.203 E749.99960
G1 X161.397 Y50.203 E750.01624
G1 X161.397 Y75.101 E751.05136
G1 X161.797 Y75.101 E751.06800
G1 X161.797 Y50.203 E752.10312
G1 X162.197 Y50.203 E752.11976
G1 X162.197 Y75.101 E753.15488
G1 X162.597 Y75.101 E753.17152
G1 X162.597 Y50.203 E754.20664
G1 X162.997 Y50.203 E754.22328
G1 X162.997 Y75.101 E755.25840
G1 X163.397 Y75.101 E755.27504
G1 X163.397 Y50.203 E756.31016
G1 X163.797 Y50.203 E756.32680
G1 X163.797 Y75.101 E757.36192
G1 X164.197 Y75.101 E757.37856
G1 X164.197 Y50.203 E758.41368
G1 X164.597 Y50.203 E758.43032
G1 X164.597 Y75.101 E759.46544
G1 X164.997 Y75.101 E759.48208
G1 X164.997 Y50.203 E760.51720
G1 X165.397 Y50.203 E760.53384
G1 X165.397 Y75.101 E761.56896
G1 X165.797 Y75.101 E761.58560
G1 X165.797 Y50.203 E762.62072
G1 X166.197 Y50.203 E762.63736
G1 X166.197 Y75.101 E763.67248
G1 X166.597 Y75.101 E763.68912
G1 X166.597 Y50.203 E764.72424
G1 X166.997 Y50.203 E764.74088
G1 X166.997 Y75.101 E765.77600
G1 X167.397 Y75.101 E765.79264
G1 X167.397 Y50.203 E766.82776
G1 X167.797 Y50.203 E766.84440
G1 X167.797 Y75.101 E767.87952
G1 X168.197 Y75.101 E767.89608
G1 X168.197 Y50.203 E768.93128
G1 X168.597 Y50.203 E768.94784
G1 X168.597 Y75.101 E769.98304
G1 X168.997 Y75.101 E769.99960
G1 X168.997 Y50.203 E771.03480
G1 X169.397 Y50.203 E771.05136
G1 X169.397 Y75.101 E772.08656
G1 X169.797 Y75.101 E772.10312
G1 X169.797 Y50.203 E773.13832
G1 X170.197 Y50.203 E773.15488
G1 X170.197 Y75.101 E774.19008
G1 X170.597 Y75.101 E774.20664
G1 X170.597 Y50.203 E775.24184
G1 X170.997 Y50.203 E775.25840
G1 X170.997 Y75.101 E776.29360
G1 X171.397 Y75.101 E776.31016
G1 X171.397 Y50.203 E777.34536
G1 X171.797 Y50.203 E777.36192
G1 X171.797 Y75.101 E778.39712
G1 X172.197 Y75.101 E778.41368
G1 X172.197 Y50.203 E779.44888
G1 X172.597 Y50.203 E779.46544
G1 X172.597 Y75.101 E780.50064
G1 X172.997 Y75.101 E780.51720
G1 X172.997 Y50.203 E781.55240
G1 X173.397 Y50.203 E781.56896
G1 X173.397 Y75.101 E782.60416
G1 X173.797 Y75.101 E782.62072
G1 X173.797 Y50.203 E783.65592
G1 X174.197 Y50.203 E783.67248
G1 X174.197 Y75.101 E784.70768
G1 X174.597 Y75.101 E784.72424
G1 X174.597 Y50.203 E785.75936
G1 X174.997 Y50.203 E785.77600
G1 X174.997 Y75.101 E786.81112
G1 X175.397 Y75.101 E786.82776
G1 X175.397 Y50.203 E787.86288
G1 X175.797 Y50.203 E787.87952
G1 X175.797 Y75.101 E788.91464
G1 X176.197 Y75.101 E788.93128
G1 X176.197 Y50.203 E789.96640
G1 X176.597 Y50.203 E789.98304
G1 X176.597 Y75.101 E791.01816
G1 X176.997 Y75.101 E791.03480
G1 X176.997 Y50.203 E792.06992
G1 X177.397 Y50.203 E792.08656
G1 X177.397 Y75.101 E793.12168
G1 X177.797 Y75.101 E793.13832
G1 X177.797 Y50.203 E794.17344
G1 X178.197 Y50.203 E794.19008
G1 X178.197 Y75.101 E795.22520
G1 X178.597 Y75.101 E795.24184
G1 X178.597 Y50.203 E796.27696
G1 X178.997 Y50.203 E796.29360
G1 X178.997 Y75.101 E797.32872
G1 X179.397 Y75.101 E797.34536
G1 X179.397 Y50.203 E798.38048
G1 X179.797 Y50.203 E798.39712
G1 X179.797 Y75.101 E799.43224
G1 X180.197 Y75.101 E799.44888
G1 X180.197 Y50.203 E800.48400
G1 X180.597 Y50.203 E800.50064
G1 X180.597 Y75.101 E801.53576
G1 X180.997 Y75.101 E801.55240
G1 X180.997 Y50.203 E802.58752
G1 X181.397 Y50.203 E802.60416
G1 X181.397 Y75.101 E803.63928
G1 X181.797 Y75.101 E803.65592
G1 X181.797 Y50.203 E804.69104
G1 X182.197 Y50.203 E804.70768
G1 X182.197 Y75.101 E805.74280
G1 X182.597 Y75.101 E805.75936
G1 X182.597 Y50.203 E806.79456
G1 X182.997 Y50.203 E806.81112
G1 X182.997 Y75.101 E807.84632
G1 X183.397 Y75.101 E807.86288
G1 X183.397 Y50.203 E808.89808
G1 X183.797 Y50.203 E808.91464
G1 X183.797 Y75.101 E809.94984
G1 X184.197 Y75.101 E809.96640
G1 X184.197 Y50.203 E811.00160
G1 X184.597 Y50.203 E811.01816
G1 X184.597 Y75.101 E812.05336
G1 X184.997 Y75.101 E812.06992
G1 X184.997 Y50.203 E813.10512
G1 X185.397 Y50.203 E813.12168
G1 X185.397 Y75.101 E814.15688
G1 X185.797 Y75.101 E814.17344
G1 X185.797 Y50.203 E815.20864
G1 X186.197 Y50.203 E815.22520
G1 X186.197 Y75.101 E816.26040
G1 X186.597 Y75.101 E816.27696
G1 X186.597 Y50.203 E817.31216
G1 X186.997 Y50.203 E817.32872
G1 X186.997 Y75.101 E818.36392
G1 X187.397 Y75.101 E818.38048
G1 X187.397 Y50.203 E819.41568
G1 X187.797 Y50.203 E819.43224
G1 X187.797 Y75.101 E820.46744
G1 X188.197 Y75.101 E820.48400
G1 X188.197 Y50.203 E821.51920
G1 X188.597 Y50.203 E821.53576
G1 X188.597 Y75.101 E822.57096
G1 X188.997 Y75.101 E822.58752
G1 X188.997 Y50.203 E823.62272
G1 X189.397 Y50.203 E823.63928
G1 X189.397 Y75.101 E824.67440
G1 X189.797 Y75.101 E824.69104
G1 X189.797 Y50.203 E825.72616
G1 X190.197 Y50.203 E825.74280
G1 X190.197 Y75.101 E826.77792
G1 X190.597 Y75.101 E826.79456
G1 X190.597 Y50.203 E827.82968
G1 X190.997 Y50.203 E827.84632
G1 X190.997 Y75.101 E828.88144
G1 X191.397 Y75.101 E828.89808
G1 X191.397 Y50.203 E829.93320
G1 X191.797 Y50.203 E829.94984
G1 X191.797 Y75.101 E830.98496
G1 X192.197 Y75.101 E831.00160
G1 X192.197 Y50.203 E832.03672
G1 X192.597 Y50.203 E832.05336
G1 X192.597 Y75.101 E833.08848
G1 X192.997 Y75.101 E833.10512
G1 X192.997 Y50.203 E834.14024
G1 X193.397 Y50.203 E834.15688
G1 X193.397 Y75.101 E835.19200
G1 X193.797 Y75.101 E835.20864
G1 X193.797 Y50.203 E836.24376
G1 X194.197 Y50.203 E836.26040
G1 X194.197 Y75.101 E837.29552
G1 X194.597 Y75.101 E837.31216
G1 X194.597 Y50.203 E838.34728
G1 X194.997 Y50.203 E838.36392
G1 X194.997 Y75.101 E839.39904
G1 X195.397 Y75.101 E839.41568
G1 X195.397 Y50.203 E840.45080
G1 X195.797 Y50.203 E840.46744
G1 X195.797 Y75.101 E841.50256
G1 X196.197 Y75.101 E841.51920
G1 X196.197 Y50.203 E842.55432
G1 X196.597 Y50.203 E842.57096
G1 X196.597 Y75.101 E843.60608
G1 X196.997 Y75.101 E843.62272
G1 X196.997 Y50.203 E844.65784
G1 X197.397 Y50.203 E844.67440
G1 X197.397 Y75.101 E845.70960
G1 X197.797 Y75.101 E845.72616
G1 X197.797 Y50.203 E846.76136
G1 X198.197 Y50.203 E846.77792
G1 X198.197 Y75.101 E847.81312
G1 X198.597 Y75.101 E847.82968
G1 X198.597 Y50.203 E848.86488
G1 X198.997 Y50.203 E848.88144
G1 X198.997 Y75.101 E849.91664
G1 X199.397 Y75.101 E849.93320
G1 X199.397 Y50.203 E850.96840
G1 X199.797 Y50.203 E850.98496
G1 X199.797 Y75.101 E852.02016
G1 X200.197 Y75.101 E852.03672
G1 X200.197 Y50.203 E853.07192
G1 X200.597 Y50.203 E853.08848
G1 X200.597 Y75.101 E854.12368
G1 X200.997 Y75.101 E854.14024
G1 X200.997 Y50.203 E855.17544
G1 X201.397 Y50.203 E855.19200
G1 X201.397 Y75.101 E856.22720
G1 X201.797 Y75.101 E856.24376
G1 X201.797 Y50.203 E857.27896
G1 X202.197 Y50.203 E857.29552
G1 X202.197 Y75.101 E858.33072
G1 X202.597 Y75.101 E858.34728
G1 X202.597 Y50.203 E859.38248
G1 X202.997 Y50.203 E859.39904
G1 X202.997 Y75.101 E860.43424
G1 X203.397 Y75.101 E860.45080
G1 X203.397 Y50.203 E861.48600
G1 X203.797 Y50.203 E861.50256
G1 X203.797 Y75.101 E862.53768
G1 X204.197 Y75.101 E862.55432
G1 X204.197 Y50.203 E863.58944
G1 X204.597 Y50.203 E863.60608
G1 X204.597 Y75.101 E864.64120
G1 X204.997 Y75.101 E864.65784
G1 X204.997 Y50.203 E865.69296
G1 X205.397 Y50.203 E865.70960
G1 X205.397 Y75.101 E866.74472
G1 X205.797 Y75.101 E866.76136
G1 X205.797 Y50.203 E867.79648
G1 X206.197 Y50.203 E867.81312
G1 X206.197 Y75.101 E868.84824
G1 X206.597 Y75.101 E868.86488
G1 X206.597 Y50.203 E869.90000
G1 X206.997 Y50.203 E869.91664
G1 X206.997 Y75.101 E870.95176
G1 X207.397 Y75.101 E870.96840
G1 X207.397 Y50.203 E872.00352
G1 X207.797 Y50.203 E872.02016
G1 X207.797 Y75.101 E873.05528
G1 X208.197 Y75.101 E873.07192
G1 X208.197 Y50.203 E874.10704
G1 X208.597 Y50.203 E874.12368
G1 X208.597 Y75.101 E875.15880
G0 X226.596 Y50.203 F7200
G1 X226.596 Y149.928 E879.30496 F2400
G1 X226.196 Y149.928 E879.32152
G1 X226.196 Y50.203 E883.46768
G1 X225.796 Y50.203 E883.48424
G1 X225.796 Y149.928 E887.63040
G1 X225.396 Y149.928 E887.64696
G1 X225.396 Y50.203 E891.79312
G1 X224.996 Y50.203 E891.80968
G1 X224.996 Y149.928 E895.95584
G1 X224.596 Y149.928 E895.97240
G1 X224.596 Y50.203 E900.11856
G1 X224.196 Y50.203 E900.13512
G1 X224.196 Y149.928 E904.28128
G1 X223.796 Y149.928 E904.29784
G1 X223.796 Y50.203 E908.44400
G1 X223.396 Y50.203 E908.46056
G1 X223.396 Y149.928 E912.60672
G1 X222.996 Y149.928 E912.62328
G1 X222.996 Y50.203 E916.76944
G1 X222.596 Y50.203 E916.78600
G1 X222.596 Y149.928 E920.93216
G1 X222.196 Y149.928 E920.94872
G1 X222.196 Y50.203 E925.09488
G1 X221.796 Y50.203 E925.11144
G1 X221.796 Y149.928 E929.25760
G1 X221.396 Y149.928 E929.27416
G1 X221.396 Y50.203 E933.42032
G1 X220.996 Y50.203 E933.43688
G1 X220.996 Y149.928 E937.58304
G1 X220.596 Y149.928 E937.59960
G1 X220.596 Y50.203 E941.74576
G1 X220.196 Y50.203 E941.76232
G1 X220.196 Y149.928 E945.90848
G1 X219.796 Y149.928 E945.92504
G1 X219.796 Y50.203 E950.07120
G1 X219.396 Y50.203 E950.08776
G1 X219.396 Y149.928 E954.23392
G1 X218.996 Y149.928 E954.25048
G1 X218.996 Y50.203 E958.39664
G1 X218.597 Y50.203 E958.41320
G1 X218.597 Y149.928 E962.55936
G1 X218.196 Y149.928 E962.57592
G1 X218.196 Y50.203 E966.72208
G1 X217.796 Y50.203 E966.73864
G1 X217.796 Y149.928 E970.88480
G1 X217.396 Y149.928 E970.90136
G1 X217.396 Y50.203 E975.04752
G1 X216.996 Y50.203 E975.06408
G1 X216.996 Y149.928 E979.21024
G1 X216.597 Y149.928 E979.22680
G1 X216.597 Y50.203 E983.37296
G1 X216.197 Y50.203 E983.38952
G1 X216.197 Y149.928 E987.53568
G1 X215.796 Y149.928 E987.55224
G1 X215.796 Y50.203 E991.69840
G1 X215.396 Y50.203 E991.71496
G1 X215.396 Y149.928 E995.86112
G1 X214.996 Y149.928 E995.87768
G1 X214.996 Y50.203 E1000.02384
G1 X214.597 Y50.203 E1000.04040
G1 X214.597 Y149.928 E1004.18656
G1 X214.197 Y149.928 E1004.20312
G1 X214.197 Y50.203 E1008.34928
G1 X213.797 Y50.203 E1008.36584
G1 X213.797 Y149.928 E1012.51200
G1 X213.396 Y149.928 E1012.52856
G1 X213.396 Y50.203 E1016.67472
G1 X212.996 Y50.203 E1016.69128
G1 X212.996 Y149.928 E1020.83744
G1 X212.597 Y149.928 E1020.85400
G1 X212.597 Y50.203 E1025.00016
G1 X212.197 Y50.203 E1025.01672
G1 X212.197 Y149.928 E1029.16288
G1 X211.797 Y149.928 E1029.17944
G1 X211.797 Y50.203 E1033.32560
G1 X211.396 Y50.203 E1033.34216
G1 X211.396 Y149.928 E1037.48832
G1 X210.996 Y149.928 E1037.50488
G1 X210.996 Y50.203 E1041.65104
G1 X210.597 Y50.203 E1041.66760
G1 X210.597 Y149.928 E1045.81376
G1 X210.197 Y149.928 E1045.83032
G1 X210.197 Y50.203 E1049.97648
G1 X209.797 Y50.203 E1049.99304
G1 X209.797 Y149.928 E1054.13920
G1 X209.397 Y149.928 E1054.15576
G1 X209.397 Y50.203 E1058.30184
G1 X208.996 Y50.203 E1058.31848
G1 X208.996 Y149.928 E1062.46456
G0 X226.996 Y157.267 F7200
G1 X226.996 Y42.995 E1067.21544 F2400
G1 X227.396 Y42.602 E1067.23880
G1 X227.396 Y157.660 E1072.02232
G1 X227.796 Y158.053 E1072.04568
G1 X227.796 Y42.209 E1076.86192
G1 X228.196 Y41.816 E1076.88528
G1 X228.196 Y158.446 E1081.73416
G1 X228.596 Y158.839 E1081.75744
G1 X228.596 Y41.423 E1086.63904
G1 X228.996 Y41.030 E1086.66232
G1 X228.996 Y159.233 E1091.57664
G1 X229.396 Y159.626 E1091.60000
G1 X229.396 Y40.636 E1096.54696
G1 X229.796 Y40.505 E1096.56448
G1 X229.796 Y159.626 E1101.51688
G1 X230.196 Y159.626 E1101.53344
G1 X230.196 Y40.505 E1106.48584
G1 X230.596 Y40.505 E1106.50248
G1 X230.596 Y159.626 E1111.45480
G1 X230.996 Y159.626 E1111.47144
G1 X230.996 Y40.505 E1116.42384
G1 X231.396 Y40.505 E1116.44040
G1 X231.396 Y159.626 E1121.39280
G1 X231.796 Y159.626 E1121.40944
G1 X231.796 Y40.505 E1126.36184
G1 X232.196 Y40.505 E1126.37840
G1 X232.196 Y159.626 E1131.33080
G1 X232.596 Y159.626 E1131.34744
G1 X232.596 Y40.505 E1136.29984
G1 X232.996 Y40.505 E1136.31640
G1 X232.996 Y159.626 E1141.26880
G1 X233.396 Y159.626 E1141.28544
G1 X233.396 Y40.505 E1146.23776
G1 X233.796 Y40.505 E1146.25440
G1 X233.796 Y159.626 E1151.20680
G1 X234.196 Y159.626 E1151.22336
G1 X234.196 Y40.505 E1156.17576
G1 X234.596 Y40.505 E1156.19240
G1 X234.596 Y159.626 E1161.14480
G1 X234.996 Y159.626 E1161.16136
G1 X234.996 Y40.505 E1166.11376
G1 X235.396 Y40.505 E1166.13040
G1 X235.396 Y159.626 E1171.08280
G1 X235.796 Y159.626 E1171.09936
G1 X235.796 Y40.505 E1176.05176
G1 X236.196 Y40.505 E1176.06832
G1 X236.196 Y159.626 E1181.02072
G1 X236.596 Y159.626 E1181.03736
G1 X236.596 Y40.505 E1185.98976
G1 X236.996 Y40.505 E1186.00632
G1 X236.996 Y159.626 E1190.95872
G1 X237.396 Y159.626 E1190.97536
G1 X237.396 Y40.505 E1195.92776
G1 X237.796 Y40.505 E1195.94432
G1 X237.796 Y159.626 E1200.89672
G1 X238.196 Y159.626 E1200.91336
G1 X238.196 Y40.505 E1205.86576
G1 X238.596 Y40.505 E1205.88232
G1 X238.596 Y159.626 E1210.83472
G1 X238.996 Y159.626 E1210.85128
G1 X238.996 Y40.505 E1215.80368
G1 X239.396 Y40.505 E1215.82032
G1 X239.396 Y159.626 E1220.77272
G1 X239.796 Y159.626 E1220.78928
G1 X239.796 Y40.505 E1225.74168
G1 X240.196 Y40.505 E1225.75832
G1 X240.196 Y159.626 E1230.71072
G1 X240.596 Y159.626 E1230.72728
G1 X240.596 Y40.505 E1235.67968
G1 X240.996 Y40.505 E1235.69632
G1 X240.996 Y159.626 E1240.64872
G1 X241.396 Y159.626 E1240.66528
G1 X241.396 Y40.505 E1245.61768
G1 X241.796 Y40.505 E1245.63424
G1 X241.796 Y159.626 E1250.58664
G1 X242.196 Y159.626 E1250.60328
G1 X242.196 Y40.505 E1255.55568
G1 X242.596 Y40.505 E1255.57224
G1 X242.596 Y159.626 E1260.52464
G1 X242.996 Y159.626 E1260.54128
G1 X242.996 Y40.505 E1265.49368
G1 X243.396 Y40.505 E1265.51024
G1 X243.396 Y159.626 E1270.46264
G1 X243.796 Y159.626 E1270.47928
G1 X243.796 Y40.505 E1275.43168
G1 X244.196 Y40.505 E1275.44824
G1 X244.196 Y159.626 E1280.40064
G1 X244.596 Y159.626 E1280.41720
G1 X244.596 Y40.505 E1285.36960
G1 X244.996 Y40.505 E1285.38624
G1 X244.996 Y159.626 E1290.33864
G1 X245.396 Y159.626 E1290.35520
G1 X245.396 Y40.505 E1295.30760
G1 X245.796 Y40.505 E1295.32424
G1 X245.796 Y159.626 E1300.27664
G1 X246.196 Y159.626 E1300.29320
G1 X246.196 Y40.505 E1305.24560
G1 X246.596 Y40.505 E1305.26224
G1 X246.596 Y159.626 E1310.21456
G1 X246.996 Y159.626 E1310.23120
G1 X246.996 Y40.505 E1315.18360
G1 X247.396 Y40.505 E1315.20016
G1 X247.396 Y159.626 E1320.15256
G1 X247.796 Y159.626 E1320.16920
G1 X247.796 Y40.505 E1325.12160
G1 X248.196 Y40.505 E1325.13816
G1 X248.196 Y159.626 E1330.09056
G1 X248.596 Y159.626 E1330.10720
G1 X248.596 Y40.505 E1335.05960
G1 X248.996 Y40.505 E1335.07616
G1 X248.996 Y159.626 E1340.02856
G1 X249.396 Y159.626 E1340.04520
G1 X249.396 Y40.505 E1344.99760
G1 X249.796 Y40.505 E1345.01424
G1 X249.796 Y159.626 E1349.96656
G1 X250.196 Y159.626 E1349.98320
G1 X250.196 Y40.505 E1354.93552
G1 X250.596 Y40.505 E1354.95216
G1 X250.596 Y159.626 E1359.90448
G1 X250.996 Y159.626 E1359.92112
G1 X250.996 Y40.505 E1364.87360
G1 X251.396 Y40.505 E1364.89008
G1 X251.396 Y159.626 E1369.84256
G1 X251.796 Y159.626 E1369.85920
G1 X251.796 Y40.505 E1374.81152
G1 X252.196 Y40.505 E1374.82816
G1 X252.196 Y159.626 E1379.78048
G1 X252.596 Y159.626 E1379.79712
G1 X252.596 Y126.078 E1381.19184
G1 X252.996 Y126.209 E1381.20928
G1 X252.996 Y159.626 E1382.59856
G1 X253.396 Y159.626 E1382.61520
G1 X253.396 Y126.340 E1383.99920
G1 X253.796 Y126.471 E1384.01664
G1 X253.796 Y159.626 E1385.39504
G1 X254.196 Y159.626 E1385.41168
G1 X254.196 Y126.471 E1386.79008
G1 X254.596 Y126.602 E1386.80752
G1 X254.596 Y159.626 E1388.18048
G1 X254.996 Y159.626 E1388.19696
G1 X254.996 Y126.733 E1389.56464
G1 X255.396 Y126.864 E1389.58208
G1 X255.396 Y159.626 E1390.94416
G1 X255.796 Y159.626 E1390.96064
G1 X255.796 Y126.995 E1392.31728
G1 X256.196 Y127.126 E1392.33472
G1 X256.196 Y159.626 E1393.68592
G1 X256.596 Y159.626 E1393.70256
G1 X256.596 Y127.126 E1395.05376
G1 X256.996 Y127.257 E1395.07120
G1 X256.996 Y159.626 E1396.41680
G1 X257.396 Y159.626 E1396.43344
G1 X257.396 Y127.389 E1397.77376
G1 X257.796 Y127.520 E1397.79120
G1 X257.796 Y159.626 E1399.12592
G1 X258.196 Y159.626 E1399.14256
G1 X258.196 Y127.520 E1400.47744
G1 X258.596 Y127.651 E1400.49488
G1 X258.596 Y159.626 E1401.82416
G1 X258.996 Y159.626 E1401.84080
G1 X258.996 Y127.782 E1403.16480
G1 X259.396 Y127.913 E1403.18224
G1 X259.396 Y159.626 E1404.50080
G1 X259.796 Y159.626 E1404.51728
G1 X259.796 Y128.044 E1405.83040
G1 X260.196 Y128.044 E1405.84688
G1 X260.196 Y159.626 E1407.15984
G1 X260.596 Y159.626 E1407.17648
G1 X260.596 Y128.175 E1408.48416
G1 X260.996 Y128.306 E1408.50160
G1 X260.996 Y159.626 E1409.80368
G1 X261.396 Y159.626 E1409.82032
G1 X261.396 Y128.437 E1411.11696
G1 X261.796 Y128.437 E1411.13360
G1 X261.796 Y159.626 E1412.43024
G1 X262.196 Y159.626 E1412.44672
G1 X262.196 Y128.568 E1413.73808
G1 X262.596 Y128.699 E1413.75552
G1 X262.596 Y159.626 E1415.04128
G1 X262.996 Y159.626 E1415.05792
G1 X262.996 Y128.830 E1416.33824
G1 X263.396 Y129.223 E1416.36160
G1 X263.396 Y159.364 E1417.61456
G1 X263.796 Y158.970 E1417.63792
G1 X263.796 Y129.616 E1418.85840
G1 X264.196 Y130.009 E1418.88176
G1 X264.196 Y158.577 E1420.06944
G1 X264.596 Y158.184 E1420.09280
G1 X264.596 Y130.403 E1421.24784
G1 X264.996 Y130.796 E1421.27104
G1 X264.996 Y157.791 E1422.39344
G1 X265.396 Y157.398 E1422.41680
G1 X265.396 Y131.189 E1423.50640
G1 X265.796 Y131.582 E1423.52960
G1 X265.796 Y157.005 E1424.58672
G0 X208.597 Y125.161 F7200
G1 X208.597 Y149.928 E1425.61632 F2400
G1 X208.197 Y149.928 E1425.63296
G1 X208.197 Y125.161 E1426.66256
G1 X207.797 Y125.161 E1426.67920
G1 X207.797 Y149.928 E1427.70880
G1 X207.397 Y149.928 E1427.72544
G1 X207.397 Y125.161 E1428.75520
G1 X206.997 Y125.161 E1428.77168
G1 X206.997 Y149.928 E1429.80144
G1 X206.597 Y149.928 E1429.81792
G1 X206.597 Y125.161 E1430.84768
G1 X206.197 Y125.161 E1430.86432
G1 X206.197 Y149.928 E1431.89392
G1 X205.797 Y149.928 E1431.91056
G1 X205.797 Y125.161 E1432.94016
G1 X205.397 Y125.161 E1432.95680
G1 X205.397 Y149.928 E1433.98640
G1 X204.997 Y149.928 E1434.00304
G1 X204.997 Y125.161 E1435.03264
G1 X204.597 Y125.161 E1435.04928
G1 X204.597 Y149.928 E1436.07904
G1 X204.197 Y149.928 E1436.09552
G1 X204.197 Y125.161 E1437.12528
G1 X203.797 Y125.161 E1437.14192
G1 X203.797 Y149.928 E1438.17152
G1 X203.397 Y149.928 E1438.18816
G1 X203.397 Y125.161 E1439.21776
G1 X202.997 Y125.161 E1439.23440
G1 X202.997 Y149.928 E1440.26400
G1 X202.597 Y149.928 E1440.28064
G1 X202.597 Y125.161 E1441.31024
G1 X202.197 Y125.161 E1441.32688
G1 X202.197 Y149.928 E1442.35664
G1 X201.797 Y149.928 E1442.37312
G1 X201.797 Y125.161 E1443.40288
G1 X201.397 Y125.161 E1443.41936
G1 X201.397 Y149.928 E1444.44912
G1 X200.997 Y149.928 E1444.46576
G1 X200.997 Y125.161 E1445.49536
G1 X200.597 Y125.161 E1445.51200
G1 X200.597 Y149.928 E1446.54160
G1 X200.197 Y149.928 E1446.55824
G1 X200.197 Y125.161 E1447.58784
G1 X199.797 Y125.161 E1447.60448
G1 X199.797 Y149.928 E1448.63408
G1 X199.397 Y149.928 E1448.65072
G1 X199.397 Y125.161 E1449.68048
G1 X198.997 Y125.161 E1449.69696
G1 X198.997 Y149.928 E1450.72672
G1 X198.597 Y149.928 E1450.74336
G1 X198.597 Y125.161 E1451.77296
G1 X198.197 Y125.161 E1451.78960
G1 X198.197 Y149.928 E1452.81920
G1 X197.797 Y149.928 E1452.83584
G1 X197.797 Y125.161 E1453.86544
G1 X197.397 Y125.161 E1453.88208
G1 X197.397 Y149.928 E1454.91168
G1 X196.997 Y149.928 E1454.92832
G1 X196.997 Y125.161 E1455.95808
G1 X196.597 Y125.161 E1455.97456
G1 X196.597 Y149.928 E1457.00432
G1 X196.197 Y149.928 E1457.02080
G1 X196.197 Y125.161 E1458.05056
G1 X195.797 Y125.161 E1458.06720
G1 X195.797 Y149.928 E1459.09680
G1 X195.397 Y149.928 E1459.11344
G1 X195.397 Y125.161 E1460.14304
G1 X194.997 Y125.161 E1460.15968
G1 X194.997 Y149.928 E1461.18928
G1 X194.597 Y149.928 E1461.20592
G1 X194.597 Y125.161 E1462.23552
G1 X194.197 Y125.161 E1462.25216
G1 X194.197 Y149.928 E1463.28192
G1 X193.797 Y149.928 E1463.29840
G1 X193.797 Y125.161 E1464.32816
G1 X193.397 Y125.161 E1464.34480
G1 X193.397 Y149.928 E1465.37440
G1 X192.997 Y149.928 E1465.39104
G1 X192.997 Y125.161 E1466.42064
G1 X192.597 Y125.161 E1466.43728
G1 X192.597 Y149.928 E1467.46688
G1 X192.197 Y149.928 E1467.48352
G1 X192.197 Y125.161 E1468.51312
G1 X191.797 Y125.161 E1468.52976
G1 X191.797 Y149.928 E1469.55952
G1 X191.397 Y149.928 E1469.57600
G1 X191.397 Y125.161 E1470.60576
G1 X190.997 Y125.161 E1470.62224
G1 X190.997 Y149.928 E1471.65200
G1 X190.597 Y149.928 E1471.66864
G1 X190.597 Y125.161 E1472.69824
G1 X190.197 Y125.161 E1472.71488
G1 X190.197 Y149.928 E1473.74448
G1 X189.797 Y149.928 E1473.76112
G1 X189.797 Y125.161 E1474.79072
G1 X189.397 Y125.161 E1474.80736
G1 X189.397 Y149.928 E1475.83696
G1 X188.997 Y149.928 E1475.85360
G1 X188.997 Y125.161 E1476.88336
G1 X188.597 Y125.161 E1476.89984
G1 X188.597 Y149.928 E1477.92960
G1 X188.197 Y149.928 E1477.94624
G1 X188.197 Y125.161 E1478.97584
G1 X187.797 Y125.161 E1478.99248
G1 X187.797 Y149.928 E1480.02208
G1 X187.397 Y149.928 E1480.03872
G1 X187.397 Y125.161 E1481.06832
G1 X186.997 Y125.161 E1481.08496
G1 X186.997 Y149.928 E1482.11456
G1 X186.597 Y149.928 E1482.13120
G1 X186.597 Y125.161 E1483.16096
G1 X186.197 Y125.161 E1483.17744
G1 X186.197 Y149.928 E1484.20720
G1 X185.797 Y149.928 E1484.22368
G1 X185.797 Y125.161 E1485.25344
G1 X185.397 Y125.161 E1485.27008
G1 X185.397 Y149.928 E1486.29968
G1 X184.997 Y149.928 E1486.31632
G1 X184.997 Y125.161 E1487.34592
G1 X184.597 Y125.161 E1487.36256
G1 X184.597 Y149.928 E1488.39216
G1 X184.197 Y149.928 E1488.40880
G1 X184.197 Y125.161 E1489.43840
G1 X183.797 Y125.161 E1489.45504
G1 X183.797 Y149.928 E1490.48480
G1 X183.397 Y149.928 E1490.50128
G1 X183.397 Y125.161 E1491.53104
G1 X182.997 Y125.161 E1491.54768
G1 X182.997 Y149.928 E1492.57728
G1 X182.597 Y149.928 E1492.59392
G1 X182.597 Y125.161 E1493.62352
G1 X182.197 Y125.161 E1493.64016
G1 X182.197 Y149.928 E1494.66976
G1 X181.797 Y149.928 E1494.68640
G1 X181.797 Y125.161 E1495.71600
G1 X181.397 Y125.161 E1495.73264
G1 X181.397 Y149.928 E1496.76240
G1 X180.997 Y149.928 E1496.77888
G1 X180.997 Y125.161 E1497.80864
G1 X180.597 Y125.161 E1497.82512
G1 X180.597 Y149.928 E1498.85488
G1 X180.197 Y149.928 E1498.87152
G1 X180.197 Y125.161 E1499.90112
G1 X179.797 Y125.161 E1499.91776
G1 X179.797 Y149.928 E1500.94736
G1 X179.397 Y149.928 E1500.96400
G1 X179.397 Y125.161 E1501.99360
G1 X178.997 Y125.161 E1502.01024
G1 X178.997 Y149.928 E1503.03984
G1 X178.597 Y149.928 E1503.05648
G1 X178.597 Y125.161 E1504.08624
G1 X178.197 Y125.161 E1504.10272
G1 X178.197 Y149.928 E1505.13248
G1 X177.797 Y149.928 E1505.14912
G1 X177.797 Y125.161 E1506.17872
G1 X177.397 Y125.161 E1506.19536
G1 X177.397 Y149.928 E1507.22496
G1 X176.997 Y149.928 E1507.24160
G1 X176.997 Y125.161 E1508.27120
G1 X176.597 Y125.161 E1508.28784
G1 X176.597 Y149.928 E1509.31744
G1 X176.197 Y149.928 E1509.33408
G1 X176.197 Y125.161 E1510.36384
G1 X175.797 Y125.161 E1510.38032
G1 X175.797 Y149.928 E1511.41008
G1 X175.397 Y149.928 E1511.42656
G1 X175.397 Y125.161 E1512.45632
G1 X174.997 Y125.161 E1512.47296
G1 X174.997 Y149.928 E1513.50256
G1 X174.597 Y149.928 E1513.51920
G1 X174.597 Y125.161 E1514.54880
G1 X174.197 Y125.161 E1514.56544
G1 X174.197 Y149.928 E1515.59504
G1 X173.797 Y149.928 E1515.61168
G1 X173.797 Y125.161 E1516.64128
G1 X173.397 Y125.161 E1516.65792
G1 X173.397 Y149.928 E1517.68768
G1 X172.997 Y149.928 E1517.70416
G1 X172.997 Y125.161 E1518.73392
G1 X172.597 Y125.161 E1518.75056
G1 X172.597 Y149.928 E1519.78016
G1 X172.197 Y149.928 E1519.79680
G1 X172.197 Y125.161 E1520.82640
G1 X171.797 Y125.161 E1520.84304
G1 X171.797 Y149.928 E1521.87264
G1 X171.397 Y149.928 E1521.88928
G1 X171.397 Y125.161 E1522.91888
G1 X170.997 Y125.161 E1522.93552
G1 X170.997 Y149.928 E1523.96528
G1 X170.597 Y149.928 E1523.98176
G1 X170.597 Y125.161 E1525.01152
G1 X170.197 Y125.161 E1525.02800
G1 X170.197 Y149.928 E1526.05776
G1 X169.797 Y149.928 E1526.07440
G1 X169.797 Y125.161 E1527.10400
G1 X169.397 Y125.161 E1527.12064
G1 X169.397 Y149.928 E1528.15024
G1 X168.997 Y149.928 E1528.16688
G1 X168.997 Y125.161 E1529.19648
G1 X168.597 Y125.161 E1529.21312
G1 X168.597 Y149.928 E1530.24272
G1 X168.197 Y149.928 E1530.25936
G1 X168.197 Y125.161 E1531.28912
G1 X167.797 Y125.161 E1531.30560
G1 X167.797 Y149.928 E1532.33536
G1 X167.397 Y149.928 E1532.35200
G1 X167.397 Y125.161 E1533.38160
G1 X166.997 Y125.161 E1533.39824
G1 X166.997 Y149.928 E1534.42784
G1 X166.597 Y149.928 E1534.44448
G1 X166.597 Y125.161 E1535.47408
G1 X166.197 Y125.161 E1535.49072
G1 X166.197 Y149.928 E1536.52032
G1 X165.797 Y149.928 E1536.53696
G1 X165.797 Y125.161 E1537.56672
G1 X165.397 Y125.161 E1537.58320
G1 X165.397 Y149.928 E1538.61296
G1 X164.997 Y149.928 E1538.62944
G1 X164.997 Y125.161 E1539.65920
G1 X164.597 Y125.161 E1539.67584
G1 X164.597 Y149.928 E1540.70544
G1 X164.197 Y149.928 E1540.72208
G1 X164.197 Y125.161 E1541.75168
G1 X163.797 Y125.161 E1541.76832
G1 X163.797 Y149.928 E1542.79792
G1 X163.397 Y149.928 E1542.81456
G1 X163.397 Y125.161 E1543.84416
G1 X162.997 Y125.161 E1543.86080
G1 X162.997 Y149.928 E1544.89056
G1 X162.597 Y149.928 E1544.90704
G1 X162.597 Y125.161 E1545.93680
G1 X162.197 Y125.161 E1545.95344
G1 X162.197 Y149.928 E1546.98304
G1 X161.797 Y149.928 E1546.99968
G1 X161.797 Y125.161 E1548.02928
G1 X161.397 Y125.161 E1548.04592
G1 X161.397 Y149.928 E1549.07552
G1 X160.997 Y149.928 E1549.09216
G1 X160.997 Y125.161 E1550.12176
G1 X160.597 Y125.161 E1550.13840
G1 X160.597 Y149.928 E1551.16816
G1 X160.197 Y149.928 E1551.18464
G1 X160.197 Y125.161 E1552.21440
G1 X159.797 Y125.161 E1552.23088
G1 X159.797 Y149.928 E1553.26064
G1 X159.397 Y149.928 E1553.27728
G1 X159.397 Y125.161 E1554.30688
G1 X158.997 Y125.161 E1554.32352
G1 X158.997 Y149.928 E1555.35312
G1 X158.597 Y149.928 E1555.36976
G1 X158.597 Y125.161 E1556.39936
G1 X158.197 Y125.161 E1556.41600
G1 X158.197 Y149.928 E1557.44560
G1 X157.797 Y149.928 E1557.46224
G1 X157.797 Y125.161 E1558.49200
G1 X157.397 Y125.161 E1558.50848
G1 X157.397 Y149.928 E1559.53824
G1 X156.997 Y149.928 E1559.55488
G1 X156.997 Y125.161 E1560.58448
G1 X156.597 Y125.161 E1560.60112
G1 X156.597 Y149.928 E1561.63072
G1 X156.197 Y149.928 E1561.64736
G1 X156.197 Y125.161 E1562.67696
G1 X155.797 Y125.161 E1562.69360
G1 X155.797 Y149.928 E1563.72320
G1 X155.397 Y149.928 E1563.73984
G1 X155.397 Y125.161 E1564.76960
G1 X154.997 Y125.161 E1564.78608
G1 X154.997 Y149.928 E1565.81584
G1 X154.597 Y149.928 E1565.83232
G1 X154.597 Y125.161 E1566.86208
G1 X154.197 Y125.161 E1566.87872
G1 X154.197 Y149.928 E1567.90832
G1 X153.797 Y149.928 E1567.92496
G1 X153.797 Y125.161 E1568.95456
G1 X153.397 Y125.161 E1568.97120
G1 X153.397 Y149.928 E1570.00080
G1 X152.997 Y149.928 E1570.01744
G1 X152.997 Y125.161 E1571.04704
G1 X152.597 Y125.161 E1571.06368
G1 X152.597 Y149.928 E1572.09344
G1 X152.197 Y149.928 E1572.10992
G1 X152.197 Y125.161 E1573.13968
G1 X151.797 Y125.161 E1573.15632
G1 X151.797 Y149.928 E1574.18592
G1 X151.397 Y149.928 E1574.20256
G1 X151.397 Y125.161 E1575.23216
G1 X150.997 Y125.161 E1575.24880
G1 X150.997 Y149.928 E1576.27840
G1 X150.597 Y149.928 E1576.29504
G1 X150.597 Y125.161 E1577.32464
G1 X150.197 Y125.161 E1577.34128
G1 X150.197 Y149.928 E1578.37104
G1 X149.797 Y149.928 E1578.38752
G1 X149.797 Y125.161 E1579.41728
G1 X149.397 Y125.161 E1579.43376
G1 X149.397 Y149.928 E1580.46352
G1 X148.997 Y149.928 E1580.48016
G1 X148.997 Y125.161 E1581.50976
G1 X148.597 Y125.161 E1581.52640
G1 X148.597 Y149.928 E1582.55600
G1 X148.197 Y149.928 E1582.57264
G1 X148.197 Y125.161 E1583.60224
G1 X147.797 Y125.161 E1583.61888
G1 X147.797 Y149.928 E1584.64848
G1 X147.397 Y149.928 E1584.66512
G1 X147.397 Y125.161 E1585.69488
G1 X146.997 Y125.161 E1585.71136
G1 X146.997 Y149.928 E1586.74112
G1 X146.597 Y149.928 E1586.75776
G1 X146.597 Y125.161 E1587.78736
G1 X146.197 Y125.161 E1587.80400
G1 X146.197 Y149.928 E1588.83360
G1 X145.797 Y149.928 E1588.85024
G1 X145.797 Y125.161 E1589.87984
G1 X145.397 Y125.161 E1589.89648
G1 X145.397 Y149.928 E1590.92608
G1 X144.997 Y149.928 E1590.94272
G1 X144.997 Y125.161 E1591.97248
G1 X144.597 Y125.161 E1591.98896
G1 X144.597 Y149.928 E1593.01872
G1 X144.197 Y149.928 E1593.03520
G1 X144.197 Y125.161 E1594.06496
G1 X143.797 Y125.161 E1594.08160
G1 X143.797 Y149.928 E1595.11120
G1 X143.397 Y149.928 E1595.12784
G1 X143.397 Y125.161 E1596.15744
G1 X142.997 Y125.161 E1596.17408
G1 X142.997 Y149.928 E1597.20368
G1 X142.597 Y149.928 E1597.22032
G1 X142.597 Y125.161 E1598.24992
G1 X142.197 Y125.161 E1598.26656
G1 X142.197 Y149.928 E1599.29632
G1 X141.797 Y149.928 E1599.31280
G1 X141.797 Y125.161 E1600.34256
G1 X141.397 Y125.161 E1600.35920
G1 X141.397 Y149.928 E1601.38880
G1 X140.997 Y149.928 E1601.40544
G1 X140.997 Y125.161 E1602.43504
G1 X140.597 Y125.161 E1602.45168
G1 X140.597 Y149.928 E1603.48128
G1 X140.197 Y149.928 E1603.49792
G1 X140.197 Y125.161 E1604.52752
G1 X139.797 Y125.161 E1604.54416
G1 X139.797 Y149.928 E1605.57392
G1 X139.397 Y149.928 E1605.59040
G1 X139.397 Y125.161 E1606.62016
G1 X138.997 Y125.161 E1606.63664
G1 X138.997 Y149.928 E1607.66640
G1 X138.597 Y149.928 E1607.68304
G1 X138.597 Y125.161 E1608.71264
G1 X138.197 Y125.161 E1608.72928
G1 X138.197 Y149.928 E1609.75888
G1 X137.797 Y149.928 E1609.77552
G1 X137.797 Y125.161 E1610.80512
G1 X137.397 Y125.161 E1610.82176
G1 X137.397 Y149.928 E1611.85152
G1 X136.997 Y149.928 E1611.86800
G1 X136.997 Y125.161 E1612.89776
G1 X136.597 Y125.161 E1612.91424
G1 X136.597 Y149.928 E1613.94400
G1 X136.197 Y149.928 E1613.96064
G1 X136.197 Y125.161 E1614.99024
G1 X135.797 Y125.161 E1615.00688
G1 X135.797 Y149.928 E1616.03648
G1 X135.397 Y149.928 E1616.05312
G1 X135.397 Y125.161 E1617.08272
G1 X134.997 Y125.161 E1617.09936
G1 X134.997 Y149.928 E1618.12896
G1 X134.597 Y149.928 E1618.14560
G1 X134.597 Y125.161 E1619.17536
G1 X134.197 Y125.161 E1619.19184
G1 X134.197 Y149.928 E1620.22160
G1 X133.797 Y149.928 E1620.23808
G1 X133.797 Y125.161 E1621.26784
G1 X133.397 Y125.161 E1621.28448
G1 X133.397 Y149.928 E1622.31408
G1 X132.997 Y149.928 E1622.33072
G1 X132.997 Y125.161 E1623.36032
G1 X132.597 Y125.161 E1623.37696
G1 X132.597 Y149.928 E1624.40656
G1 X132.197 Y149.928 E1624.42320
G1 X132.197 Y125.161 E1625.45296
G1 X131.797 Y125.161 E1625.46944
G1 X131.797 Y149.928 E1626.49920
G1 X131.397 Y149.928 E1626.51568
G1 X131.397 Y125.161 E1627.54544
G1 X130.997 Y125.161 E1627.56208
G1 X130.997 Y149.928 E1628.59168
G1 X130.597 Y149.928 E1628.60832
G1 X130.597 Y125.161 E1629.63792
G1 X130.197 Y125.161 E1629.65456
G1 X130.197 Y149.928 E1630.68416
G1 X129.797 Y149.928 E1630.70080
G1 X129.797 Y125.161 E1631.73040
G1 X129.397 Y125.161 E1631.74704
G1 X129.397 Y149.928 E1632.77680
G1 X128.997 Y149.928 E1632.79328
G1 X128.997 Y125.161 E1633.82304
G1 X128.597 Y125.161 E1633.83952
G1 X128.597 Y149.928 E1634.86928
G1 X128.197 Y149.928 E1634.88592
G1 X128.197 Y125.161 E1635.91552
G1 X127.797 Y125.161 E1635.93216
G1 X127.797 Y149.928 E1636.96176
G1 X127.397 Y149.928 E1636.97840
G1 X127.397 Y125.161 E1638.00800
G1 X126.997 Y125.161 E1638.02464
G1 X126.997 Y149.928 E1639.05440
G0 X126.597 Y157.005 F7200
G1 X126.597 Y125.161 E1640.37824 F2400
G1 X126.197 Y125.161 E1640.39488
G1 X126.197 Y157.398 E1641.73504
G1 X125.797 Y157.791 E1641.75840
G1 X125.797 Y125.161 E1643.11504
G1 X125.397 Y125.161 E1643.13152
G1 X125.397 Y158.315 E1644.51008
G1 X124.997 Y158.708 E1644.53328
G1 X124.997 Y125.161 E1645.92816
G1 X124.597 Y125.161 E1645.94464
G1 X124.597 Y159.102 E1647.35584
G1 X124.197 Y159.495 E1647.37920
G1 X124.197 Y125.161 E1648.80672
G1 X123.797 Y125.161 E1648.82320
G1 X123.797 Y159.626 E1650.25616
G1 X123.397 Y159.626 E1650.27264
G1 X123.397 Y125.161 E1651.70560
G1 X122.997 Y125.161 E1651.72224
G1 X122.997 Y159.626 E1653.15504
G1 X122.597 Y159.626 E1653.17168
G1 X122.597 Y125.161 E1654.60448
G1 X122.197 Y125.161 E1654.62112
G1 X122.197 Y159.626 E1656.05392
G1 X121.797 Y159.626 E1656.07056
G1 X121.797 Y125.161 E1657.50336
G1 X121.397 Y125.161 E1657.52000
G1 X121.397 Y159.626 E1658.95296
G1 X120.997 Y159.626 E1658.96944
G1 X120.997 Y125.161 E1660.40240
G1 X120.597 Y125.161 E1660.41888
G1 X120.597 Y159.626 E1661.85184
G1 X120.197 Y159.626 E1661.86848
G1 X120.197 Y125.161 E1663.30128
G1 X119.797 Y125.161 E1663.31792
G1 X119.797 Y159.626 E1664.75072
G1 X119.397 Y159.626 E1664.76736
G1 X119.397 Y125.161 E1666.20016
G1 X118.997 Y125.161 E1666.21680
G1 X118.997 Y159.626 E1667.64960
G0 X252.596 Y74.184 F7200
G1 X252.596 Y40.505 E1669.04976 F2400
G1 X252.996 Y40.505 E1669.06640
G1 X252.996 Y74.053 E1670.46112
G1 X253.396 Y73.922 E1670.47856
G1 X253.396 Y40.505 E1671.86784
G1 X253.796 Y40.505 E1671.88448
G1 X253.796 Y73.791 E1673.26848
G1 X254.196 Y73.660 E1673.28592
G1 X254.196 Y40.505 E1674.66432
G1 X254.596 Y40.505 E1674.68096
G1 X254.596 Y73.660 E1676.05936
G1 X254.996 Y73.529 E1676.07680
G1 X254.996 Y40.505 E1677.44976
G1 X255.396 Y40.505 E1677.46624
G1 X255.396 Y73.398 E1678.83392
G1 X255.796 Y73.267 E1678.85136
G1 X255.796 Y40.505 E1680.21344
G1 X256.196 Y40.505 E1680.22992
G1 X256.196 Y73.136 E1681.58656
G1 X256.596 Y73.005 E1681.60400
G1 X256.596 Y40.505 E1682.95520
G1 X256.996 Y40.505 E1682.97184
G1 X256.996 Y73.005 E1684.32304
G1 X257.396 Y72.874 E1684.34048
G1 X257.396 Y40.505 E1685.68608
G1 X257.796 Y40.505 E1685.70272
G1 X257.796 Y72.743 E1687.04304
G1 X258.196 Y72.611 E1687.06048
G1 X258.196 Y40.505 E1688.39520
G1 X258.596 Y40.505 E1688.41184
G1 X258.596 Y72.480 E1689.74128
G1 X258.996 Y72.480 E1689.75776
G1 X258.996 Y40.505 E1691.08720
G1 X259.396 Y40.505 E1691.10368
G1 X259.396 Y72.349 E1692.42768
G1 X259.796 Y72.218 E1692.44512
G1 X259.796 Y40.505 E1693.76368
G1 X260.196 Y40.505 E1693.78032
G1 X260.196 Y72.087 E1695.09328
G1 X260.596 Y72.087 E1695.10992
G1 X260.596 Y40.505 E1696.42288
G1 X260.996 Y40.505 E1696.43952
G1 X260.996 Y71.956 E1697.74704
G1 X261.396 Y71.825 E1697.76448
G1 X261.396 Y40.505 E1699.06672
G1 X261.796 Y40.505 E1699.08320
G1 X261.796 Y71.694 E1700.37984
G1 X262.196 Y71.563 E1700.39728
G1 X262.196 Y40.505 E1701.68864
G1 X262.596 Y40.505 E1701.70528
G1 X262.596 Y71.563 E1702.99648
G1 X262.996 Y71.432 E1703.01392
G1 X262.996 Y40.505 E1704.29968
G1 X263.396 Y40.767 E1704.31952
G1 X263.396 Y71.039 E1705.57808
G1 X263.796 Y70.646 E1705.60144
G1 X263.796 Y41.161 E1706.82720
G1 X264.196 Y41.554 E1706.85056
G1 X264.196 Y70.253 E1708.04368
G1 X264.596 Y69.860 E1708.06704
G1 X264.596 Y41.947 E1709.22752
G1 X264.996 Y42.340 E1709.25088
G1 X264.996 Y69.466 E1710.37872
G1 X265.396 Y69.073 E1710.40192
G1 X265.396 Y42.733 E1711.49712
G1 X265.796 Y43.126 E1711.52032
G1 X265.796 Y68.680 E1712.58272



; ------------------------------------
; Raft Layer #3
; ------------------------------------
M106 S255 ;set fan speed
G92 E0 ;reset extr
G0 F600 Z0.980
;segType:Raft
G0 F3000 E-1.00000
G0 F600 Z2.980
G0 X260.967 Y71.797 F7200
G0 F600 Z0.980
G0 F3000 E0.00000
G1 X66.626 Y71.797 E8.07974 F2400
G0 X65.185 Y71.397 F7200
G1 X262.539 Y71.397 E16.28478 F2400
G1 X263.325 Y70.997 E16.32146
G1 X64.398 Y70.997 E24.59189
G1 X64.005 Y70.597 E24.61520
G1 X263.718 Y70.597 E32.91832
G1 X264.112 Y70.197 E32.94164
G1 X63.612 Y70.197 E41.27744
G1 X63.219 Y69.797 E41.30076
G1 X264.505 Y69.797 E49.66925
G1 X265.029 Y69.397 E49.69667
G1 X62.695 Y69.397 E58.10874
G1 X62.302 Y68.997 E58.13206
G1 X265.422 Y68.997 E66.57683
G1 X265.815 Y68.597 E66.60015
G1 X62.039 Y68.597 E75.07216
G1 X61.777 Y68.197 E75.09204
G1 X265.946 Y68.197 E83.58040
G1 X266.077 Y67.797 E83.59790
G1 X61.646 Y67.797 E92.09715
G1 X61.646 Y67.397 E92.11378
G1 X266.077 Y67.397 E100.61304
G1 X266.077 Y66.997 E100.62967
G1 X61.646 Y66.997 E109.12892
G1 X61.646 Y66.597 E109.14555
G1 X266.077 Y66.597 E117.64481
G1 X266.077 Y66.197 E117.66144
G1 X61.646 Y66.197 E126.16069
G1 X61.646 Y65.797 E126.17732
G1 X266.077 Y65.797 E134.67657
G1 X266.077 Y65.397 E134.69321
G1 X61.646 Y65.397 E143.19246
G1 X61.646 Y64.997 E143.20909
G1 X266.077 Y64.997 E151.70834
G1 X266.077 Y64.597 E151.72498
G1 X61.646 Y64.597 E160.22423
G1 X61.646 Y64.197 E160.24086
G1 X266.077 Y64.197 E168.74012
G1 X266.077 Y63.797 E168.75674
G1 X61.646 Y63.797 E177.25600
G1 X61.646 Y63.397 E177.27262
G1 X266.077 Y63.397 E185.77188
G1 X266.077 Y62.997 E185.78852
G1 X61.646 Y62.997 E194.28776
G1 X61.646 Y62.597 E194.30440
G1 X266.077 Y62.597 E202.80364
G1 X266.077 Y62.197 E202.82028
G1 X61.646 Y62.197 E211.31954
G1 X61.646 Y61.797 E211.33616
G1 X266.077 Y61.797 E219.83542
G1 X266.077 Y61.397 E219.85206
G1 X61.646 Y61.397 E228.35130
G1 X61.646 Y60.997 E228.36794
G1 X266.077 Y60.997 E236.86718
G1 X266.077 Y60.597 E236.88382
G1 X61.646 Y60.597 E245.38308
G1 X61.646 Y60.197 E245.39970
G1 X266.077 Y60.197 E253.89896
G1 X266.077 Y59.797 E253.91558
G1 X61.646 Y59.797 E262.41482
G1 X61.646 Y59.397 E262.43146
G1 X266.077 Y59.397 E270.93070
G1 X266.077 Y58.997 E270.94732
G1 X61.646 Y58.997 E279.44656
G1 X61.646 Y58.597 E279.46320
G1 X266.077 Y58.597 E287.96244
G1 X266.077 Y58.197 E287.97906
G1 X61.646 Y58.197 E296.47830
G1 X61.646 Y57.797 E296.49494
G1 X266.077 Y57.797 E304.99418
G1 X266.077 Y57.397 E305.01080
G1 X61.646 Y57.397 E313.51004
G1 X61.646 Y56.997 E313.52668
G1 X266.077 Y56.997 E322.02590
G1 X266.077 Y56.597 E322.04254
G1 X61.646 Y56.597 E330.54178
G1 X61.646 Y56.197 E330.55842
G1 X266.077 Y56.197 E339.05764
G1 X266.077 Y55.797 E339.07428
G1 X61.646 Y55.797 E347.57352
G1 X61.646 Y55.397 E347.59016
G1 X266.077 Y55.397 E356.08940
G1 X266.077 Y54.997 E356.10600
G1 X61.646 Y54.997 E364.60524
G1 X61.646 Y54.597 E364.62188
G1 X266.077 Y54.597 E373.12112
G1 X266.077 Y54.197 E373.13776
G1 X61.646 Y54.197 E381.63700
G1 X61.646 Y53.797 E381.65364
G1 X266.077 Y53.797 E390.15288
G1 X266.077 Y53.397 E390.16948
G1 X61.646 Y53.397 E398.66872
G1 X61.646 Y52.997 E398.68536
G1 X266.077 Y52.997 E407.18460
G1 X266.077 Y52.597 E407.20124
G1 X61.646 Y52.597 E415.70048
G1 X61.646 Y52.197 E415.71712
G1 X266.077 Y52.197 E424.21632
G1 X266.077 Y51.797 E424.23296
G1 X61.646 Y51.797 E432.73220
G1 X61.646 Y51.397 E432.74884
G1 X266.077 Y51.397 E441.24808
G1 X266.077 Y50.997 E441.26472
G1 X61.646 Y50.997 E449.76396
G1 X61.646 Y50.597 E449.78056
G1 X266.077 Y50.597 E458.27980
G1 X266.077 Y50.197 E458.29644
G1 X61.646 Y50.197 E466.79568
G1 X61.646 Y49.797 E466.81232
G1 X126.645 Y49.797 E469.51464
G1 X126.645 Y49.397 E469.53128
G1 X61.646 Y49.397 E472.23360
G1 X61.646 Y48.997 E472.25024
G1 X126.645 Y48.997 E474.95256
G1 X126.645 Y48.597 E474.96920
G1 X61.646 Y48.597 E477.67152
G1 X61.646 Y48.197 E477.68816
G1 X126.645 Y48.197 E480.39052
G1 X126.645 Y47.797 E480.40712
G1 X61.646 Y47.797 E483.10948
G1 X61.646 Y47.397 E483.12608
G1 X126.645 Y47.397 E485.82844
G1 X126.645 Y46.997 E485.84508
G1 X61.646 Y46.997 E488.54740
G1 X61.646 Y46.597 E488.56404
G1 X126.645 Y46.597 E491.26636
G1 X126.645 Y46.197 E491.28300
G1 X61.646 Y46.197 E493.98532
G1 X61.646 Y45.797 E494.00196
G1 X126.645 Y45.797 E496.70428
G1 X126.645 Y45.397 E496.72092
G1 X61.646 Y45.397 E499.42324
G1 X61.646 Y44.997 E499.43988
G1 X126.645 Y44.997 E502.14220
G1 X126.645 Y44.597 E502.15884
G1 X61.646 Y44.597 E504.86116
G1 X61.646 Y44.197 E504.87780
G1 X126.645 Y44.197 E507.58012
G1 X126.645 Y43.797 E507.59676
G1 X61.646 Y43.797 E510.29912
G1 X61.777 Y43.397 E510.31660
G1 X126.645 Y43.397 E513.01348
G1 X126.514 Y42.997 E513.03100
G1 X62.039 Y42.997 E515.71156
G1 X62.433 Y42.597 E515.73488
G1 X126.121 Y42.597 E518.38268
G1 X125.728 Y42.197 E518.40600
G1 X62.826 Y42.197 E521.02116
G1 X63.219 Y41.797 E521.04448
G1 X125.334 Y41.797 E523.62696
G1 X124.941 Y41.397 E523.65028
G1 X63.612 Y41.397 E526.20008
G1 X64.005 Y40.997 E526.22340
G1 X124.548 Y40.997 E528.74048
G1 X124.155 Y40.597 E528.76380
G1 X64.398 Y40.597 E531.24816
G0 X68.199 Y72.197 F7200
G1 X259.525 Y72.197 E539.20256 F2400
G0 X258.084 Y72.597 F7200
G1 X69.640 Y72.597 E547.03716 F2400
G0 X71.213 Y72.997 F7200
G1 X256.511 Y72.997 E554.74096 F2400
G0 X255.069 Y73.397 F7200
G1 X72.654 Y73.397 E562.32488 F2400
G0 X74.227 Y73.797 F7200
G1 X253.497 Y73.797 E569.77808 F2400
G0 X252.449 Y74.197 F7200
G1 X75.275 Y74.197 E577.14412 F2400
G1 X75.275 Y74.597 E577.16072
G1 X252.449 Y74.597 E584.52672
G1 X252.449 Y74.997 E584.54332
G1 X75.275 Y74.997 E591.90936
G0 X118.913 Y75.397 F7200
G1 X75.275 Y75.397 E593.72364 F2400
G1 X75.275 Y75.797 E593.74024
G1 X118.913 Y75.797 E595.55452
G1 X118.913 Y76.197 E595.57112
G1 X75.275 Y76.197 E597.38536
G1 X75.275 Y76.597 E597.40196
G1 X118.913 Y76.597 E599.21624
G1 X118.913 Y76.997 E599.23284
G1 X75.275 Y76.997 E601.04712
G1 X75.275 Y77.397 E601.06372
G1 X118.913 Y77.397 E602.87800
G1 X118.913 Y77.797 E602.89460
G1 X75.275 Y77.797 E604.70888
G1 X75.275 Y78.197 E604.72548
G1 X118.913 Y78.197 E606.53972
G1 X118.913 Y78.597 E606.55632
G1 X75.275 Y78.597 E608.37060
G1 X75.275 Y78.997 E608.38720
G1 X118.913 Y78.997 E610.20148
G1 X118.913 Y79.397 E610.21808
G1 X75.275 Y79.397 E612.03236
G1 X75.275 Y79.797 E612.04896
G1 X118.913 Y79.797 E613.86324
G1 X118.913 Y80.197 E613.87984
G1 X75.275 Y80.197 E615.69408
G1 X75.275 Y80.597 E615.71068
G1 X118.913 Y80.597 E617.52496
G1 X118.913 Y80.997 E617.54156
G1 X75.275 Y80.997 E619.35584
G1 X75.275 Y81.397 E619.37244
G1 X118.913 Y81.397 E621.18672
G1 X118.913 Y81.797 E621.20332
G1 X75.275 Y81.797 E623.01756
G1 X75.275 Y82.197 E623.03416
G1 X118.913 Y82.197 E624.84844
G1 X118.913 Y82.597 E624.86504
G1 X75.275 Y82.597 E626.67932
G1 X75.275 Y82.997 E626.69592
G1 X118.913 Y82.997 E628.51020
G1 X118.913 Y83.397 E628.52680
G1 X75.275 Y83.397 E630.34108
G1 X75.275 Y83.797 E630.35768
G1 X118.913 Y83.797 E632.17192
G1 X118.913 Y84.197 E632.18852
G1 X75.275 Y84.197 E634.00280
G1 X75.275 Y84.597 E634.01940
G1 X118.913 Y84.597 E635.83368
G1 X118.913 Y84.997 E635.85028
G1 X75.275 Y84.997 E637.66456
G1 X75.275 Y85.397 E637.68116
G1 X118.913 Y85.397 E639.49544
G1 X118.913 Y85.797 E639.51204
G1 X75.275 Y85.797 E641.32628
G1 X75.275 Y86.197 E641.34288
G1 X118.913 Y86.197 E643.15716
G1 X118.913 Y86.597 E643.17376
G1 X75.275 Y86.597 E644.98804
G1 X75.275 Y86.997 E645.00464
G1 X118.913 Y86.997 E646.81892
G1 X118.913 Y87.397 E646.83552
G1 X75.275 Y87.397 E648.64980
G1 X75.275 Y87.797 E648.66640
G1 X118.913 Y87.797 E650.48064
G1 X118.913 Y88.197 E650.49724
G1 X75.275 Y88.197 E652.31152
G1 X75.275 Y88.597 E652.32812
G1 X118.913 Y88.597 E654.14240
G1 X118.913 Y88.997 E654.15900
G1 X75.275 Y88.997 E655.97328
G1 X75.275 Y89.397 E655.98988
G1 X118.913 Y89.397 E657.80412
G1 X118.913 Y89.797 E657.82072
G1 X75.275 Y89.797 E659.63500
G1 X75.275 Y90.197 E659.65160
G1 X118.913 Y90.197 E661.46588
G1 X118.913 Y90.597 E661.48248
G1 X75.275 Y90.597 E663.29676
G1 X75.275 Y90.997 E663.31336
G1 X118.913 Y90.997 E665.12764
G1 X118.913 Y91.397 E665.14424
G1 X75.275 Y91.397 E666.95848
G1 X75.275 Y91.797 E666.97508
G1 X118.913 Y91.797 E668.78936
G1 X118.913 Y92.197 E668.80596
G1 X75.275 Y92.197 E670.62024
G1 X75.275 Y92.597 E670.63684
G1 X118.913 Y92.597 E672.45112
G1 X118.913 Y92.997 E672.46768
G1 X75.275 Y92.997 E674.28200
G1 X75.275 Y93.397 E674.29856
G1 X118.913 Y93.397 E676.11288
G1 X118.913 Y93.797 E676.12944
G1 X75.275 Y93.797 E677.94376
G1 X75.275 Y94.197 E677.96032
G1 X118.913 Y94.197 E679.77456
G1 X118.913 Y94.597 E679.79120
G1 X75.275 Y94.597 E681.60544
G1 X75.275 Y94.997 E681.62208
G1 X118.913 Y94.997 E683.43632
G1 X118.913 Y95.397 E683.45296
G1 X75.275 Y95.397 E685.26720
G1 X75.275 Y95.797 E685.28384
G1 X118.913 Y95.797 E687.09808
G1 X118.913 Y96.197 E687.11472
G1 X75.275 Y96.197 E688.92896
G1 X75.275 Y96.597 E688.94552
G1 X118.913 Y96.597 E690.75984
G1 X118.913 Y96.997 E690.77640
G1 X75.275 Y96.997 E692.59072
G1 X75.275 Y97.397 E692.60728
G1 X118.913 Y97.397 E694.42160
G1 X118.913 Y97.797 E694.43816
G1 X75.275 Y97.797 E696.25248
G1 X75.275 Y98.197 E696.26904
G1 X118.913 Y98.197 E698.08328
G1 X118.913 Y98.597 E698.09992
G1 X75.275 Y98.597 E699.91416
G1 X75.275 Y98.997 E699.93080
G1 X118.913 Y98.997 E701.74504
G1 X118.913 Y99.397 E701.76168
G1 X75.275 Y99.397 E703.57592
G1 X75.275 Y99.797 E703.59256
G1 X118.913 Y99.797 E705.40680
G1 X118.913 Y100.197 E705.42344
G1 X75.275 Y100.197 E707.23768
G1 X75.275 Y100.597 E707.25424
G1 X118.913 Y100.597 E709.06856
G1 X118.913 Y100.997 E709.08512
G1 X75.275 Y100.997 E710.89944
G1 X75.275 Y101.397 E710.91600
G1 X118.913 Y101.397 E712.73032
G1 X118.913 Y101.797 E712.74688
G1 X75.275 Y101.797 E714.56112
G1 X75.275 Y102.197 E714.57776
G1 X118.913 Y102.197 E716.39200
G1 X118.913 Y102.597 E716.40864
G1 X75.275 Y102.597 E718.22288
G1 X75.275 Y102.997 E718.23952
G1 X118.913 Y102.997 E720.05376
G1 X118.913 Y103.397 E720.07040
G1 X75.275 Y103.397 E721.88464
G1 X75.275 Y103.797 E721.90128
G1 X118.913 Y103.797 E723.71552
G1 X118.913 Y104.197 E723.73208
G1 X75.275 Y104.197 E725.54640
G1 X75.275 Y104.597 E725.56296
G1 X118.913 Y104.597 E727.37728
G1 X118.913 Y104.997 E727.39384
G1 X75.275 Y104.997 E729.20816
G1 X75.275 Y105.397 E729.22472
G1 X118.913 Y105.397 E731.03904
G1 X118.913 Y105.797 E731.05560
G1 X75.275 Y105.797 E732.86984
G1 X75.275 Y106.197 E732.88648
G1 X118.913 Y106.197 E734.70072
G1 X118.913 Y106.597 E734.71736
G1 X75.275 Y106.597 E736.53160
G1 X75.275 Y106.997 E736.54824
G1 X118.913 Y106.997 E738.36248
G1 X118.913 Y107.397 E738.37912
G1 X75.275 Y107.397 E740.19336
G1 X75.275 Y107.797 E740.21000
G1 X118.913 Y107.797 E742.02424
G1 X118.913 Y108.197 E742.04080
G1 X75.275 Y108.197 E743.85512
G1 X75.275 Y108.597 E743.87168
G1 X118.913 Y108.597 E745.68600
G1 X118.913 Y108.997 E745.70256
G1 X75.275 Y108.997 E747.51688
G1 X75.275 Y109.397 E747.53344
G1 X118.913 Y109.397 E749.34768
G1 X118.913 Y109.797 E749.36432
G1 X75.275 Y109.797 E751.17856
G1 X75.275 Y110.197 E751.19520
G1 X118.913 Y110.197 E753.00944
G1 X118.913 Y110.597 E753.02608
G1 X75.275 Y110.597 E754.84032
G1 X75.275 Y110.997 E754.85696
G1 X118.913 Y110.997 E756.67120
G1 X118.913 Y111.397 E756.68784
G1 X75.275 Y111.397 E758.50208
G1 X75.275 Y111.797 E758.51864
G1 X118.913 Y111.797 E760.33296
G1 X118.913 Y112.197 E760.34952
G1 X75.275 Y112.197 E762.16384
G1 X75.275 Y112.597 E762.18040
G1 X118.913 Y112.597 E763.99472
G1 X118.913 Y112.997 E764.01128
G1 X75.275 Y112.997 E765.82560
G1 X75.275 Y113.397 E765.84216
G1 X118.913 Y113.397 E767.65640
G1 X118.913 Y113.797 E767.67304
G1 X75.275 Y113.797 E769.48728
G1 X75.275 Y114.197 E769.50392
G1 X118.913 Y114.197 E771.31816
G1 X118.913 Y114.597 E771.33480
G1 X75.275 Y114.597 E773.14904
G1 X75.275 Y114.997 E773.16568
G1 X118.913 Y114.997 E774.97992
G1 X118.913 Y115.397 E774.99656
G1 X75.275 Y115.397 E776.81080
G1 X75.275 Y115.797 E776.82736
G1 X118.913 Y115.797 E778.64168
G1 X118.913 Y116.197 E778.65824
G1 X75.275 Y116.197 E780.47256
G1 X75.275 Y116.597 E780.48912
G1 X118.913 Y116.597 E782.30344
G1 X118.913 Y116.997 E782.32000
G1 X75.275 Y116.997 E784.13424
G1 X75.275 Y117.397 E784.15088
G1 X118.913 Y117.397 E785.96512
G1 X118.913 Y117.797 E785.98176
G1 X75.275 Y117.797 E787.79600
G1 X75.275 Y118.197 E787.81264
G1 X118.913 Y118.197 E789.62688
G1 X118.913 Y118.597 E789.64352
G1 X75.275 Y118.597 E791.45776
G1 X75.275 Y118.997 E791.47440
G1 X118.913 Y118.997 E793.28864
G1 X118.913 Y119.397 E793.30520
G1 X75.275 Y119.397 E795.11952
G1 X75.275 Y119.797 E795.13608
G1 X118.913 Y119.797 E796.95040
G1 X118.913 Y120.197 E796.96696
G1 X75.275 Y120.197 E798.78128
G1 X75.275 Y120.597 E798.79784
G1 X118.913 Y120.597 E800.61216
G1 X118.913 Y120.997 E800.62872
G1 X75.275 Y120.997 E802.44296
G1 X75.275 Y121.397 E802.45960
G1 X118.913 Y121.397 E804.27384
G1 X118.913 Y121.797 E804.29048
G1 X75.275 Y121.797 E806.10472
G1 X75.275 Y122.197 E806.12136
G1 X118.913 Y122.197 E807.93560
G1 X118.913 Y122.597 E807.95224
G1 X75.275 Y122.597 E809.76648
G1 X75.275 Y122.997 E809.78312
G1 X118.913 Y122.997 E811.59736
G1 X118.913 Y123.397 E811.61392
G1 X75.275 Y123.397 E813.42824
G1 X75.275 Y123.797 E813.44480
G1 X118.913 Y123.797 E815.25912
G1 X118.913 Y124.197 E815.27568
G1 X75.275 Y124.197 E817.09000
G1 X75.275 Y124.597 E817.10656
G1 X118.913 Y124.597 E818.92080
G1 X118.913 Y124.997 E818.93744
G1 X75.275 Y124.997 E820.75168
G0 X74.620 Y126.197 F7200
G1 X253.104 Y126.197 E828.17216 F2400
G1 X252.449 Y125.797 E828.20408
G1 X75.275 Y125.797 E835.57016
G1 X75.275 Y125.397 E835.58672
G1 X252.449 Y125.397 E842.95272
G1 X252.449 Y124.997 E842.96936
G1 X208.810 Y124.997 E844.78360
G1 X208.810 Y124.597 E844.80024
G1 X252.449 Y124.597 E846.61448
G1 X252.449 Y124.197 E846.63112
G1 X208.810 Y124.197 E848.44536
G1 X208.810 Y123.797 E848.46200
G1 X252.449 Y123.797 E850.27624
G1 X252.449 Y123.397 E850.29288
G1 X208.810 Y123.397 E852.10712
G1 X208.810 Y122.997 E852.12368
G1 X252.449 Y122.997 E853.93800
G1 X252.449 Y122.597 E853.95456
G1 X208.810 Y122.597 E855.76888
G1 X208.810 Y122.197 E855.78544
G1 X252.449 Y122.197 E857.59976
G1 X252.449 Y121.797 E857.61632
G1 X208.810 Y121.797 E859.43064
G1 X208.810 Y121.397 E859.44720
G1 X252.449 Y121.397 E861.26144
G1 X252.449 Y120.997 E861.27808
G1 X208.810 Y120.997 E863.09232
G1 X208.810 Y120.597 E863.10896
G1 X252.449 Y120.597 E864.92320
G1 X252.449 Y120.197 E864.93984
G1 X208.810 Y120.197 E866.75408
G1 X208.810 Y119.797 E866.77072
G1 X252.449 Y119.797 E868.58496
G1 X252.449 Y119.397 E868.60160
G1 X208.810 Y119.397 E870.41584
G1 X208.810 Y118.997 E870.43240
G1 X252.449 Y118.997 E872.24672
G1 X252.449 Y118.597 E872.26328
G1 X208.810 Y118.597 E874.07760
G1 X208.810 Y118.197 E874.09416
G1 X252.449 Y118.197 E875.90848
G1 X252.449 Y117.797 E875.92504
G1 X208.810 Y117.797 E877.73928
G1 X208.810 Y117.397 E877.75592
G1 X252.449 Y117.397 E879.57016
G1 X252.449 Y116.997 E879.58680
G1 X208.810 Y116.997 E881.40104
G1 X208.810 Y116.597 E881.41768
G1 X252.449 Y116.597 E883.23192
G1 X252.449 Y116.197 E883.24856
G1 X208.810 Y116.197 E885.06280
G1 X208.810 Y115.797 E885.07944
G1 X252.449 Y115.797 E886.89368
G1 X252.449 Y115.397 E886.91024
G1 X208.810 Y115.397 E888.72456
G1 X208.810 Y114.997 E888.74112
G1 X252.449 Y114.997 E890.55544
G1 X252.449 Y114.597 E890.57200
G1 X208.810 Y114.597 E892.38632
G1 X208.810 Y114.197 E892.40288
G1 X252.449 Y114.197 E894.21720
G1 X252.449 Y113.797 E894.23376
G1 X208.810 Y113.797 E896.04800
G1 X208.810 Y113.397 E896.06464
G1 X252.449 Y113.397 E897.87888
G1 X252.449 Y112.997 E897.89552
G1 X208.810 Y112.997 E899.70976
G1 X208.810 Y112.597 E899.72640
G1 X252.449 Y112.597 E901.54064
G1 X252.449 Y112.197 E901.55728
G1 X208.810 Y112.197 E903.37152
G1 X208.810 Y111.797 E903.38816
G1 X252.449 Y111.797 E905.20240
G1 X252.449 Y111.397 E905.21896
G1 X208.810 Y111.397 E907.03328
G1 X208.810 Y110.997 E907.04984
G1 X252.449 Y110.997 E908.86416
G1 X252.449 Y110.597 E908.88072
G1 X208.810 Y110.597 E910.69504
G1 X208.810 Y110.197 E910.71160
G1 X252.449 Y110.197 E912.52584
G1 X252.449 Y109.797 E912.54248
G1 X208.810 Y109.797 E914.35672
G1 X208.810 Y109.397 E914.37336
G1 X252.449 Y109.397 E916.18760
G1 X252.449 Y108.997 E916.20424
G1 X208.810 Y108.997 E918.01848
G1 X208.810 Y108.597 E918.03512
G1 X252.449 Y108.597 E919.84936
G1 X252.449 Y108.197 E919.86600
G1 X208.810 Y108.197 E921.68024
G1 X208.810 Y107.797 E921.69680
G1 X252.449 Y107.797 E923.51112
G1 X252.449 Y107.397 E923.52768
G1 X208.810 Y107.397 E925.34200
G1 X208.810 Y106.997 E925.35856
G1 X252.449 Y106.997 E927.17288
G1 X252.449 Y106.597 E927.18944
G1 X208.810 Y106.597 E929.00376
G1 X208.810 Y106.197 E929.02032
G1 X252.449 Y106.197 E930.83456
G1 X252.449 Y105.797 E930.85120
G1 X208.810 Y105.797 E932.66544
G1 X208.810 Y105.397 E932.68208
G1 X252.449 Y105.397 E934.49632
G1 X252.449 Y104.997 E934.51296
G1 X208.810 Y104.997 E936.32720
G1 X208.810 Y104.597 E936.34384
G1 X252.449 Y104.597 E938.15808
G1 X252.449 Y104.197 E938.17472
G1 X208.810 Y104.197 E939.98896
G1 X208.810 Y103.797 E940.00552
G1 X252.449 Y103.797 E941.81984
G1 X252.449 Y103.397 E941.83640
G1 X208.810 Y103.397 E943.65072
G1 X208.810 Y102.997 E943.66728
G1 X252.449 Y102.997 E945.48160
G1 X252.449 Y102.597 E945.49816
G1 X208.810 Y102.597 E947.31240
G1 X208.810 Y102.197 E947.32904
G1 X252.449 Y102.197 E949.14328
G1 X252.449 Y101.797 E949.15992
G1 X208.810 Y101.797 E950.97416
G1 X208.810 Y101.397 E950.99080
G1 X252.449 Y101.397 E952.80504
G1 X252.449 Y100.997 E952.82168
G1 X208.810 Y100.997 E954.63592
G1 X208.810 Y100.597 E954.65256
G1 X252.449 Y100.597 E956.46680
G1 X252.449 Y100.197 E956.48336
G1 X208.810 Y100.197 E958.29768
G1 X208.810 Y99.797 E958.31424
G1 X252.449 Y99.797 E960.12856
G1 X252.449 Y99.397 E960.14512
G1 X208.810 Y99.397 E961.95944
G1 X208.810 Y98.997 E961.97600
G1 X252.449 Y98.997 E963.79032
G1 X252.449 Y98.597 E963.80688
G1 X208.810 Y98.597 E965.62112
G1 X208.810 Y98.197 E965.63776
G1 X252.449 Y98.197 E967.45200
G1 X252.449 Y97.797 E967.46864
G1 X208.810 Y97.797 E969.28288
G1 X208.810 Y97.397 E969.29952
G1 X252.449 Y97.397 E971.11376
G1 X252.449 Y96.997 E971.13040
G1 X208.810 Y96.997 E972.94464
G1 X208.810 Y96.597 E972.96128
G1 X252.449 Y96.597 E974.77552
G1 X252.449 Y96.197 E974.79208
G1 X208.810 Y96.197 E976.60640
G1 X208.810 Y95.797 E976.62296
G1 X252.449 Y95.797 E978.43728
G1 X252.449 Y95.397 E978.45384
G1 X208.810 Y95.397 E980.26816
G1 X208.810 Y94.997 E980.28472
G1 X252.449 Y94.997 E982.09896
G1 X252.449 Y94.597 E982.11560
G1 X208.810 Y94.597 E983.92984
G1 X208.810 Y94.197 E983.94648
G1 X252.449 Y94.197 E985.76072
G1 X252.449 Y93.797 E985.77736
G1 X208.810 Y93.797 E987.59160
G1 X208.810 Y93.397 E987.60824
G1 X252.449 Y93.397 E989.42248
G1 X252.449 Y92.997 E989.43912
G1 X208.810 Y92.997 E991.25336
G1 X208.810 Y92.597 E991.26992
G1 X252.449 Y92.597 E993.08424
G1 X252.449 Y92.197 E993.10080
G1 X208.810 Y92.197 E994.91512
G1 X208.810 Y91.797 E994.93168
G1 X252.449 Y91.797 E996.74600
G1 X252.449 Y91.397 E996.76256
G1 X208.810 Y91.397 E998.57688
G1 X208.810 Y90.997 E998.59344
G1 X252.449 Y90.997 E1000.40768
G1 X252.449 Y90.597 E1000.42432
G1 X208.810 Y90.597 E1002.23856
G1 X208.810 Y90.197 E1002.25520
G1 X252.449 Y90.197 E1004.06944
G1 X252.449 Y89.797 E1004.08608
G1 X208.810 Y89.797 E1005.90032
G1 X208.810 Y89.397 E1005.91696
G1 X252.449 Y89.397 E1007.73120
G1 X252.449 Y88.997 E1007.74784
G1 X208.810 Y88.997 E1009.56208
G1 X208.810 Y88.597 E1009.57864
G1 X252.449 Y88.597 E1011.39296
G1 X252.449 Y88.197 E1011.40952
G1 X208.810 Y88.197 E1013.22384
G1 X208.810 Y87.797 E1013.24040
G1 X252.449 Y87.797 E1015.05472
G1 X252.449 Y87.397 E1015.07128
G1 X208.810 Y87.397 E1016.88552
G1 X208.810 Y86.997 E1016.90216
G1 X252.449 Y86.997 E1018.71640
G1 X252.449 Y86.597 E1018.73304
G1 X208.810 Y86.597 E1020.54728
G1 X208.810 Y86.197 E1020.56392
G1 X252.449 Y86.197 E1022.37816
G1 X252.449 Y85.797 E1022.39480
G1 X208.810 Y85.797 E1024.20896
G1 X208.810 Y85.397 E1024.22560
G1 X252.449 Y85.397 E1026.03976
G1 X252.449 Y84.997 E1026.05640
G1 X208.810 Y84.997 E1027.87064
G1 X208.810 Y84.597 E1027.88720
G1 X252.449 Y84.597 E1029.70144
G1 X252.449 Y84.197 E1029.71800
G1 X208.810 Y84.197 E1031.53224
G1 X208.810 Y83.797 E1031.54880
G1 X252.449 Y83.797 E1033.36304
G1 X252.449 Y83.397 E1033.37960
G1 X208.810 Y83.397 E1035.19384
G1 X208.810 Y82.997 E1035.21048
G1 X252.449 Y82.997 E1037.02464
G1 X252.449 Y82.597 E1037.04128
G1 X208.810 Y82.597 E1038.85544
G1 X208.810 Y82.197 E1038.87208
G1 X252.449 Y82.197 E1040.68624
G1 X252.449 Y81.797 E1040.70288
G1 X208.810 Y81.797 E1042.51712
G1 X208.810 Y81.397 E1042.53368
G1 X252.449 Y81.397 E1044.34792
G1 X252.449 Y80.997 E1044.36448
G1 X208.810 Y80.997 E1046.17872
G1 X208.810 Y80.597 E1046.19528
G1 X252.449 Y80.597 E1048.00952
G1 X252.449 Y80.197 E1048.02616
G1 X208.810 Y80.197 E1049.84032
G1 X208.810 Y79.797 E1049.85696
G1 X252.449 Y79.797 E1051.67112
G1 X252.449 Y79.397 E1051.68776
G1 X208.810 Y79.397 E1053.50192
G1 X208.810 Y78.997 E1053.51856
G1 X252.449 Y78.997 E1055.33280
G1 X252.449 Y78.597 E1055.34936
G1 X208.810 Y78.597 E1057.16360
G1 X208.810 Y78.197 E1057.18016
G1 X252.449 Y78.197 E1058.99440
G1 X252.449 Y77.797 E1059.01096
G1 X208.810 Y77.797 E1060.82520
G1 X208.810 Y77.397 E1060.84176
G1 X252.449 Y77.397 E1062.65600
G1 X252.449 Y76.997 E1062.67264
G1 X208.810 Y76.997 E1064.48680
G1 X208.810 Y76.597 E1064.50344
G1 X252.449 Y76.597 E1066.31760
G1 X252.449 Y76.197 E1066.33424
G1 X208.810 Y76.197 E1068.14840
G1 X208.810 Y75.797 E1068.16504
G1 X252.449 Y75.797 E1069.97928
G1 X252.449 Y75.397 E1069.99584
G1 X208.810 Y75.397 E1071.81008
G0 X226.633 Y49.797 F7200
G1 X266.077 Y49.797 E1073.44992 F2400
G1 X266.077 Y49.397 E1073.46656
G1 X226.633 Y49.397 E1075.10648
G1 X226.633 Y48.997 E1075.12304
G1 X266.077 Y48.997 E1076.76296
G1 X266.077 Y48.597 E1076.77952
G1 X226.633 Y48.597 E1078.41944
G1 X226.633 Y48.197 E1078.43600
G1 X266.077 Y48.197 E1080.07592
G1 X266.077 Y47.797 E1080.09256
G1 X226.633 Y47.797 E1081.73240
G1 X226.633 Y47.397 E1081.74904
G1 X266.077 Y47.397 E1083.38888
G1 X266.077 Y46.997 E1083.40552
G1 X226.633 Y46.997 E1085.04544
G1 X226.633 Y46.597 E1085.06200
G1 X266.077 Y46.597 E1086.70192
G1 X266.077 Y46.197 E1086.71848
G1 X226.633 Y46.197 E1088.35840
G1 X226.633 Y45.797 E1088.37504
G1 X266.077 Y45.797 E1090.01488
G1 X266.077 Y45.397 E1090.03152
G1 X226.633 Y45.397 E1091.67136
G1 X226.633 Y44.997 E1091.68800
G1 X266.077 Y44.997 E1093.32792
G1 X266.077 Y44.597 E1093.34448
G1 X226.633 Y44.597 E1094.98440
G1 X226.633 Y44.197 E1095.00096
G1 X266.077 Y44.197 E1096.64088
G1 X266.077 Y43.797 E1096.65744
G1 X226.633 Y43.797 E1098.29736
G1 X226.633 Y43.397 E1098.31400
G1 X265.946 Y43.397 E1099.94848
G1 X265.684 Y42.997 E1099.96840
G1 X226.895 Y42.997 E1101.58104
G1 X227.288 Y42.597 E1101.60440
G1 X265.291 Y42.597 E1103.18432
G1 X264.898 Y42.197 E1103.20768
G1 X227.681 Y42.197 E1104.75488
G1 X228.074 Y41.797 E1104.77816
G1 X264.505 Y41.797 E1106.29288
G1 X264.112 Y41.397 E1106.31616
G1 X228.467 Y41.397 E1107.79808
G1 X228.860 Y40.997 E1107.82144
G1 X263.718 Y40.997 E1109.27064
G1 X263.325 Y40.597 E1109.29392
G1 X229.254 Y40.597 E1110.71048
G0 X254.676 Y126.597 F7200
G1 X73.047 Y126.597 E1118.26168 F2400
G0 X71.606 Y126.997 F7200
G1 X256.118 Y126.997 E1125.93288 F2400
G0 X257.690 Y127.397 F7200
G1 X70.033 Y127.397 E1133.73472 F2400
G0 X68.592 Y127.797 F7200
G1 X259.132 Y127.797 E1141.65648 F2400
G0 X260.704 Y128.197 F7200
G1 X67.019 Y128.197 E1149.70896 F2400
G0 X65.578 Y128.597 F7200
G1 X262.146 Y128.597 E1157.88136 F2400
G0 X263.325 Y159.397 F7200
G1 X229.122 Y159.397 E1159.30336 F2400
G1 X228.729 Y158.997 E1159.32664
G1 X263.718 Y158.997 E1160.78136
G1 X264.112 Y158.597 E1160.80472
G1 X228.336 Y158.597 E1162.29208
G1 X227.943 Y158.197 E1162.31544
G1 X264.505 Y158.197 E1163.83544
G1 X264.898 Y157.797 E1163.85880
G1 X227.550 Y157.797 E1165.41152
G1 X227.157 Y157.397 E1165.43480
G1 X265.291 Y157.397 E1167.02024
G1 X265.684 Y156.997 E1167.04360
G1 X226.764 Y156.997 E1168.66176
G1 X226.633 Y156.597 E1168.67920
G1 X265.946 Y156.597 E1170.31376
G1 X266.077 Y156.197 E1170.33120
G1 X226.633 Y156.197 E1171.97104
G1 X226.633 Y155.797 E1171.98768
G1 X266.077 Y155.797 E1173.62760
G1 X266.077 Y155.397 E1173.64416
G1 X226.633 Y155.397 E1175.28408
G1 X226.633 Y154.997 E1175.30064
G1 X266.077 Y154.997 E1176.94056
G1 X266.077 Y154.597 E1176.95712
G1 X226.633 Y154.597 E1178.59704
G1 X226.633 Y154.197 E1178.61368
G1 X266.077 Y154.197 E1180.25352
G1 X266.077 Y153.797 E1180.27016
G1 X226.633 Y153.797 E1181.91000
G1 X226.633 Y153.397 E1181.92664
G1 X266.077 Y153.397 E1183.56656
G1 X266.077 Y152.997 E1183.58312
G1 X226.633 Y152.997 E1185.22304
G1 X226.633 Y152.597 E1185.23960
G1 X266.077 Y152.597 E1186.87952
G1 X266.077 Y152.197 E1186.89608
G1 X226.633 Y152.197 E1188.53600
G1 X226.633 Y151.797 E1188.55264
G1 X266.077 Y151.797 E1190.19248
G1 X266.077 Y151.397 E1190.20912
G1 X226.633 Y151.397 E1191.84896
G1 X226.633 Y150.997 E1191.86560
G1 X266.077 Y150.997 E1193.50552
G1 X266.077 Y150.597 E1193.52208
G1 X226.633 Y150.597 E1195.16200
G1 X226.633 Y150.197 E1195.17856
G1 X266.077 Y150.197 E1196.81848
G1 X266.077 Y149.797 E1196.83512
G1 X61.646 Y149.797 E1205.33432
G1 X61.646 Y150.197 E1205.35096
G1 X126.645 Y150.197 E1208.05320
G1 X126.645 Y150.597 E1208.06984
G1 X61.646 Y150.597 E1210.77208
G1 X61.646 Y150.997 E1210.78872
G1 X126.645 Y150.997 E1213.49096
G1 X126.645 Y151.397 E1213.50760
G1 X61.646 Y151.397 E1216.20984
G1 X61.646 Y151.797 E1216.22648
G1 X126.645 Y151.797 E1218.92872
G1 X126.645 Y152.197 E1218.94528
G1 X61.646 Y152.197 E1221.64760
G1 X61.646 Y152.597 E1221.66416
G1 X126.645 Y152.597 E1224.36648
G1 X126.645 Y152.997 E1224.38304
G1 X61.646 Y152.997 E1227.08536
G1 X61.646 Y153.397 E1227.10192
G1 X126.645 Y153.397 E1229.80416
G1 X126.645 Y153.797 E1229.82080
G1 X61.646 Y153.797 E1232.52304
G1 X61.646 Y154.197 E1232.53968
G1 X126.645 Y154.197 E1235.24192
G1 X126.645 Y154.597 E1235.25856
G1 X61.646 Y154.597 E1237.96080
G1 X61.646 Y154.997 E1237.97744
G1 X126.645 Y154.997 E1240.67968
G1 X126.645 Y155.397 E1240.69632
G1 X61.646 Y155.397 E1243.39856
G1 X61.646 Y155.797 E1243.41520
G1 X126.645 Y155.797 E1246.11744
G1 X126.645 Y156.197 E1246.13400
G1 X61.646 Y156.197 E1248.83632
G1 X61.777 Y156.597 E1248.85376
G1 X126.645 Y156.597 E1251.55064
G1 X126.514 Y156.997 E1251.56808
G1 X62.039 Y156.997 E1254.24864
G1 X62.433 Y157.397 E1254.27200
G1 X126.121 Y157.397 E1256.91976
